CodingCatMountain/get_multi_robot_pos/multi_robot/bagfile/iiwa_sample_Rename.csv
,time,iiwa_joint_1,iiwa_joint_2,iiwa_joint_3,iiwa_joint_4,iiwa_joint_5,iiwa_joint_6,iiwa_joint_7,link_pos_1,link_pos_2,link_pos_3,link_pos_4,link_pos_5,link_pos_6,link_pos_7
0,1639136551979647857,-1.023703194096215,1.5749805595303847,-1.3804528138430516,0.04063594506668977,0.9865373747813306,-0.4824352502065259,-3.004986539856081,"[0.0, 0.0, 0.15]","[0.0, 0.0, 0.34]","[-0.0722843194731492, 0.18899698631261244, 0.39617042213704545]","[-0.1376844180449664, 0.3599942596427489, 0.4469912802610012]","[-0.2075163105302107, 0.5571294856498958, 0.46599679154168827]","[-0.29979061706318755, 0.7202624369837489, 0.5342432752823535]","[-0.23637403981038257, 0.7981061373350913, 0.5214297650236661]"
1,1639136552079621092,-0.6608328361337574,1.7872430943801532,-2.2248734686231115,-1.123770740140433,-1.012589531106192,0.5904746647457784,2.08659337273068,"[0.0, 0.0, 0.15]","[0.0, 0.0, 0.33999999999999997]","[0.10924248186834318, -0.1793468931027591, 0.3391213136895306]","[0.20808091784525773, -0.3416131297190571, 0.33832631178954287]","[0.32439112910730317, -0.5164598995470593, 0.33906240749793615]","[0.3829099727522886, -0.705631381044273, 0.3630245761519418]","[0.48130744013658333, -0.7263089150486487, 0.37468081910816703]"
2,1639136552179660552,-0.72229873259601,-1.7098140129449797,2.502516226267916,0.6498130097705848,-1.1491044817412228,0.05401149202661859,1.3097006317268316,"[0.0, 0.0, 0.15]","[0.0, 0.0, 0.33999999999999997]","[0.16192262793707093, -0.12588517028040458, 0.29490026091620447]","[0.30842405321403277, -0.23978127672384048, 0.2540957350784463]","[0.3057163239455214, -0.42803116774442107, 0.3471260889042164]","[0.3639419969325259, -0.5983735101253022, 0.43301990356746856]","[0.3012579701820408, -0.6386818932504787, 0.5015139692971243]"
3,1639136552279538442,1.5287084280048862,-1.941011322291752,-0.2376808397333301,-0.059154938071304126,0.3057950297051999,-0.44250695174556004,-2.5505073890627936,"[0.0, 0.0, 0.15]","[0.0, 0.0, 0.33999999999999997]","[-0.15604042899435022, 0.13749395538588383, 0.3109002276365652]","[-0.2972198647505324, 0.261893248354766, 0.284571862164925]","[-0.48216347282200006, 0.3238481851761497, 0.36240146859439165]","[-0.6340195250993758, 0.35779213163688217, 0.4871894403120288]","[-0.7189788771414106, 0.40762734844797577, 0.4638688557141065]"
4,1639136552379591108,-0.44251515140100217,-0.6577343032383909,-2.4295911133694017,0.36064043652603095,-1.4717208153007533,-0.02895603160650584,-0.4038694470439759,"[0.0, 0.0, 0.15]","[0.0, 0.0, 0.33999999999999997]","[-0.008237217047963721, -0.1955990422860994, 0.2640186673447653]","[-0.01568993723514675, -0.3725696043544501, 0.1952736520853039]","[-0.021175854332290522, -0.5723114070521944, 0.13067398514608008]","[0.03433874894957217, -0.756053882308082, 0.07644003259514713]","[-0.025230032688293325, -0.8120850028636715, 0.016794716069326726]"
5,1639136552479542712,-2.2469968577090316,0.9278366713338948,-1.747410045033763,-1.470247929720148,-0.7338488463636685,0.6737685972872329,-2.0367842791635047,"[0.0, 0.0, 0.15]","[0.0, 0.0, 0.33999999999999997]","[-0.11601261140063734, 0.0549733614941761, 0.5061896612970715]","[-0.22097640266745414, 0.1047111647516391, 0.6565517358039696]","[-0.2686735351306612, 0.18088886895777315, 0.8463462060518407]","[-0.2545015268393624, 0.26853791898107765, 1.0249555233088177]","[-0.32966053356345626, 0.2771199203185354, 1.0922085006502824]"
6,1639136552579473379,1.903139121606924,-0.2752902981922085,0.6591381883465369,-1.5254133377210344,1.0530855959970724,-0.6977808217284871,1.1908887207846148,"[0.0, 0.0, 0.15]","[0.0, 0.0, 0.33999999999999997]","[-0.10518281461646446, -0.13108583010024316, 0.46590901737480384]","[-0.2003482183163643, -0.2496872954296352, 0.5798266997614998]","[-0.3575602184427555, -0.11695136358831099, 0.6218452601185]","[-0.49436662300323203, -0.009159566653488271, 0.7190534191628787]","[-0.5139875627311045, 0.08095269879135172, 0.6773366558584959]"
7,1639136552679530707,-1.0136293410717208,1.2233512807905678,2.3670168298234717,0.05399741016848925,-0.8737511270067793,-0.5787613309182393,2.6856976030831747,"[0.0, 0.0, 0.15]","[0.0, 0.0, 0.33999999999999997]","[0.018623986824276954, -0.053959948960228855, 0.5420927287731517]","[0.03547426061677863, -0.10278085516260847, 0.7249385309964901]","[-0.13719848707207802, 0.0037147538970281058, 0.7791861803151241]","[-0.2834070030512995, 0.1393334636826684, 0.7830753204812821]","[-0.31611513106982464, 0.16118502547768396, 0.8763393414574465]"
8,1639136552779589580,0.3744893437640053,1.2771331165045856,-1.210286171542382,0.07383822278643049,-2.904335887579621,0.36271751991193657,1.804575382448521,"[0.0, 0.0, 0.15]","[0.0, 0.0, 0.33999999999999997]","[0.10440920632824771, -0.16758834569206732, 0.4115042937319259]","[0.19887467872126857, -0.3192158965558381, 0.47619865472744094]","[0.29786202289409236, -0.4930927635533082, 0.5399822013265049]","[0.3931104730934183, -0.6683417941627937, 0.5399799513969006]","[0.38053090310133714, -0.7276715045128445, 0.621018398374822]"
9,1639136552879505560,2.4015842197994384,1.840977779767484,2.350340566077946,1.0743213717915558,-0.5884394352197573,0.8736000673349662,1.6490086903632488,"[0.0, 0.0, 0.15]","[0.0, 0.0, 0.33999999999999997]","[0.1870788057189818, 0.07352887687218908, 0.40078671496860063]","[0.3563405823215405, 0.1400550035669445, 0.4557842189877733]","[0.5361347953558075, 0.22629630869494682, 0.5216361608665616]","[0.6989057614316591, 0.3410301296051741, 0.5328723943134913]","[0.7487927003412778, 0.355036643846826, 0.6198241101391516]"
10,1639136552979686319,0.6146980717750408,-1.5199026983142994,0.2538516815539298,-1.4411205202685582,0.5706685513644056,2.0407037293734764,0.9987074574607786,"[0.0, 0.0, 0.15]","[0.0, 0.0, 0.33999999999999997]","[-0.14945138696206128, 0.13646480849859807, 0.28394967460792786]","[-0.28466930849978384, 0.2599329685680641, 0.23323747544363432]","[-0.2417213751833611, 0.3985547474206751, 0.08144986906028738]","[-0.18871500861297671, 0.47844909825122595, -0.09345498452694428]","[-0.25126462012543793, 0.5557039639385752, -0.11255267620080364]"
11,1639136553079531073,-1.0228005882112234,0.0824589389144128,-2.670561611343249,2.045752605905258,-1.6800679392390108,1.7477630428894682,0.10079149289529797,"[0.0, 0.0, 0.15]","[0.0, 0.0, 0.3400000000000001]","[-0.1713368632479458, -0.12095268397619388, 0.35068304878345696]","[-0.3263559299966221, -0.23038606471579856, 0.3603486643494811]","[-0.3702944453739083, -0.1973906915032686, 0.5630324382757771]","[-0.3549152836425783, -0.18783732667918504, 0.7616695561691345]","[-0.3762114088374054, -0.10619090299727868, 0.7057604643178005]"
12,1639136553179557200,-1.9248008636740601,0.4986876914365119,-0.5362090758954796,-1.474085615482724,0.4066357063343585,-1.7471127293555924,1.9405533087796063,"[0.0, 0.0, 0.15]","[0.0, 0.0, 0.33999999999999997]","[0.009011222816923856, -0.014764002647846884, 0.5492864594023181]","[0.017164233937812336, -0.02812190980497139, 0.7386408750520311]","[0.17178962051396018, -0.11878406688046933, 0.6292271505902682]","[0.28245672549175777, -0.18827519504882687, 0.4785345330480606]","[0.33908845887213246, -0.12464485192418467, 0.533211001553026]"
13,1639136553279700176,-1.886164347518856,1.3573598119734118,0.6378223165467207,-2.0150725150249054,1.3582527889999096,-1.0793132306619553,0.0402375505658501,"[0.0, 0.0, 0.15]","[0.0, 0.0, 0.33999999999999997]","[-0.034817317483017494, -0.09420950780395593, 0.5244243016595783]","[-0.06631869996679167, -0.17944668153169957, 0.6912843841134637]","[-0.22454524258883635, -0.2995412388070787, 0.6231546657615951]","[-0.4017414589032813, -0.35863334473378117, 0.5531967216737946]","[-0.3843712792050066, -0.4063485773856191, 0.6407582624907001]"
14,1639136553379545028,-2.587103533110904,0.09227825514858257,1.2190850830563815,-1.3780922766526762,-2.727121477280754,-1.8446646880248807,1.2591106039163589,"[0.0, 0.0, 0.15]","[0.0, 0.0, 0.3400000000000001]","[-0.06365694412093453, -0.19511312955779847, 0.3844821328102194]","[-0.12125132213423154, -0.37164405630086494, 0.4247278720194271]","[0.0034371481945179028, -0.353478965418506, 0.2567313993174318]","[0.10911953843961342, -0.2767766356654399, 0.10595847402069532]","[0.08210184025690831, -0.33959376082666903, 0.031329104658582074]"
15,1639136553479524237,1.7791349729014247,1.5723906177922449,0.9779971989982714,-1.153216087445509,1.2857625205943086,-0.6659555168620834,-1.456576655108471,"[0.0, 0.0, 0.15]","[0.0, 0.0, 0.33999999999999997]","[-0.016451582334503532, -0.01018844640790111, 0.5491065302626496]","[-0.03133634730335972, -0.019406564587289822, 0.7382981528812337]","[0.007279088191690937, -0.223088556454852, 0.771801799405006]","[0.09362214243705128, -0.3928818376356386, 0.8309592896276742]","[0.07710037932038383, -0.38984633508318245, 0.7311429228947043]"
16,1639136553579590598,0.6877747717356004,1.657336315647871,-1.9083704676343989,1.0079538068798812,0.8824147863850413,-1.6837570684726455,0.04152220146092933,"[0.0, 0.0, 0.15]","[0.0, 0.0, 0.33999999999999997]","[-0.04343524386148151, 0.20545867589129868, 0.3396651990323877]","[-0.0827337978323035, 0.39134985884037643, 0.3393622838711754]","[-0.2560748676824083, 0.4415774016577767, 0.23198413224922132]","[-0.41172496256796975, 0.43280441527768243, 0.1075631827588304]","[-0.4372489515773666, 0.521310655556269, 0.06560294662034713]"
17,1639136553679535772,1.6706114488919261,-0.69335251714903,1.1410451416740597,1.6580882389953941,2.302824709189933,-0.06728110897881767,-0.04840764922332808,"[0.0, 0.0, 0.15]","[0.0, 0.0, 0.33999999999999997]","[0.16165150200737688, 0.1328131890365607, 0.32184927779128847]","[0.3079076228706009, 0.25297750292749904, 0.3054271957928913]","[0.2838510707275927, 0.45010196617112863, 0.2371393616648298]","[0.3024619970957556, 0.6476096806345777, 0.21643124376040643]","[0.2037470867489585, 0.6310518706290889, 0.23148765113553985]"
18,1639136553779530786,-1.4848747786497254,0.6927475737812521,2.1857560643382743,2.035112894044063,1.4173190258661497,1.1595003937221264,2.8583961928490385,"[0.0, 0.0, 0.15]","[0.0, 0.0, 0.34]","[0.013374455881103232, -0.13354699409421333, 0.5015126134340121]","[0.025475154058315422, -0.2543752268461832, 0.6476430732076671]","[0.22022049021214762, -0.2904848184829096, 0.5778551699710758]","[0.388976615057135, -0.3825662116735168, 0.5246867831666988]","[0.47328989011070555, -0.3364440211143853, 0.4929140717972217]"
19,1639136553879587806,2.809409702856553,-0.8763445551554709,2.083594121092996,-1.3942466851904212,0.522749637460648,-1.6447211036778135,2.341168705175189,"[0.0, 0.0, 0.15]","[0.0, 0.0, 0.33999999999999997]","[0.011509392878645178, -0.13362254792380568, 0.5015937763712305]","[0.02192265310311084, -0.25451913890243727, 0.6477976692785092]","[-0.1288795662049761, -0.29089261196848715, 0.5062502881339999]","[-0.2773827179651528, -0.37704595813398156, 0.40471751085600716]","[-0.33809254670843003, -0.29615974117290494, 0.4005670169471327]"
20,1639136553979575185,1.6551089575724052,-1.946654947261348,-2.543787172480982,1.8874670551043409,2.4792360032951595,-1.4354849117905581,0.8517001872427405,"[0.0, 0.0, 0.15]","[0.0, 0.0, 0.33999999999999997]","[0.15254359489784078, -0.052622316868938965, 0.4743924976439846]","[0.29055922837651244, -0.10023298451313598, 0.5959857097980962]","[0.31996650505873553, -0.3009393332139888, 0.5416518007788949]","[0.2888288410822915, -0.4948126714385246, 0.5066080480151741]","[0.3679176101265339, -0.49406498782657615, 0.569773684086403]"
21,1639136554079602245,0.2627360542503272,1.4149791235786315,1.8248202416388677,1.9648943309280376,-0.4628406628128547,0.7452890477598593,1.8702255463650457,"[0.0, 0.0, 0.15]","[0.0, 0.0, 0.33999999999999997]","[0.016450164424650415, -0.1946465964530939, 0.26291501715879817]","[0.03133364652221782, -0.3707554218155097, 0.19317146125489024]","[-0.08060845918525439, -0.3799332662269884, 0.3706108372167546]","[-0.14507712466781092, -0.43170386809453887, 0.5521269135107562]","[-0.23506397060016349, -0.44462626420047674, 0.5076199563239489]"
22,1639136554179562277,-0.5395604443271504,0.20389406372606445,2.112162279372195,-1.0211626604547492,-0.33778572788230266,0.1542182888189756,-0.3588606614136838,"[0.0, 0.0, 0.15]","[0.0, 0.0, 0.33999999999999997]","[0.2003365908173474, 0.05388119939676224, 0.37258936530908615]","[0.38159350631852107, 0.1026308559947329, 0.4020749815410777]","[0.3607164297593726, -0.09733317264196836, 0.34142405470789594]","[0.31928004208459543, -0.25975265772201794, 0.2333156524313053]","[0.386619067415042, -0.33383052275260583, 0.24826274512705948]"
23,1639136554279540118,-1.233370946279036,0.7351175175677107,-0.6804697127093586,1.14793262647496,-0.256023539495712,-0.3241129330692676,-2.4202607361112265,"[0.0, 0.0, 0.15]","[0.0, 0.0, 0.33999999999999997]","[0.03648083200090649, -0.02184590000553343, 0.5456499587879119]","[0.06948729904985665, -0.0416112381049996, 0.7317142072150623]","[0.08986055929016762, 0.12506504186061246, 0.8578250630681786]","[0.16759361848115872, 0.2642583100622248, 0.9776887172597807]","[0.11842517760480378, 0.3465787915910882, 1.0101123620679204]"
24,1639136554379634650,1.9185040099468416,1.2522115601680532,-2.6869807874634937,-1.837861561650624,-0.4101289330339797,0.08073883672754299,-0.5817376238010996,"[0.0, 0.0, 0.15]","[0.0, 0.0, 0.33999999999999997]","[0.04662684776820059, -0.13289957083192486, 0.4957679079267975]","[0.08881304336888868, -0.2531420396795765, 0.6367007770033973]","[0.18508649759583057, -0.16360848288015595, 0.8004541409934475]","[0.21947822095702307, -0.05823692886198695, 0.9662809632148338]","[0.3122644547090392, -0.02895498438877686, 0.9941874598416781]"
25,1639136554479516513,2.3066306105545533,0.05402337108360866,0.01892537875336675,1.8278649532981184,-1.2303439583266949,0.6052717606441687,0.6641226914589344,"[0.0, 0.0, 0.15]","[0.0, 0.0, 0.33999999999999997]","[-0.06795541908245764, 0.18749792964074793, 0.40577679984432735]","[-0.12943889349127435, 0.3571389136011192, 0.4652891425605862]","[-0.008460569057206213, 0.28437542319651354, 0.6207552786843872]","[0.05228057955272418, 0.21441144649460378, 0.7973906229097177]","[0.14649460059089037, 0.18445538633425868, 0.8191125634190225]"
26,1639136554579500906,-1.7526941188350589,-0.2132469799629606,2.629935701592918,-0.2482123412715802,-2.8116846950101584,1.2106151829415237,2.046084837311952,"[0.0, 0.0, 0.15]","[0.0, 0.0, 0.34]","[-0.007611064781428509, 0.008405561613480361, 0.5496936294379371]","[-0.014497266251055945, 0.016010593548891082, 0.73941643702464]","[0.12638505826195667, -0.13385176206322216, 0.697067351908209]","[0.2606681937207366, -0.24718974602881888, 0.602690284132329]","[0.332319965450926, -0.28946450280653374, 0.6603475347371738]"
27,1639136554679621882,2.888310466186569,-0.6968811226205028,-2.301557355929244,-1.136240642293608,-2.2101501553871694,-1.1646766900621108,-1.8769166602863523,"[0.0, 0.0, 0.15]","[0.0, 0.0, 0.33999999999999997]","[0.008039619966243285, 0.04371001552732941, 0.5452432679855761]","[0.015313561841371476, 0.08325717243280234, 0.7309395580677723]","[0.055903300648547725, 0.16429786099376026, 0.920372606665769]","[0.03641986195497465, 0.2604232795526554, 1.0940527423277122]","[0.07356057240717412, 0.18476719881979398, 1.150108206604165]"
28,1639136554779559044,0.4047919924474379,-0.6913970594074621,-1.022449469152487,-1.6335066772049542,0.09688663859175728,0.9391934526336104,0.8805502104439085,"[0.0, 0.0, 0.15]","[0.0, 0.0, 0.33999999999999997]","[0.13048384973729177, -0.03377457676542539, 0.5010380170085692]","[0.2485406661660077, -0.06433252717313204, 0.6467390800163476]","[0.43340182382069814, 0.034338127057489065, 0.6329385588570243]","[0.6001574841800791, 0.13293642905519515, 0.6804297641615431]","[0.5935274500678892, 0.2033303178018639, 0.6079988793485517]"
29,1639136554879618208,-0.12111806917846925,2.0581814155183404,-0.5957399247592035,-0.8278293079868166,0.4868335273099715,0.3978379408325208,1.9968292936579748,"[0.0, 0.0, 0.15]","[0.0, 0.0, 0.33999999999999997]","[-0.1230778154535731, -0.05273309745705636, 0.5017747562994944]","[-0.23443393419762076, -0.10044399515543079, 0.6481423929514429]","[-0.07891911857565419, -0.22839773347057093, 0.7076653546825797]","[0.040854794272582706, -0.3870533137675729, 0.7240087521765067]","[0.13490926339750264, -0.3497776499533836, 0.7271347279987121]"
30,1639136554979582086,0.2240081364506308,0.1847778250120484,-1.4026721658633892,0.4800444384158738,-0.4805793614038562,-1.7177436320080646,-0.505508135385031,"[0.0, 0.0, 0.15]","[0.0, 0.0, 0.33999999999999997]","[0.18418841082516738, -0.022418274314002447, 0.2416534174743143]","[0.3508350682385082, -0.042701474882888474, 0.15267317614151635]","[0.4054364181597468, -0.13676932845198794, -0.026965159164956815]","[0.43642936023930157, -0.27523031300725903, -0.1671524742017971]","[0.4454844281624714, -0.25019027980059033, -0.2648074407007712]"
31,1639136555079560231,-1.4748432808038383,0.17363163950931115,0.7217967419203881,-0.485986357872823,2.832122510348749,-1.6173786518229705,0.4355873339713514,"[0.0, 0.0, 0.15]","[0.0, 0.0, 0.33999999999999997]","[0.037618913320809445, 0.008570784189715255, 0.5464251898847008]","[0.07165507299184899, 0.016325303219420925, 0.7331908378756131]","[0.06822885828692256, 0.11360935327332283, 0.9192662920814425]","[0.004506697442272074, 0.20374660960059962, 1.085396515818965]","[0.06916008457967206, 0.26708945517322047, 1.040085220908925]"
32,1639136555179503654,1.6296201220477855,-2.0401337508185597,-2.3917796795515014,-1.324712483007409,0.2552829185861181,-1.533981516550821,2.0069065812354334,"[0.0, 0.0, 0.15]","[0.0, 0.0, 0.33999999999999997]","[0.0034758091297217852, -0.03611282266706337, 0.5468424105204515]","[0.00662058881944742, -0.06878632888959395, 0.7339855438484723]","[0.08115299755509675, -0.16669406518505664, 0.9041589707445662]","[0.19994631632767668, -0.2231755477031464, 1.0541005578628666]","[0.17942279618938012, -0.3109002650825966, 1.0079632727040222]"
33,1639136555279507688,0.7473447803064119,-1.9080785386300576,-0.6675736505829617,0.2467514667157995,2.7640912868304137,1.0469343657580437,2.7133615242483238,"[0.0, 0.0, 0.15]","[0.0, 0.0, 0.33999999999999997]","[0.011010892139893522, -0.18696836980093096, 0.2450179546005355]","[0.020973127884583803, -0.3561302281923221, 0.1590818182867693]","[0.15825593201542887, -0.3262181320998837, 0.0030090846100352675]","[0.2401807509199672, -0.2689900699475061, -0.16961120084257955]","[0.260483926159794, -0.36802002343282597, -0.17474339217535753]"
34,1639136555379544612,2.2024718015715936,-0.9356563007145352,-1.9085942654456245,-0.08490388341916932,1.1029148458976592,1.6053964915604553,1.3982958924942357,"[0.0, 0.0, 0.15]","[0.0, 0.0, 0.34]","[-0.14535553223115644, -0.1346935695908319, 0.2705060321993559]","[-0.2768676804409399, -0.2565591801723396, 0.20763053752261965]","[-0.42962642837992976, -0.35482034824934383, 0.10222888774305094]","[-0.6052240333722468, -0.4362670510613734, 0.0540998349577403]","[-0.6185242077126769, -0.40129823709602797, -0.03995215817569217]"
35,1639136555479598116,2.895471224476861,1.8195749713498992,0.6075089398299998,-2.001380674952129,1.0047964974357084,0.5260662360056729,1.7005528770567768,"[0.0, 0.0, 0.15]","[0.0, 0.0, 0.33999999999999997]","[0.09982223619629726, -0.13642806258785767, 0.4645909503105833]","[0.19013759275408731, -0.25986297635835476, 0.5773160958297141]","[0.30522776574388133, -0.3887039379371612, 0.6967072960943391]","[0.4562702866589198, -0.4985052937468447, 0.7668094297136904]","[0.4337146769618497, -0.44027061816005897, 0.8464678067401855]"
36,1639136555579517554,-1.5862656747906314,0.014820357047762744,-2.33052298011246,1.1122545211262542,2.31104815174908,-0.4535400287557319,-1.3127095474926365,"[0.0, 0.0, 0.15]","[0.0, 0.0, 0.34]","[-0.19740132753800532, 0.04959008297629476, 0.28829371840252527]","[-0.3760025286440369, 0.09445730090632343, 0.2415118445762005]","[-0.2827304672740209, -0.04128991784207535, 0.1112313196698955]","[-0.14484705329581135, -0.13740377921214075, 0.003831227480691368]","[-0.16066444894281656, -0.23474317387059054, -0.018979783949594986]"
37,1639136555679538199,-0.6679337731867627,-0.8025733066722005,2.319029978196362,1.5523519619872137,-1.976060473672167,1.6775987278445883,1.544989632946208,"[0.0, 0.0, 0.15]","[0.0, 0.0, 0.33999999999999997]","[-4.814118323409459e-05, -0.00311178868592954, 0.5499769379089061]","[-9.16974909448429e-05, -0.005927216544681353, 0.7399560722074395]","[0.13439170331304937, -0.13907802095043537, 0.8309784771102594]","[0.21323633960410882, -0.275501756354174, 0.9532755651648049]","[0.31345979779558053, -0.27990338027241235, 0.9667430866526169]"
38,1639136555779521944,2.1006742742777833,1.651800000110511,2.5523090152468257,-1.5790890457992264,0.14433570843230825,1.618802655357396,-1.5398581507713798,"[0.0, 0.0, 0.15]","[0.0, 0.0, 0.33999999999999997]","[-0.11856687808055243, 0.09353699961360842, 0.48592026975549096]","[-0.2258416725337879, 0.17816571355044397, 0.6179433709628681]","[-0.24540824742737377, -0.0023994054525472014, 0.7233634209835798]","[-0.25135913690197653, -0.19673795099714586, 0.7678786614083041]","[-0.18364942211105817, -0.15680401297157778, 0.8316451503872545]"
39,1639136555879554075,-0.9516969063865964,1.5009135065267467,-0.9792365735977804,1.6593266361418182,-0.3552053913917517,-0.518546107132916,-2.591000817612865,"[0.0, 0.0, 0.15]","[0.0, 0.0, 0.33999999999999997]","[-0.10579185311836098, 0.1806082772699705, 0.32300782546709816]","[-0.20150829165482215, 0.3440157662280423, 0.30763395327062404]","[-0.308473185976466, 0.29571986514110066, 0.4817776218921386]","[-0.4425398523472128, 0.21696044914272405, 0.606707895884592]","[-0.3545135840611556, 0.18954976715543245, 0.6484873238919573]"
40,1639136555979511398,1.6803294932140207,-0.5093359136009799,-0.5426956673501021,-1.1388053745717914,-0.6514194328782326,1.9784574618787816,0.8128114892976814,"[0.0, 0.0, 0.15]","[0.0, 0.0, 0.33999999999999997]","[0.12156596664225597, -0.17060685501424394, 0.3546634503607665]","[0.23155422217648486, -0.32496543812183176, 0.36793038163951597]","[0.35748585637120583, -0.20248862418193722, 0.48299842045212227]","[0.43027119150460086, -0.09128177814411687, 0.6317257628738837]","[0.49654478973502947, -0.018036221756361936, 0.609626245977808]"
41,1639136556079600032,2.1936735024614475,-0.39834149821296094,0.825257120401254,2.0171837242370985,-1.7947546988851235,-1.5238762981263363,-2.4819699318487234,"[0.0, 0.0, 0.15]","[0.0, 0.0, 0.33999999999999997]","[0.011193288711197714, -0.10178185611465601, 0.523344386479879]","[0.021320549925162413, -0.19387020212322192, 0.6892274028188362]","[0.10832137366424252, -0.08399391486164835, 0.8456181255818368]","[0.22563313696880194, -0.03021769737749501, 0.9977054643825144]","[0.22215579597860904, 0.028453388112064118, 0.9152973226299256]"
42,1639136556179581216,-1.3270103064593282,0.2810992014657612,-2.7392832064154047,0.17235714413465342,-2.069168178624603,0.8950537141925472,-1.037191345250229,"[0.0, 0.0, 0.15]","[0.0, 0.0, 0.33999999999999997]","[0.04751989979405441, -0.06615960563350382, 0.5335581713748667]","[0.09051409484504125, -0.12601829644528253, 0.7086822311902375]","[0.2521295408355243, -0.11246196159913963, 0.5752780580814607]","[0.359604294960312, -0.09410382228303471, 0.4082551675943574]","[0.40010361415203083, -0.18028405021762692, 0.4425810100188202]"
43,1639136556279560309,-2.5024643990322417,-0.3920457407821798,1.7000437859219368,-1.1505853586903876,-0.3007791812905149,1.5847233148392363,1.4267641110790694,"[0.0, 0.0, 0.15]","[0.0, 0.0, 0.33999999999999997]","[0.014061860375135505, -0.056533911464687246, 0.5417577283211057]","[0.026784495953551007, -0.10768364088493063, 0.7243004348973333]","[0.06200835064095267, -0.19087432238586435, 0.9138751973853053]","[0.101158351676566, -0.320814946126203, 1.060050440572663]","[0.164216883287227, -0.2749427584040583, 1.1245861205078092]"
44,1639136556379566736,-2.555789198761345,-1.3675793574525614,1.3698059339657331,-1.7032236255276716,-2.3937706001242973,1.1275172838110246,1.2360690501431109,"[0.0, 0.0, 0.15]","[0.0, 0.0, 0.33999999999999997]","[0.06439930050452487, 0.04786089728457111, 0.5340671651919603]","[0.12266533429485889, 0.09116361387460518, 0.7096517432227968]","[0.2806790856668746, -0.028291816100850492, 0.77938017807345]","[0.3854526262040049, -0.1649995214954802, 0.879968440256716]","[0.4070160360443411, -0.19029949703942717, 0.7843628933803273]"
45,1639136556479552340,0.9916875346405124,0.8656664536212872,0.9726632135561974,-0.3526678672244625,-1.4581483331401033,0.9539962901853104,-2.8474522867708503,"[0.0, 0.0, 0.15]","[0.0, 0.0, 0.33999999999999997]","[0.1713855121270653, 0.11371338987538761, 0.38238243971259345]","[0.3264485945282512, 0.2165969330951968, 0.42072845659545455]","[0.4095992027069081, 0.026982722630926215, 0.4558344040905834]","[0.5332394732333215, -0.12952585823750573, 0.4542103293679228]","[0.5318936748227039, -0.15025077311839602, 0.553276755213503]"
46,1639136556579485980,-0.9465934568566714,-1.1724261519869748,0.5100672175856804,-2.0120641946030697,1.6985586284831498,-1.2355205960840585,-0.35885998934068075,"[0.0, 0.0, 0.15]","[0.0, 0.0, 0.33999999999999997]","[0.08752114959762566, 0.13384578738190162, 0.4761078747656756]","[0.16670695161376037, 0.2549443569184383, 0.599253094791733]","[0.2131611359748909, 0.43551352862895265, 0.6958801250840941]","[0.296933092164235, 0.5702303890942945, 0.8167855296885708]","[0.31124559869214297, 0.6520172000592316, 0.7588928729083345]"
47,1639136556679681245,2.0433479781411665,-0.64105302308163,-2.681199691682546,-1.3569014451996628,0.6024684423445508,0.2745186003990603,-0.2216766333570788,"[0.0, 0.0, 0.15]","[0.0, 0.0, 0.33999999999999997]","[-0.11312383264967538, 0.15705686836034616, 0.42146249804351155]","[-0.21547396695099896, 0.2991559397345241, 0.4951666629400583]","[-0.05436366126400716, 0.2341011949021906, 0.6131130472688882]","[0.11007446161693774, 0.13938790986545804, 0.6745458347763904]","[0.0687975288125588, 0.10999551184969938, 0.7621688440670216]"
48,1639136556779643711,1.4961296653730085,-1.782494444515965,1.263558379445739,-1.7930940179876456,-0.5109131651695735,-1.8868378557368508,0.7891346780863033,"[0.0, 0.0, 0.15]","[0.0, 0.0, 0.33999999999999997]","[0.057162763226211714, -0.11182509003211882, 0.5083079550694279]","[0.10888145376337013, -0.21300017149014555, 0.6605865810846482]","[0.2692665331336185, -0.3264364540259924, 0.5863650470136882]","[0.37871251538989337, -0.4506128141040018, 0.4750712980170094]","[0.47979414655240094, -0.45443004881719257, 0.478734979317445]"
49,1639136556879536005,-0.10525707323416622,0.04748001798525081,-2.6255312472261045,0.18527809049393484,1.6952230536796418,-1.4151212543933902,-2.9429772853671814,"[0.0, 0.0, 0.15]","[0.0, 0.0, 0.33999999999999997]","[-0.015315710612346337, -0.20473980593143665, 0.29587471387518816]","[-0.029172782119683244, -0.38998058272648484, 0.2559518359527779]","[-0.22146392643616983, -0.3432569290721422, 0.3262441968936735]","[-0.38862662541093035, -0.34092731274598703, 0.4350361771093424]","[-0.4021011103124027, -0.3619655626039664, 0.3369478480403181]"
50,1639136556979628356,1.0928277754922004,1.2774959840091515,-2.4904920687739978,-0.3225602330860107,-2.2221289527219916,-1.5114215646654483,1.8520705402062367,"[0.0, 0.0, 0.15]","[0.0, 0.0, 0.33999999999999997]","[0.009911896098097332, -0.0010471672404464979, 0.5497633374937362]","[0.018879802091750747, -0.001994604266596054, 0.7395492142737813]","[0.06405182640741904, 0.01242933680013356, 0.9441254546912065]","[0.054232930188415594, -0.005129166995757302, 1.1425688426422542]","[0.06710519291259712, 0.09522496088323341, 1.1455427071325812]"
51,1639136557079528528,-0.11790675392000027,0.0896883245688791,-0.38894753462494025,1.9056160083456308,-1.2293962502824292,1.0142582026848492,-2.6495385451327333,"[0.0, 0.0, 0.15]","[0.0, 0.0, 0.33999999999999997]","[0.0924699325306714, 0.17850251983466878, 0.40071377101158145]","[0.17613320481950573, 0.34000479968552144, 0.4556452781172603]","[0.2926161878436071, 0.4771506517297234, 0.5639168345523498]","[0.41390483883687396, 0.628615822290979, 0.6100888525619971]","[0.46452946651744753, 0.5551894571637797, 0.6579553959551699]"
52,1639136557179548594,-0.050265379184737835,-0.15206595022214842,-1.6598883916834206,-1.878453623116933,1.7228006198583483,0.8880231488536414,-2.3712207573915847,"[0.0, 0.0, 0.15]","[0.0, 0.0, 0.3400000000000001]","[0.018678715351623746, -0.0022126094449265847, 0.5491559464903097]","[0.035578505431812575, -0.004214494179893289, 0.7383922790291577]","[-0.1432294387962202, 0.09270519512644879, 0.6861018123482525]","[-0.30328506636129815, 0.15407693436284084, 0.584120462544235]","[-0.37745480422762206, 0.1469120085105605, 0.6526259646763419]"
53,1639136557279493635,2.048215148850255,-0.6016643227706344,-2.348563107350188,1.6752716555495977,2.6811916663365776,0.27668185716684857,-0.9601095165971616,"[0.0, 0.0, 0.15]","[0.0, 0.0, 0.33999999999999997]","[-0.031770740021402205, 0.001598314624948245, 0.5475766496233431]","[-0.06051569527877579, 0.003044408810352464, 0.7353840945206594]","[-0.07849018461271558, -0.19564924621147675, 0.6698268738104248]","[-0.07459985896200802, -0.3591318959432247, 0.5556218887921779]","[-0.04009445595995491, -0.4351522106484781, 0.612856309517648]"
54,1639136557379498732,-2.3916803643199165,-0.9471474806974879,2.410748923239216,-1.4456994249193913,-1.7223994661955564,-0.06675234094167083,2.643676115997541,"[0.0, 0.0, 0.15]","[0.0, 0.0, 0.3400000000000001]","[0.05461623911909079, -0.10557239510311706, 0.5131228922375018]","[0.10403093165456989, -0.20109027638728838, 0.6697578899762162]","[-0.08934499396859563, -0.15114793253528266, 0.7346540661343846]","[-0.24064106305764152, -0.07301980229629748, 0.8385289174871682]","[-0.33585121039788635, -0.06960724167392202, 0.8043401434019884]"
55,1639136557479619067,1.3686892094895886,1.9633987793877783,-0.5812107845059593,0.1685801528723947,1.9939244455081693,0.3589941997163746,-2.4468965433656105,"[0.0, 0.0, 0.15]","[0.0, 0.0, 0.33999999999999997]","[0.12473981460682686, 0.11618673494744228, 0.46264021067377237]","[0.23759964687076374, 0.22130806656586022, 0.5736004012834076]","[0.4142570060907912, 0.19578829638465808, 0.4629617156291359]","[0.6016276756536747, 0.21450620747410093, 0.3971866292209493]","[0.6404881148640753, 0.1667392497727362, 0.3168518670296614]"
56,1639136557579632712,-0.09217127679307248,1.3680544418521907,1.4047894684052022,-0.7378858492542146,-1.129988444851479,1.3511286125555682,-0.4747853390617931,"[0.0, 0.0, 0.15]","[0.0, 0.0, 0.33999999999999997]","[0.03894690643914121, 0.1900732909636012, 0.25965522704564425]","[0.07418458369268788, 0.3620443637403648, 0.18696233722976227]","[0.09588983287118927, 0.5643439913347537, 0.13496481004557057]","[0.12163610497638577, 0.7317290788030704, 0.029589993481511687]","[0.09520592781335996, 0.8225499148110305, 0.06562485829250095]"
57,1639136557679525355,-0.7832079707940092,0.877999384500161,-2.0069781981371992,-1.5994115794396595,-1.1106368494036285,-1.875205213061769,-0.4640217435364109,"[0.0, 0.0, 0.15]","[0.0, 0.0, 0.33999999999999997]","[0.20482567159018472, -0.01893268855874928, 0.38228472019024334]","[0.39014413636235007, -0.036062263920501575, 0.42054232417185355]","[0.5591977842542263, 0.08823565652137273, 0.428962009930538]","[0.7478666232748388, 0.1528658325533053, 0.42557091442972217]","[0.7203710639438158, 0.22454979754178495, 0.3596096122851724]"
58,1639136557779608699,-1.4783364527445084,-1.546492945112854,0.4454717322228441,0.8182999896185739,-2.4300767026485524,0.4184483404841917,0.08795593145509484,"[0.0, 0.0, 0.15]","[0.0, 0.0, 0.33999999999999997]","[0.11450934884024688, -0.11400884917379703, 0.47412528224853445]","[0.21811304541066825, -0.21715971271135273, 0.5954767280924164]","[0.040457790959620266, -0.30876193757719017, 0.659878924992537]","[-0.09495004095637175, -0.402776823235905, 0.7721750083186674]","[-0.07408479435324983, -0.4491260274777506, 0.6846428270917689]"
59,1639136557879484573,-1.3560145844569809,0.3929408567561219,2.12014267060476,-1.6541963687268333,2.3544666358842985,0.640741477777953,2.601639484823505,"[0.0, 0.0, 0.15]","[0.0, 0.0, 0.33999999999999997]","[-0.01938319475432701, 0.20904126155333697, 0.34510320774662323]","[-0.03692037095969636, 0.39817383153025065, 0.34972039570789293]","[-0.11624941519257886, 0.5382946207062268, 0.21491287669727174]","[-0.15576592425037647, 0.6400924090879258, 0.04799928889663804]","[-0.24093735675208472, 0.6940195278936503, 0.03887882054680783]"
60,1639136557979536966,-1.1780436191409556,-1.4288699743436046,-1.2627743659986854,1.3630185336359582,0.9334377473302921,1.122945472286604,2.8211355328504357,"[0.0, 0.0, 0.15]","[0.0, 0.0, 0.33999999999999997]","[0.017138211140770007, -0.0785628308221, 0.5339952662621242]","[0.032644211697621425, -0.1496434872800277, 0.7095147928802216]","[0.18408147299494132, -0.006439502598633448, 0.7351930845316976]","[0.2859304670864732, 0.16503014119964157, 0.7321216584401459]","[0.3495256042461141, 0.1791073588477484, 0.8096005618457456]"
61,1639136558079526665,-1.093219961616586,0.6805537645750008,-2.6081800184992834,0.10038456388618933,-1.90255117541894,-0.8795196434835231,-1.3862617775246433,"[0.0, 0.0, 0.15]","[0.0, 0.0, 0.34]","[-0.07956579321251543, 0.19205968536969809, 0.36970457550876334]","[-0.151553891832501, 0.3658279721331092, 0.3965801438262547]","[0.009563053141085964, 0.4885320059202014, 0.3410369162034901]","[0.11657513030953245, 0.6394435236349519, 0.266480768495035]","[0.17785741537118213, 0.6548033580535834, 0.3455633014859233]"
62,1639136558179612915,-1.982153888284288,0.6304252247272499,2.7567755098347773,1.7054314097022265,0.3952664191022071,1.6083645570040352,-0.99381019677595,"[0.0, 0.0, 0.15]","[0.0, 0.0, 0.3400000000000001]","[0.06073384627088824, -0.11735233533174569, 0.5032171232111682]","[0.11568351670729406, -0.22352825777435326, 0.6508897584974386]","[0.19208901213258422, -0.3478800139676339, 0.801882609323108]","[0.291377304659588, -0.49253230742724874, 0.8967616848031399]","[0.23083841208740333, -0.5288718617436505, 0.9692873304618915]"
63,1639136558279587039,0.683085349700796,2.0188268797228983,-2.6530509308228067,-1.807361061551821,0.6513281076313655,1.1266279222585052,0.5823602714128149,"[0.0, 0.0, 0.15]","[0.0, 0.0, 0.33999999999999997]","[-0.04949894433191398, -0.113465625215766, 0.5096331524331885]","[-0.09428370348851987, -0.216125000411384, 0.6631107665393836]","[-0.2215402938037493, -0.31246583209407713, 0.5266402408863005]","[-0.30335617084068733, -0.45015908187279, 0.4077654276159798]","[-0.3814332011399546, -0.4233950880682733, 0.46635856693517896]"
64,1639136558379574266,-1.1152680376801467,0.7204416960990963,2.300239190537279,0.22542161252211604,1.1833131125665175,0.346101726417273,-1.4145539394486786,"[0.0, 0.0, 0.15]","[0.0, 0.0, 0.33999999999999997]","[0.14680594817477755, 0.11946732134301499, 0.24902982515335415]","[0.2796303774751663, 0.2275568025588346, 0.16672347648254396]","[0.3662720605935426, 0.17453042327917084, 0.3505207067307282]","[0.3952469435807641, 0.14651700294093378, 0.5458670515566043]","[0.4291298911168752, 0.05120835376132832, 0.5421660708995317]"
65,1639136558479545630,-2.383518485161201,1.7990470723146004,2.8499119387745635,0.3132891655970509,1.2869200167129695,-1.6824351627273317,0.0061045916785866785,"[0.0, 0.0, 0.15]","[0.0, 0.0, 0.33999999999999997]","[0.060949064388175274, -0.12441335261540831, 0.49781802571696343]","[0.11609345597832516, -0.23697781450515681, 0.6406057632703805]","[0.15441664579263725, -0.394751005902091, 0.77379342485689]","[0.23672164039540655, -0.5071511070192262, 0.9165400364884658]","[0.18671746556816352, -0.5829072822210615, 0.9613292586142782]"
66,1639136558579495213,2.694720263310248,-0.356642116766466,2.257237529721914,0.4200723752398723,2.5601016627049646,1.42919140677627,-1.182821488985926,"[0.0, 0.0, 0.15]","[0.0, 0.0, 0.34]","[-0.14853876852963419, -0.1406354078078636, 0.2924824630855546]","[-0.2829309876748475, -0.267876967253743, 0.2494904058772085]","[-0.4268500989326886, -0.3785092731536085, 0.14390734707499458]","[-0.5555311085293272, -0.5215302882754551, 0.09127012637797866]","[-0.492293719509252, -0.5118100982555233, 0.01283518176844814]"
67,1639136558679571905,2.5112852163723223,-1.2292022399495426,-1.1420881283016495,0.3588104156361567,0.1396358337835535,-0.3035762369420334,-1.756584197053528,"[0.0, 0.0, 0.15]","[0.0, 0.0, 0.34]","[0.06611769652463005, -0.031683828878107584, 0.5367856325901353]","[0.12593846957028873, -0.060350150244837454, 0.7148297763621762]","[0.16906621811357997, -0.007557783118733716, 0.9134574765422098]","[0.26554467818155003, 0.022210084547986467, 1.0854757046387977]","[0.23036696488319172, 0.11696349763764621, 1.080015924885109]"
68,1639136558779457002,0.21447783337201495,0.4655461162567822,1.507873636699142,1.359027453779687,1.2749595524105115,-1.4168856032928243,-0.5048434445027916,"[0.0, 0.0, 0.15]","[0.0, 0.0, 0.34]","[0.1598458021268282, -0.11662121275013643, 0.4103477951262038]","[0.30446819452673274, -0.222135643334337, 0.4739958002404251]","[0.42289939906983265, -0.3915648043185356, 0.5109797048295975]","[0.5651820677040441, -0.5306523049688444, 0.4970226503703806]","[0.5593799339680574, -0.6203565207842809, 0.5435519842259959]"
69,1639136558879563430,2.175172691328546,1.1881991410973516,-0.8880833988976296,0.8264654391597319,1.7489606677422045,0.40464116951267615,1.9446454097846961,"[0.0, 0.0, 0.15]","[0.0, 0.0, 0.33999999999999997]","[0.09211130637033604, 0.02006444079084309, 0.5276510736833148]","[0.17545010737190495, 0.03821798245966529, 0.6974306165396295]","[0.2271500134328882, -0.16022763806190543, 0.7426683818369364]","[0.3125599041340745, -0.32003129212790143, 0.826049631033425]","[0.3354906821217815, -0.3487008837656161, 0.7317218835981917]"
70,1639136558979527651,-2.5917008796620573,0.33140396218803136,0.32129314849428997,-0.18113673900457367,-2.1007037805794395,-1.2616187603004412,2.2229498217123798,"[0.0, 0.0, 0.15]","[0.0, 0.0, 0.33999999999999997]","[-0.11070435000860891, 0.16030614284333095, 0.41839953734471247]","[-0.2108654285886003, 0.3053450339867805, 0.4893324520851302]","[-0.3638050607358101, 0.31591184036329667, 0.632851828901215]","[-0.512276669343854, 0.3834096805270755, 0.7476765344769959]","[-0.5776050769940448, 0.3198443845393568, 0.791689513243312]"
71,1639136559079625884,-0.8480076993615202,-0.11262183242326418,0.747655280362959,1.7980766768414853,2.7316272605864405,2.0085328127477067,1.7603440001048294,"[0.0, 0.0, 0.15]","[0.0, 0.0, 0.33999999999999997]","[-0.05825506868469894, -0.03570781223754581, 0.538573158099853]","[-0.11096203558944827, -0.0680148804532808, 0.7182345868568499]","[-0.19095896132060447, -0.13106202101288092, 0.9018797608768113]","[-0.21202420906025443, -0.17171439881591766, 1.0960140688098148]","[-0.24382817011637015, -0.2660934378453128, 1.0779421277677192]"
72,1639136559179546851,-0.2121915018004996,-1.1251549966761178,-1.7837054879336152,1.5030741707288002,0.6034760901848101,-0.8737764408485291,-0.08207246388699563,"[0.0, 0.0, 0.15]","[0.0, 0.0, 0.33999999999999997]","[-0.015611305641598797, 0.017699616420398766, 0.5486696209675365]","[-0.029735820268988463, 0.03371355508705995, 0.7374659447000739]","[-0.22915947241647158, 0.04951011389231766, 0.6735857780278457]","[-0.4110141616524536, 0.12152625113710006, 0.634508444710114]","[-0.3540604893816933, 0.08322754222946731, 0.5601110112134992]"
73,1639136559279522042,2.0293214443869885,1.0878783255280555,-0.5189716582722603,-1.0463487562146894,-1.1457253603395583,0.7683461037554458,-0.8818812521857002,"[0.0, 0.0, 0.15]","[0.0, 0.0, 0.33999999999999997]","[-0.1852402882977927, 0.03990716366849109, 0.430517699259796]","[-0.35283864437653556, 0.07601364508374608, 0.5124146652567897]","[-0.30359012754211123, 0.2748899877388572, 0.5584883445296265]","[-0.3083956832151583, 0.4739325981843119, 0.5704648157015626]","[-0.21376068768452922, 0.5080208304272181, 0.5591643713089077]"
74,1639136559379599320,-1.612963085015271,0.5245653530629846,1.8189595085682064,-0.1911677564369565,1.1407941203889815,1.7620713707197333,-0.23622302232674294,"[0.0, 0.0, 0.15]","[0.0, 0.0, 0.33999999999999997]","[-0.08232188251212696, 0.16677407432003438, 0.4375167462252264]","[-0.15680358573822714, 0.3176649034663367, 0.5257461832861108]","[-0.14962196795055827, 0.5068062488833743, 0.4347847858705879]","[-0.14721894089728266, 0.7043079703684321, 0.4070037586861973]","[-0.08500299542549905, 0.7303086708781398, 0.33151448989879573]"
75,1639136559479521113,-2.4950845966985407,1.700282080730902,0.07377047115275248,-1.0639556439101896,0.4317932459178877,-0.6579404616259183,0.8650094234013914,"[0.0, 0.0, 0.15]","[0.0, 0.0, 0.33999999999999997]","[-0.00443360578575186, -0.10508224861327084, 0.5217637592209055]","[-0.008444963400504074, -0.20015666402535098, 0.6862166842302765]","[0.026204200350781803, -0.2964797554491858, 0.8695777965466346]","[0.11603797092032961, -0.3905649355023667, 1.0207808473082456]","[0.07177701249384298, -0.30648862746610184, 1.0556754312169254]"
76,1639136559579509398,-1.7736478654837184,0.09429545439375486,1.3364749090604922,-1.8192920065284703,0.4930040566585552,-1.4108440292338038,1.6176295164659051,"[0.0, 0.0, 0.15]","[0.0, 0.0, 0.33999999999999997]","[-0.1662171193861443, -0.12544555435314675, 0.31288391407293514]","[-0.3166040369254246, -0.2389439130543523, 0.28835031251983756]","[-0.370265700059385, -0.29639607057036277, 0.09362056259329746]","[-0.4321234719857857, -0.2906787695975174, -0.09591945566640228]","[-0.4818330490248902, -0.37319460083825634, -0.12699332805532768]"
77,1639136559679503932,2.827883288322373,-1.8605016907623535,-2.29118072145362,-0.989906359932096,-1.3662334270328411,1.264012147277218,-0.18259849045191912,"[0.0, 0.0, 0.15]","[0.0, 0.0, 0.33999999999999997]","[-0.003983474381397461, -0.019367294935006232, 0.5490670701443755]","[-0.007587570249377512, -0.03689008559071381, 0.7382229907511877]","[0.1778405965911855, -0.11809992335795667, 0.6823538830800745]","[0.3171424459208088, -0.2342395499035605, 0.5993414025774745]","[0.35541439750157267, -0.24430558305044325, 0.6925048218947447]"
78,1639136559779499117,-2.5708305310164064,-0.3194082839289334,2.743320378770504,1.450970736761175,-1.303652571424044,0.2841239860183329,0.8572560416301438,"[0.0, 0.0, 0.15]","[0.0, 0.0, 0.33999999999999997]","[0.19142703546031556, -0.06210321283092934, 0.28000932530008205]","[0.36462292468603885, -0.11829183396456332, 0.2257320481906702]","[0.4789182878343273, -0.016663724302701105, 0.08182827030642784]","[0.6208736304706932, 0.028458983629926438, -0.05082583602209373]","[0.5533100375321269, 0.05522246402707072, -0.12128410045050128]"
79,1639136559879607287,0.4674751361708118,-1.7810642256476727,-0.2270963995010313,-1.2141770802164882,-2.8410827843526825,1.7948725679280115,0.5735533296324458,"[0.0, 0.0, 0.15]","[0.0, 0.0, 0.33999999999999997]","[0.05548866843849529, 0.03562618389469788, 0.5393784910566432]","[0.10569270178808134, 0.06785939789385957, 0.7197685543936181]","[-0.08489520739320638, 0.04158450719937042, 0.8039462176594623]","[-0.2762964506197304, -0.008689969905933848, 0.8288967896595041]","[-0.32152656933581425, -0.012144987695016207, 0.9193831931298934]"
80,1639136559979580004,-0.6506922725981847,-1.1788266833053238,-0.5962781161324844,0.2664807497897872,-0.3892570807259403,-1.4059096757746483,1.7800809393961001,"[0.0, 0.0, 0.15]","[0.0, 0.0, 0.33999999999999997]","[-0.1833398778151092, -0.09254879808240685, 0.29616839979828813]","[-0.34921881488634887, -0.1762834249180434, 0.25651123771106343]","[-0.4289837560989101, -0.2661798326862953, 0.4287209645667809]","[-0.5432384718955346, -0.3038970874590008, 0.5878050888867248]","[-0.5426770405017526, -0.3830948326740617, 0.5247742079818829]"
81,1639136560079481194,2.649807357192324,-1.8992056268347288,0.19713090661190732,-0.4685577935549856,2.3289934043703657,-0.014442432211049015,-0.7659691016447154,"[0.0, 0.0, 0.15]","[0.0, 0.0, 0.33999999999999997]","[-0.15441724153956454, 0.11755743196578844, 0.4202219776926549]","[-0.2941280791224046, 0.2239189180308044, 0.4928037670336646]","[-0.43819179731246605, 0.3726247505858219, 0.5279067649878803]","[-0.5998372803822059, 0.48828145966524683, 0.5112108538696525]","[-0.5366448905081552, 0.5672273230547807, 0.515656358980101]"
82,1639136560179689152,-1.5537258366125055,0.8898463538725219,2.9088686015599605,1.2536793343202979,-0.36640542331694137,1.8723647703606368,-2.5473620405948467,"[0.0, 0.0, 0.15]","[0.0, 0.0, 0.34]","[0.17522008526670765, -0.09386251788853972, 0.27226707259573624]","[0.33375254336472926, -0.17878574835994943, 0.21098490018239188]","[0.5077577392975523, -0.29306887319055985, 0.2385812616695685]","[0.6342596005870481, -0.4350678983676426, 0.2987314565075856]","[0.7325715289137161, -0.4399037877762516, 0.2751333861983464]"
83,1639136560279471875,0.5751320148828043,1.184360651559205,-1.3321683805371969,-0.028246865826519137,-2.178314158241744,1.6339871658901957,2.194588861761647,"[0.0, 0.0, 0.15]","[0.0, 0.0, 0.33999999999999997]","[0.0027851671041371484, -0.1631409839821142, 0.4722015967738272]","[0.005305080199287104, -0.3107447313945121, 0.5918125652834497]","[-0.0377505906837714, -0.4846080371577488, 0.4821870202955729]","[-0.02319708675239368, -0.637326709125462, 0.3547127375725959]","[-0.038878822477128094, -0.664977370143913, 0.45081171836793155]"
84,1639136560379649380,-1.3125861192040649,-1.7933341588567833,0.4843175029204621,0.04049487063971125,-1.0677112709875372,0.4307921840342584,0.5234436426018791,"[0.0, 0.0, 0.15]","[0.0, 0.0, 0.33999999999999997]","[0.16322088843329133, 0.10580516076551381, 0.41914675946891844]","[0.3108969303486327, 0.20153363955414844, 0.4907557323217129]","[0.47763082337102203, 0.30274815728085847, 0.5685723778350471]","[0.6057169453688409, 0.447012339298448, 0.6192308533189739]","[0.5857471250447323, 0.4015020816327324, 0.7074097211015838]"
85,1639136560479448251,2.8652117654660443,1.8304632502691789,-1.5135389401243111,1.4214137681798475,0.6728572497165626,-0.07203257244823646,-2.5551306122304025,"[0.0, 0.0, 0.15]","[0.0, 0.0, 0.33999999999999997]","[-0.05230127322412677, 0.19803137064827553, 0.2936518278860908]","[-0.09962147280696321, 0.37720261075886596, 0.251717767402116]","[-0.15528300142146606, 0.5724553524209097, 0.19806927156344342]","[-0.2521860065553759, 0.7270246128745446, 0.11743031498020279]","[-0.24492712033011949, 0.8194281117221875, 0.15810453250780213]"
86,1639136560579600170,-1.703842125309206,1.9535214092446425,1.5048177336041617,1.2347068876064289,1.9471501321267968,0.8249407724269711,-2.6893921810384365,"[0.0, 0.0, 0.15]","[0.0, 0.0, 0.33999999999999997]","[-0.1952573977950933, 0.05538281125609634, 0.28608068227749617]","[-0.37191885294327903, 0.1054910690583333, 0.23729653767138342]","[-0.46048682159718046, -0.08488681668661047, 0.24075710811664547]","[-0.5847538322072902, -0.23594899509234032, 0.27977528758907]","[-0.5715350186505936, -0.3317582785241254, 0.24992006733462935]"
87,1639136560679522586,0.3895489712870677,-1.2434133606635882,-0.4578318664133243,0.7246952430824307,-1.250043819044714,1.6731665942694145,0.5723147172512175,"[0.0, 0.0, 0.15]","[0.0, 0.0, 0.33999999999999997]","[-0.025841801365271685, -0.19308497211264078, 0.2615755468845427]","[-0.04922247879006961, -0.36778089926228186, 0.19062008930385435]","[-0.25446380964855264, -0.41005659296651686, 0.17688102713555529]","[-0.42788757294573876, -0.5077515116512386, 0.1640595144702258]","[-0.4976142535878021, -0.46053287816506633, 0.22022071689982356]"
88,1639136560779552555,1.8304114112999772,0.6665340907785327,-2.323631067945123,0.4833140924204944,0.6356457032731431,-0.4111796913878541,-1.1427452527371478,"[0.0, 0.0, 0.15]","[0.0, 0.0, 0.33999999999999997]","[-0.18394882140109559, -0.07551610046557057, 0.4075288803077739]","[-0.35037870743099986, -0.14384019136212609, 0.46862643868151144]","[-0.5486161409906495, -0.15870724047895282, 0.40094416045270675]","[-0.7092694606864521, -0.16242985203438465, 0.2827868795347472]","[-0.7106485113042933, -0.25090186371300544, 0.3319426662635894]"
89,1639136560879533582,1.082347767967662,-0.7701611203614753,-2.836708905902375,-0.16114847647416594,0.7214073509596717,1.1561141648082052,-1.1659678068457533,"[0.0, 0.0, 0.15]","[0.0, 0.0, 0.33999999999999997]","[-0.033329954790742744, 0.12548483285172418, 0.505053539307165]","[-0.06348562817375045, 0.2390187292411705, 0.6543876939183854]","[-0.17529083305298615, 0.38253373312157823, 0.7592830695224543]","[-0.277282775889677, 0.47614320393211573, 0.9028776396529726]","[-0.34337977495796534, 0.5495189457251677, 0.8806813059357564]"
90,1639136560979704469,-2.7558733067099155,0.8020981030644823,-1.3871795952914174,2.0209702286078355,1.9222575615381632,1.6081194945415782,-1.6596808718740157,"[0.0, 0.0, 0.15]","[0.0, 0.0, 0.33999999999999997]","[-0.06861124512494585, -0.12911486143561576, 0.49073768473366697]","[-0.13068808595308606, -0.2459330694007114, 0.6271193994927262]","[-0.20030463912873991, -0.3984943043454461, 0.7535259069046426]","[-0.3064146619134929, -0.550340555529266, 0.827470947752826]","[-0.22808760334031605, -0.6083037692274558, 0.8548685343810699]"
91,1639136561079505426,-0.5828900474686844,1.7649948206140165,2.624986854467397,0.37167315833852177,2.0666693557511584,-1.0586423252228,0.16455860441471204,"[0.0, 0.0, 0.15]","[0.0, 0.0, 0.33999999999999997]","[-0.1398607202489795, -0.056791807071637244, 0.48599201889478283]","[-0.2664013719024935, -0.10817487061351463, 0.6180800359900344]","[-0.11336756407133186, -0.2466750519638687, 0.5793714655357523]","[-0.008791772910773182, -0.41617537712042024, 0.568507135139149]","[-0.009219197718615638, -0.3851384657636724, 0.4721639078656813]"
92,1639136561179563861,-2.17515910015956,0.7836653079355158,0.0958147075192608,1.9648546693929787,2.080931498918136,0.7343057107737412,-2.165377725972121,"[0.0, 0.0, 0.15]","[0.0, 0.0, 0.34]","[0.17202820059347718, -0.1134193769249004, 0.2994741670222838]","[0.3276727630357005, -0.21603690842760076, 0.26280793718526385]","[0.45653557349436324, -0.3461182170252445, 0.15998172829755228]","[0.5979777119600712, -0.48084529998367037, 0.11964285642734573]","[0.6451539110006943, -0.43663176199810383, 0.0417643657968875]"
93,1639136561279592903,2.0119084158982266,1.4760200756543034,1.420472984523832,0.7905112095206892,2.3333257887404093,-1.4321527874316184,2.660697544907382,"[0.0, 0.0, 0.15]","[0.0, 0.0, 0.33999999999999997]","[-0.08423267113513874, -0.12197720418401195, 0.48874951688288404]","[-0.1604431831138002, -0.23233753177962196, 0.6233324131102277]","[-0.06567858951257763, -0.062463292375424334, 0.7024678324017211]","[0.032408071177440385, 0.06061540789399135, 0.8250040741209471]","[0.09435351485730405, 0.12347696733786831, 0.7754392039850458]"
94,1639136561379483186,0.6157216549372935,0.7897359155470034,1.4219690695328144,-0.8208207896048567,-2.355737197893927,-1.7955023037208542,-2.869740537754837,"[0.0, 0.0, 0.15]","[0.0, 0.0, 0.34]","[-0.08925614762832491, 0.1890460125440153, 0.35987322952513545]","[-0.17001170976908075, 0.3600876429405875, 0.37785377052402835]","[-0.09845759370452975, 0.5541682687114577, 0.4140852371602022]","[-0.0787730938274328, 0.738979899453569, 0.48648462670894155]","[-0.07619435612315678, 0.7682252463331463, 0.38961590214964037]"
95,1639136561479668321,2.431612006889092,1.9265176108684567,2.872246362636925,-1.0119028214616823,-1.4001513013164453,-0.022700846115429663,0.8906582648060497,"[0.0, 0.0, 0.15]","[0.0, 0.0, 0.34]","[0.12174750279959334, 0.08613267691330985, 0.4878469057160494]","[0.23190000533204402, 0.16406224174041328, 0.6216131537448281]","[0.24021676160243485, 0.35608965432940104, 0.7062080967350424]","[0.25212166387533347, 0.5052625995860023, 0.8380799879982824]","[0.1683310056495217, 0.5138803574329325, 0.7819520106271272]"
96,1639136561579529269,2.5675732647745906,0.9393587932975841,0.8769443455303878,1.8659980591247791,-2.580514813815588,1.9842358276926928,1.1897435608021223,"[0.0, 0.0, 0.15]","[0.0, 0.0, 0.33999999999999997]","[-0.14928834072592337, 0.1283125845707972, 0.2668640173097904]","[-0.2843587442404501, 0.24440492299128022, 0.2006933663043258]","[-0.43973050289643917, 0.31547239737831023, 0.3227959080321454]","[-0.6085344461393456, 0.40206208599766713, 0.384374675236828]","[-0.6393248315174003, 0.4087691599802309, 0.4805643697309021]"
97,1639136561679635500,-2.507250559197051,-0.9209924891889398,0.09279229031140313,-1.6691093584743593,0.8668571776133169,-0.4185105928206769,-2.118851091758189,"[0.0, 0.0, 0.15]","[0.0, 0.0, 0.33999999999999997]","[-0.14233992684064076, 0.09204467549198586, 0.463964200237714]","[-0.27112367017317374, 0.17532319141253788, 0.5761222861670425]","[-0.08214758506225575, 0.23706455167930396, 0.6437687471872652]","[0.10461295564288889, 0.23497785534612553, 0.7137732908536238]","[0.08551839013027951, 0.27989281692273627, 0.6250967223901551]"
98,1639136561779640255,-1.334402617327327,-0.4174898459228642,0.03896063710795738,-1.5831246526843252,1.57346398634929,0.3881900521796573,2.3459278934972896,"[0.0, 0.0, 0.15]","[0.0, 0.0, 0.33999999999999997]","[0.13467524257858723, 0.09909219578529721, 0.46705634880180924]","[0.25652427157879365, 0.1887470395902789, 0.5820120929558584]","[0.1533748604684404, 0.08880967038605288, 0.7352201907318099]","[0.007515532212668135, 0.008824469918584078, 0.8452743322574868]","[0.02045355497511303, -0.008436839481203329, 0.9441689466952977]"
99,1639136561879563702,1.054451070596791,-0.052446688713517535,-1.3161783205667,1.3047005712550286,1.7315192834152715,1.1457941113071626,-2.9859729921535285,"[0.0, 0.0, 0.15]","[0.0, 0.0, 0.33999999999999997]","[-0.01994153014092883, 0.08278004304973677, 0.5319630168764863]","[-0.037983866934189654, 0.15767627247587207, 0.7056438416695135]","[0.01513340163315113, -0.027897240098409964, 0.788354344090837]","[0.06892301485046924, -0.21902137578980768, 0.807399875486614]","[0.1116766075195551, -0.2537821164911754, 0.8923075383903718]"
100,1639136561979559905,2.004516106815101,0.7404127951289965,-1.6582783226938511,1.0976873925345971,1.4882847268464758,1.1619396641339428,-2.7443601304876712,"[0.0, 0.0, 0.15]","[0.0, 0.0, 0.33999999999999997]","[-0.0054350798112397115, -0.009573537430174806, 0.549711247405852]","[-0.010352532974579585, -0.018235309390315754, 0.7394499950587677]","[-0.20745621698758093, 0.0317331511172176, 0.7919218037088417]","[-0.36956013223538475, 0.07959749356480766, 0.897826550455117]","[-0.401039333850239, 0.15649152783768663, 0.8400177504422068]"
101,1639136562079651044,-2.710553112312424,1.3714244639952735,-0.09124325854831428,-0.08344513851166369,-0.4217346676545284,-1.7480552579849178,2.484564555990319,"[0.0, 0.0, 0.15]","[0.0, 0.0, 0.33999999999999997]","[-0.05953435869687162, 0.1285475817485841, 0.49501993214146134]","[-0.11339877847108812, 0.24485253666360507, 0.6352760612218048]","[-0.31456842538974233, 0.23610820126417315, 0.6948940933685153]","[-0.48503208827834265, 0.2675635320196565, 0.7935713035118142]","[-0.5433927663417623, 0.28334425359587906, 0.7123894700605324]"
102,1639136562179601392,0.19712244213784305,1.6230548654753711,0.5472745936618466,0.967855067602632,-0.9107540455072748,0.4223244782468787,-2.1000480502001397,"[0.0, 0.0, 0.15]","[0.0, 0.0, 0.33999999999999997]","[-0.1870123406969198, -0.08600320072464064, 0.38159127182686725]","[-0.3562139822794656, -0.16381562042873543, 0.41922147014637534]","[-0.5463783351896064, -0.24951297624748942, 0.4435829579486693]","[-0.7370315541930733, -0.277382041269743, 0.49514995610060186]","[-0.6821033932747831, -0.35350525084033557, 0.5330134491091197]"
103,1639136562279664553,0.6787446713009961,-1.990008771022095,0.1280999014760109,-1.6289040619495332,0.2438715021891276,1.7150529149136906,2.7157294889870003,"[0.0, 0.0, 0.15]","[0.0, 0.0, 0.34]","[0.20565204927638367, 0.04107199913866242, 0.3290307012449476]","[0.39171818909768935, 0.07823237931264988, 0.3191060976093848]","[0.5335306752834302, 0.014769620591490257, 0.4603919674524759]","[0.6323521461557645, -0.09537650339650526, 0.5941329045848648]","[0.7301564477118458, -0.0780102517275764, 0.6135808324975874]"
104,1639136562379497951,0.7802887082461698,0.9955627900955636,1.0514676707978463,-0.0927320144668271,-1.0159519293512624,-0.9116368599472492,1.716667370940112,"[0.0, 0.0, 0.15]","[0.0, 0.0, 0.33999999999999997]","[-0.14930222318009936, -0.1204252695737041, 0.25452134417539957]","[-0.2843851870103097, -0.2293814658539604, 0.17718351271508267]","[-0.35840552315416097, -0.25467690408202925, 0.3720709947194465]","[-0.3803440396728301, -0.3164372542723514, 0.5604558418736931]","[-0.3755484860808449, -0.21535924748535723, 0.5628494186355226]"
105,1639136562479486954,-0.6207250607079584,-0.2909311650400952,0.8675543551529068,-1.3479432622982708,2.823240691215998,1.2749009192279268,0.3733929567084786,"[0.0, 0.0, 0.15]","[0.0, 0.0, 0.34]","[0.12522981908837222, 0.12395660116923136, 0.45424645919093376]","[0.23853298873911735, 0.23610781175159312, 0.5576123032207932]","[0.3550800758410129, 0.37522357397532563, 0.6632701528533363]","[0.5067915579906966, 0.4618011114552127, 0.7595636946298489]","[0.4667191126848192, 0.509808233412735, 0.8391564415893744]"
106,1639136562579533989,2.7329528267080696,1.6301097248150411,-0.8095317399363569,1.6518406343576628,-1.4589657690436368,0.2653513203936999,1.4270750933258711,"[0.0, 0.0, 0.15]","[0.0, 0.0, 0.3400000000000001]","[-0.049000467580919235, 0.0350355388122295, 0.5411752101949644]","[-0.09333422396308394, 0.06673435964307681, 0.7231908765618483]","[0.0899080790482405, 0.12775546976920854, 0.8056450002069423]","[0.25141876755143466, 0.23579398302749965, 0.8506612989459793]","[0.23885855810635145, 0.22063501742968436, 0.9499484426288345]"
107,1639136562679512138,0.5243190872284562,-1.1559837591426203,-0.3619132764314981,-1.5720532192816057,1.0987677711696962,2.0199830255933398,2.766697675093655,"[0.0, 0.0, 0.15]","[0.0, 0.0, 0.33999999999999997]","[-0.19237016843128507, 0.08329917682969191, 0.3275514885542594]","[-0.3664193684409105, 0.15866509872236806, 0.3162885496271215]","[-0.41891400564485987, 0.01626615122606205, 0.4614327979346934]","[-0.4081555833762149, -0.12885088604441902, 0.5978505088234461]","[-0.4832201788579318, -0.15103804438163937, 0.662026255878586]"
108,1639136562779588172,-1.294981152311287,-0.28094697253852496,1.6907307436697905,0.5804440173577623,1.186970748723454,-0.8926639375542063,-1.9310543289326216,"[0.0, 0.0, 0.15]","[0.0, 0.0, 0.3400000000000001]","[-0.1663724151694781, -0.09621501183791156, 0.4246338641898466]","[-0.31689983841850555, -0.18326668921425637, 0.5012073603616484]","[-0.21094911600130156, -0.20788589621225476, 0.6808412632476635]","[-0.06277951967313924, -0.22969908114997561, 0.8125775364863667]","[-0.1289700300510944, -0.15357736997183544, 0.820931662605694]"
109,1639136562879527153,-1.3721517541875736,0.295893903839171,2.2554928681467143,-1.9300134363330617,2.2549705272487555,0.4340397712514124,-0.4217833895384091,"[0.0, 0.0, 0.15]","[0.0, 0.0, 0.33999999999999997]","[-0.015856707585423256, 0.056025050168211174, 0.5417665943068868]","[-0.03020325254275793, 0.10671438127300023, 0.7243173224893189]","[-0.14987187115977602, 0.10968807835484931, 0.8968588503716236]","[-0.2084648698031162, 0.11842214204230816, 1.0873189948677486]","[-0.282445521763675, 0.050339508183438214, 1.0990283117705273]"
110,1639136562979522629,-1.258108328358227,-0.6171934604716558,-2.2565653118846107,-1.9662971228195207,0.9574683297179098,-0.4738799977221393,-0.06411596133433006,"[0.0, 0.0, 0.15]","[0.0, 0.0, 0.33999999999999997]","[0.012084151274040767, -0.060030766944487904, 0.5408737919890065]","[0.02301743099909237, -0.11434431798935403, 0.7226167466457154]","[0.14459018341728141, 0.05340387069977098, 0.6882567253857766]","[0.2120718979377749, 0.22850867754095802, 0.6206622372489085]","[0.28290620396385724, 0.27964306997200655, 0.6717823409314211]"
111,1639136563079595249,-1.230185984005987,0.5757475406673183,-2.11199219023662,-0.3710306486368471,2.8951564677490262,1.65362062028144,1.1788345819895336,"[0.0, 0.0, 0.15]","[0.0, 0.0, 0.33999999999999997]","[-0.0373869656281334, 0.11564390169495935, 0.5112562489425929]","[-0.07121326786221618, 0.22027409846684493, 0.666202378938295]","[-0.23030218101593652, 0.22480996815118548, 0.5291982052873632]","[-0.334695097592971, 0.22663363125956046, 0.3592473793952613]","[-0.4273298489291265, 0.2673996019425102, 0.35768902155269244]"
112,1639136563179596021,2.6566626393553845,-1.2786185956897596,0.8452844007489264,0.8588566814811718,-2.06386132363377,1.1093905792146308,0.4642305259638753,"[0.0, 0.0, 0.15]","[0.0, 0.0, 0.33999999999999997]","[0.0381957009683068, -0.10776846052349742, 0.5161449611653285]","[0.07275371613099606, -0.20527325813971542, 0.6755142117434614]","[0.03584847289835141, -0.29649828646212645, 0.8610297022813532]","[-0.026104959927309546, -0.42462994607666427, 1.000774254824701]","[0.07343547845411125, -0.416248012348297, 1.0171123793745949]"
113,1639136563279669231,-2.706971092540685,0.8622862647057681,2.6152815671181817,-1.5248433465912687,1.7684365508419062,-0.5440747702919133,-1.3656716063891483,"[0.0, 0.0, 0.15]","[0.0, 0.0, 0.33999999999999997]","[0.17791466155752472, -0.09374203308785099, 0.4004880520055627]","[0.3388850696329368, -0.17855625350148635, 0.4552153371534904]","[0.5374482271945963, -0.14872655117817182, 0.39371036728563324]","[0.6974842481274506, -0.10340938774487062, 0.28362259910797205]","[0.748372498297741, -0.04824297408944683, 0.3515383027338981]"
114,1639136563379643786,1.658145921072109,0.797187691495187,-1.5872918489538517,0.6889403218173005,0.7911153056341047,0.7590168478067838,-0.6346069645770402,"[0.0, 0.0, 0.15]","[0.0, 0.0, 0.34]","[-0.14463470599670103, -0.06714327398548832, 0.47664765852277713]","[-0.2754946780885858, -0.12789195044940382, 0.6002812543290695]","[-0.13070947161142227, -0.1768619440398434, 0.7442923084642208]","[0.04240382363616438, -0.1917683274173955, 0.8422416665178768]","[0.05678473968752736, -0.2726837958545684, 0.9013294505439897]"
115,1639136563479534105,-1.2213896285974328,0.11351692900806133,1.60392979710103,0.8409226704913881,2.5175570037928967,0.6196378384743255,-1.6555920365943446,"[0.0, 0.0, 0.15]","[0.0, 0.0, 0.33999999999999997]","[-0.013106085781855834, 0.14965994965012627, 0.4867314894158725]","[-0.024963972918749827, 0.2850665707620915, 0.6194885512683004]","[-0.16818908518959025, 0.3904800032213962, 0.731178190322927]","[-0.2643639276315469, 0.47817277432403027, 0.8823233774034481]","[-0.31100979833168585, 0.5630471320828958, 0.8528955650204993]"
116,1639136563579605708,0.7227537774408619,-1.7133337171700498,0.951353041637138,-0.7674359114909572,-1.6108915012396832,-1.603141998664943,-0.8721470255966439,"[0.0, 0.0, 0.15]","[0.0, 0.0, 0.33999999999999997]","[0.008143385124559957, -0.022350060896851747, 0.5486484125427752]","[0.015511209761954104, -0.04257154456515008, 0.7374255477005199]","[-0.1242625012283435, -0.11586231990316007, 0.8759599187654442]","[-0.24603702122325766, -0.13076181191842906, 1.0332286741420134]","[-0.32953252798373084, -0.18632174349511404, 1.0195507958706627]"
117,1639136563679566506,-0.8897691661487439,-1.171595170757732,-0.22182381161774867,1.9442754056731952,1.3197182245918673,-1.7936630504289826,-0.057637703691402635,"[0.0, 0.0, 0.15]","[0.0, 0.0, 0.33999999999999997]","[-0.15590006531302703, -0.13749634690576917, 0.31016840227271986]","[-0.2969525053587663, -0.26189780362934256, 0.28317790909093393]","[-0.4966934337420722, -0.27977465243339356, 0.3454994928754631]","[-0.6831880754542645, -0.3465477968833708, 0.3688572708713141]","[-0.6986974242761297, -0.2515403873775943, 0.33757561109879886]"
118,1639136563779479793,-0.6457595483521827,-0.9993076548924462,-0.5306218991856021,1.1383638073062028,-0.7051347852915875,1.8608285814446155,-1.684165177995936,"[0.0, 0.0, 0.15]","[0.0, 0.0, 0.33999999999999997]","[-0.12181842482797002, 0.15032600056847673, 0.42162331116487817]","[-0.23203509490968674, 0.2863352391786248, 0.49547297364742315]","[-0.20084221097344762, 0.3161678338654265, 0.2899565015922779]","[-0.21807179285393774, 0.3833774698319289, 0.10295250072204597]","[-0.2263069585452979, 0.2825216592653714, 0.10535614815844319]"
119,1639136563879881969,-0.8810996723394444,0.11671921351990068,0.19240552093370453,1.6876199502065,-0.6252373676517697,-0.7723096040912347,-2.512307629943436,"[0.0, 0.0, 0.15]","[0.0, 0.0, 0.34]","[-0.14106454137423874, 0.10629704170128682, 0.45358580057573483]","[-0.26869436452178264, 0.20247055562222893, 0.5563539058585755]","[-0.3407808581843387, 0.37761016307478845, 0.46563645807259757]","[-0.417226774838168, 0.5050554841043084, 0.33260186868082176]","[-0.4695241137331427, 0.5005840291115805, 0.4191494534810468]"
120,1639136563979646932,1.8433785052602096,0.4995251940783674,1.4291455152421535,-0.06379288976517294,0.22852190333992214,0.2762617413126547,2.440842299815277,"[0.0, 0.0, 0.15]","[0.0, 0.0, 0.33999999999999997]","[0.015561061276146378, -0.018865865619507677, 0.5485711688762056]","[0.029640116717211822, -0.03593498213183371, 0.7372784169070538]","[-0.1323182824201544, 0.09774095411884703, 0.7368082931302343]","[-0.3096067675564011, 0.1812954659679452, 0.6997687657607642]","[-0.3018189407512173, 0.28184865720911656, 0.6911725174588085]"
121,1639136564079528268,0.2697296469866912,0.07006908153922707,0.1786249955428474,0.4918972445549907,-2.7751921048956985,1.8718875642778263,0.8195341914406553,"[0.0, 0.0, 0.15]","[0.0, 0.0, 0.34]","[-0.027081254322472173, 0.09687789057778345, 0.5243401203794784]","[-0.05158334156751898, 0.18452931538603695, 0.6911240388180355]","[-0.0918201730734007, 0.2792399063895203, 0.8741838687702622]","[-0.14744701223274997, 0.41423462500120345, 1.0100756297864926]","[-0.16368093617752008, 0.39190390940252295, 1.1074578091326457]"
122,1639136564179534565,0.4904206951912316,0.1710211971727995,-1.7605169455529484,0.7247315794689939,-2.2840668713758285,-1.5119303637998152,1.902117050861793,"[0.0, 0.0, 0.15]","[0.0, 0.0, 0.33999999999999997]","[0.014170871911604857, 0.003917779817222548, 0.5494846948838236]","[0.02699213697427532, 0.00746243774799768, 0.7390184664453754]","[-0.04966599206034057, -0.03201455513596599, 0.930499792651749]","[-0.16148730685391796, -0.025143868096609547, 1.0955248732226817]","[-0.15777329923339753, -0.11638397501609396, 1.051856360118664]"
123,1639136564279528031,-0.04966800502329116,0.5331206032390471,0.8137890741715283,0.5132102778065186,2.6498879679442875,1.6013215633787268,-2.2084150170486403,"[0.0, 0.0, 0.15]","[0.0, 0.0, 0.34]","[0.03152717524048232, 0.016833262181253743, 0.5469364117445094]","[0.06005176236241944, 0.032063356536560325, 0.7341645937990589]","[0.04208326886625711, 0.1774551694611261, 0.884625066933987]","[0.04842774859580014, 0.35083640168941355, 0.9830282472076044]","[0.10014395128202115, 0.29502784674563537, 1.0497839928390105]"
124,1639136564379565862,0.6111168209223488,-1.7908021283945923,0.011222654584921,-1.1458462967011291,-0.6465991214186513,1.2804309549668362,0.7041876182999798,"[0.0, 0.0, 0.15]","[0.0, 0.0, 0.34]","[0.10659528850538304, -0.0052987332098175365, 0.5208573136337741]","[0.20303864477223818, -0.010092825160629676, 0.6844901212071686]","[0.23127480667589181, -0.08653545612405786, 0.8780340266455468]","[0.24798107413845805, -0.10029559447593661, 1.0763167773325553]","[0.17713365891377705, -0.1698213879131805, 1.0565102682281389]"
125,1639136564479535722,2.774426663210324,-0.13142595998004605,0.186506164458514,1.1667323797741678,-0.9274718136433946,0.9771707964151184,-1.7524033939587025,"[0.0, 0.0, 0.15]","[0.0, 0.0, 0.33999999999999997]","[-0.1678459659486066, -0.11758995242192874, 0.2941705901828562]","[-0.31970660180741056, -0.2239808617552977, 0.2527058860626216]","[-0.42433144036272713, -0.2946576084230852, 0.42051065547556565]","[-0.5151309120950895, -0.4152542992371624, 0.5508808364903123]","[-0.46343568096857457, -0.3761290826130562, 0.6286131367450519]"
126,1639136564579515987,-2.631867564156255,-0.6491605868736476,1.43083453486584,1.4939379559310453,0.6630157621678534,1.8908757035533617,2.1220844166720947,"[0.0, 0.0, 0.15]","[0.0, 0.0, 0.33999999999999997]","[0.025685811068855913, -0.009878926835392108, 0.5481889668409833]","[0.048925354416498104, -0.018817003496839277, 0.7365504130304495]","[0.24744310941450262, -0.05680755189771021, 0.7935365445253435]","[0.44682167160822933, -0.05665406232690147, 0.7992510329988556]","[0.4686964175579946, -0.045505895325579734, 0.8974483031347604]"
127,1639136564679591034,2.69369449371754,-1.949497438818884,0.2535763622446283,-0.057053130706205664,0.7809332184625649,0.005839203087158129,2.7759475238308613,"[0.0, 0.0, 0.15]","[0.0, 0.0, 0.33999999999999997]","[0.11081087420879207, 0.06194303999110762, 0.5072842190816076]","[0.21106833182669724, 0.11798674283937766, 0.6586366077745146]","[0.13872164942405507, 0.31507248717832925, 0.6538234047149472]","[0.05783310148176371, 0.4891533020836233, 0.7080212154981923]","[0.15152740734940312, 0.49546828049720165, 0.670245719530339]"
128,1639136564779682159,-1.9367287481567528,-1.4198315582062624,-1.7237939335748356,1.940176144079936,-0.4831204602009902,1.0827617309252702,-1.0301206245895842,"[0.0, 0.0, 0.15]","[0.0, 0.0, 0.33999999999999997]","[0.17587376059749543, -0.08450125725939159, 0.26236007563838704]","[0.3349976392329348, -0.1609547757330193, 0.19211442978744034]","[0.5131471522734697, -0.24988225649800608, 0.12537123411767015]","[0.7030943287789366, -0.30973274185228605, 0.11430418661356678]","[0.7429319841706142, -0.36503771398095275, 0.039472299889113854]"
129,1639136564879504400,0.4429408794169909,-0.5962733849562327,-1.6106065871186748,-1.362729157342912,-2.74347520861774,-0.32575393572887945,1.7298262549382453,"[0.0, 0.0, 0.15]","[0.0, 0.0, 0.33999999999999997]","[0.07428759428636683, 0.19386570203196637, 0.37158231959177446]","[0.1415001795939464, 0.36926800387007386, 0.4001567992224663]","[0.29380696334171386, 0.2258284844955749, 0.41826060838030843]","[0.423502689400595, 0.08012166031173412, 0.37663093112574664]","[0.5074741154022802, 0.11887255773946959, 0.41777285091309535]"
130,1639136564979539165,1.3056393538783009,0.2784858168293143,1.3295235544879929,-0.3220327990123475,-2.0352958140760795,-0.17903878344423596,-1.1411407030850371,"[0.0, 0.0, 0.15]","[0.0, 0.0, 0.33999999999999997]","[-0.10654755168161387, -0.050543835551756434, 0.5137611576802215]","[-0.20294771748915771, -0.09627397247868155, 0.6709736336766345]","[-0.14307600385318087, -0.29510958192414505, 0.702275044551269]","[-0.05977497195215041, -0.45827791230456605, 0.781151682696472]","[-0.045520293589727215, -0.543367782162868, 0.7282176842429158]"
131,1639136565079541235,-2.1302167879440166,-0.4101108165083571,1.8663210830660364,1.0624961697869315,-2.319424851871969,-0.6375219223307829,1.6395153896347527,"[0.0, 0.0, 0.15]","[0.0, 0.0, 0.33999999999999997]","[0.015128512029929458, 0.05571147488719231, 0.5419092857935316]","[0.028816213389453935, 0.10611709502350375, 0.7245891157971923]","[-0.015114924128793228, 0.19061314274433738, 0.9117534101375163]","[-0.021406440281991984, 0.22430838028545153, 1.1082465087225353]","[-0.08318772530628502, 0.29069650727512164, 1.1532040377421613]"
132,1639136565179639334,1.6442116513705265,-0.1888251426310852,-2.31442988480478,0.07339794481355888,-1.0605050499923083,1.7804286241945708,-1.0427343200667891,"[0.0, 0.0, 0.15]","[0.0, 0.0, 0.33999999999999997]","[0.04443472911197631, 0.07096584187495605, 0.5325860953852173]","[0.0846375792616767, 0.13517303214224913, 0.70683065787662]","[-0.06848462545227199, 0.22131851314106402, 0.8218634641843096]","[-0.22682313524465872, 0.32932664798789496, 0.8770689813328246]","[-0.22547911756301325, 0.3628782083120722, 0.9725570770112103]"
133,1639136565279535239,-0.9585369991249424,-0.3090308299203983,-2.9061632984194365,-0.9470521462251392,-1.2089392781478123,0.8680709012980872,-0.7869522846634385,"[0.0, 0.0, 0.15]","[0.0, 0.0, 0.33999999999999997]","[0.002891290821195089, -0.039311880275600446, 0.5462673423171592]","[0.0055072206108694455, -0.07487977195355443, 0.7328901758422154]","[-0.003664238220880557, -0.10470495849596187, 0.940559004968322]","[-0.07181117049127242, -0.12163197514594404, 1.1272511626222146]","[-0.023985582628822985, -0.20661274149387046, 1.100113135860302]"
134,1639136565379587814,0.5178473359437552,-1.3774829342158723,0.15743144740184922,-0.8846739090698008,-2.4040495227576866,0.6371691367103951,1.3981530766658479,"[0.0, 0.0, 0.15]","[0.0, 0.0, 0.33999999999999997]","[-0.0367063435597865, 0.05226685781819538, 0.5400520430195189]","[-0.06991684487500092, 0.09955591965420954, 0.7210515105133813]","[-0.21464376249107184, 0.23645223401202975, 0.7874858271923079]","[-0.3153034709514725, 0.36700519234845774, 0.8997713479074652]","[-0.3491859940005741, 0.4408102670899053, 0.8393538374139299]"
135,1639136565479635702,-2.094463419823846,-1.1277453546075176,2.5380796493239743,0.16700154983144788,-0.0992233647773202,-0.5581845217041987,2.395363852034895,"[0.0, 0.0, 0.15]","[0.0, 0.0, 0.3400000000000001]","[-0.17906744128465343, -0.10201597100802082, 0.380343439752429]","[-0.3410808405426511, -0.19431613525256086, 0.41684464714752234]","[-0.4403512531272788, -0.22155351119766653, 0.5998842891295334]","[-0.5824930341388244, -0.22960823858877083, 0.7395815527302239]","[-0.5697550003633962, -0.3005722441693157, 0.8106262035316771]"
136,1639136565579692627,2.4904316100756843,-1.3403755226193868,0.4061531652847834,-0.8430016599239323,-2.0650573165129984,0.4712151845284378,0.6001198694382097,"[0.0, 0.0, 0.15]","[0.0, 0.0, 0.33999999999999997]","[0.09487325684355064, 0.16429937821234109, 0.43002654861170553]","[0.1807109654170842, 0.3129511965944555, 0.5114791402128077]","[0.25094650457513856, 0.4742015746846802, 0.6262192143148279]","[0.34579879579459305, 0.5815880731356897, 0.7649840254192682]","[0.30363290415910293, 0.6690238716419366, 0.7936634382821416]"
137,1639136565679594740,0.5120968700753292,1.8162831885010664,-1.7930910161274531,-0.11272066871595032,-0.15773896661000994,-1.2329309848863583,-2.1657544387629946,"[0.0, 0.0, 0.15]","[0.0, 0.0, 0.33999999999999997]","[0.1626153906181359, -0.12391911376829878, 0.3879613175068251]","[0.30974360117683075, -0.23603640717844648, 0.4313548904892289]","[0.3542076061604693, -0.34780231685889296, 0.6034924334428718]","[0.4258090663724119, -0.48843159723867946, 0.7254806558062665]","[0.44021969764208724, -0.46742728156624813, 0.8234431099891947]"
138,1639136565779580747,0.9882879108846256,0.8718360945580849,1.7615037873968402,1.3418369820187972,-0.34259904537900354,1.616041018750972,0.03625414757777223,"[0.0, 0.0, 0.15]","[0.0, 0.0, 0.33999999999999997]","[0.17757264906346276, 0.0998162311176997, 0.28896399006542295]","[0.33823361726327444, 0.19012615451071047, 0.24278855250552944]","[0.527072373101436, 0.2698446687905449, 0.1971280359237931]","[0.6997737508009311, 0.36877191892669675, 0.21024761370646436]","[0.688719448309728, 0.4142921003137104, 0.12051910383960887]"
139,1639136565879506759,1.2939581376612197,0.5628607244915438,2.456864030986607,-1.9455249649743969,1.3690345786247282,0.8297478081841927,-2.6758614783053742,"[0.0, 0.0, 0.15]","[0.0, 0.0, 0.33999999999999997]","[0.08843594728450915, 0.13424618119894738, 0.47511863698761514]","[0.16844942339830202, 0.2557070118080518, 0.597368832357332]","[0.369938301882745, 0.19653563852709863, 0.5983589995793179]","[0.5587997281100563, 0.1644001114215928, 0.5428327933246392]","[0.5697811913312597, 0.21623913093613006, 0.6290743930390043]"
140,1639136565979580996,-2.759366013937858,-0.4207013380665625,0.7249448727401657,0.9699486208758552,0.6011796100729541,0.0075024778207106735,0.5216842681727054,"[0.0, 0.0, 0.15]","[0.0, 0.0, 0.33999999999999997]","[0.03062709931026235, 0.10779097500850623, 0.5176037344611731]","[0.058337332018661564, 0.20531614287363148, 0.6782928275450707]","[-0.10675814072138247, 0.07649525206427546, 0.6940618786206859]","[-0.2543467902708226, -0.04967581936720851, 0.6484226273340586]","[-0.2622281732699788, -0.11983388660170258, 0.7209568909888368]"
141,1639136566079520013,-0.2849286818960257,-1.935223306285054,-0.7420545573858699,-1.925667994434532,-1.1762925155855564,1.4451939332549095,1.209210180537926,"[0.0, 0.0, 0.15]","[0.0, 0.0, 0.33999999999999997]","[0.07957510695656718, 0.03198894476932987, 0.53168857494748]","[0.15157163229853693, 0.06093132336927555, 0.7051210951380732]","[0.2635313149072077, 0.2297333320869071, 0.7605368990486755]","[0.32596709124735707, 0.39334939899676324, 0.8560148885632877]","[0.4083475010387812, 0.44722180452567317, 0.8324199313663413]"
142,1639136566179532566,-0.21097270698389134,-1.5407357691738417,-1.5857432973097518,1.81127840583366,-1.207912761136221,0.6906206122313572,-0.8965612308923725,"[0.0, 0.0, 0.15]","[0.0, 0.0, 0.33999999999999997]","[-0.18829810151040616, 0.0551521683821352, 0.26515306759575674]","[-0.3586630504957637, 0.10505174930020192, 0.19743441446814475]","[-0.3802864212226336, -0.02728158891894738, 0.3590522273297986]","[-0.455014653217674, -0.16248448865524037, 0.4852281253681854]","[-0.3684029933791526, -0.21234605960535682, 0.46917402550544696]"
143,1639136566279780853,2.332555964476648,-1.5895636908023771,2.6038783329394053,-1.4051703106252051,-0.7218683129688865,0.5294559296725563,1.045221942931128,"[0.0, 0.0, 0.15]","[0.0, 0.0, 0.3400000000000001]","[-0.20525104199043778, 0.04395647127143232, 0.34631176640912187]","[-0.39095436569587594, 0.08372661194649483, 0.35202241220789054]","[-0.29927388347092687, 0.272650686535679, 0.3535661802024985]","[-0.16585883780007138, 0.4192831447902741, 0.33156986744653905]","[-0.20680347487127726, 0.50875122850812, 0.3078108966993927]"
144,1639136566379539913,2.489712239385204,0.11150925935895416,-1.835276308042366,1.5960942336450137,-2.0338131178000403,-0.9187293562231584,-1.3210109662595564,"[0.0, 0.0, 0.15]","[0.0, 0.0, 0.34]","[0.14491559920231112, -0.1519339932210011, 0.3360590849088153]","[0.27602971276563426, -0.2893980823263591, 0.33249349506444936]","[0.22085243384137354, -0.38525084834678014, 0.15397818721453763]","[0.1727411458304224, -0.5256609368546549, 0.0207310446142622]","[0.11310756426423821, -0.49991640358604145, -0.05689978016797567]"
145,1639136566479641430,0.08664408354988806,1.2511323013728672,-0.6133640671604983,-2.0235250885739364,0.12250117697975725,-1.0806779272013751,0.4442556769939357,"[0.0, 0.0, 0.15]","[0.0, 0.0, 0.3400000000000001]","[-0.018576614814011325, 0.014177222426745522, 0.5486957492291458]","[-0.035384028217759926, 0.027004233193085148, 0.7375157128174161]","[-0.2012020709226231, -0.10134973763234073, 0.7261299810941626]","[-0.36171109869813134, -0.19889567908076264, 0.6590022572425209]","[-0.42794777505445164, -0.2005333647623627, 0.7355235659798678]"
146,1639136566579484733,0.3524084657604329,0.5469934014320263,-2.0482251618228005,1.3843314179958033,1.7482665980575691,0.019310682739108742,2.7078044309392326,"[0.0, 0.0, 0.15]","[0.0, 0.0, 0.33999999999999997]","[0.19861376521564136, 0.01725190042857538, 0.4059920010188248]","[0.3783119337440106, 0.03286076272202386, 0.46569904955962926]","[0.3491850781363519, -0.07878118890392963, 0.29023480556798614]","[0.30893798047065574, -0.22857174487167173, 0.16482567323559738]","[0.3864010159125016, -0.21917410058523415, 0.1003535674688325]"
147,1639136566679478664,-1.1060131496203334,-1.5155984565275975,-1.7691124748402232,-0.11930054822168867,-1.1847240610436045,1.2278551717708837,-1.9588948971659117,"[0.0, 0.0, 0.15]","[0.0, 0.0, 0.33999999999999997]","[0.10251299988357127, 0.03770021010396199, 0.5193593571938415]","[0.19526285692079845, 0.07180992400843149, 0.681636870845392]","[0.22701440688752783, 0.27877285815178193, 0.6655687979837995]","[0.29304696525832996, 0.46401611488143013, 0.6988723574211965]","[0.269197690518485, 0.5455787769431659, 0.6438793192091965]"
148,1639136566779684965,-2.3362346390720226,1.386872166275627,-1.6674915504998389,-1.2731726091590057,-1.737916209030899,-1.3623932042491247,-2.000726262352607,"[0.0, 0.0, 0.15]","[0.0, 0.0, 0.33999999999999997]","[-0.09398472934329123, 0.1874370373217103, 0.3515856674528515]","[-0.17901853208162688, 0.3570229282322442, 0.36206793800547066]","[-0.29436144658849006, 0.5323872033353151, 0.3686545221457464]","[-0.34903973027406887, 0.7241400216182035, 0.3635917191899769]","[-0.42655072725242316, 0.7081449130743052, 0.3004910706189009]"
149,1639136566879576476,-0.20684342971935754,-0.22492373444775413,-0.3036805366854951,1.8888177540245668,-0.6968316255257894,-0.4787330919127155,-2.3859366300603364,"[0.0, 0.0, 0.15]","[0.0, 0.0, 0.33999999999999997]","[-0.1430451057214347, -0.14887251179796046, 0.37840667858731974]","[-0.2724668680401621, -0.28356668913962213, 0.41315557826152294]","[-0.4560515682690589, -0.1862146157097168, 0.44347441136513066]","[-0.6507240604449194, -0.15167816559488567, 0.4698248269881389]","[-0.6462410346748519, -0.08374589806317229, 0.39492089179148415]"
150,1639136566979524000,1.6838476263238484,-0.5015739002650124,1.074023294869677,-1.7955734483306718,-2.7231517585575435,-1.2107865518859535,-1.3080350729835506,"[0.0, 0.0, 0.15]","[0.0, 0.0, 0.33999999999999997]","[-0.045838355016067873, 0.00961893493153107, 0.5447103351084256]","[-0.0873111524113293, 0.018321780822866597, 0.7299244478255813]","[-0.2423208257062488, 0.11179719516812342, 0.6234615524207272]","[-0.3865517673437401, 0.14809721637264206, 0.49055469054025824]","[-0.4105818489854464, 0.24372956462373874, 0.46769645035703544]"
151,1639136567079578828,-1.236822842904691,1.5200283887393182,1.8677166517924408,0.9971891108504436,2.1589716164191066,-0.9490403530878152,1.1949898482559056,"[0.0, 0.0, 0.15]","[0.0, 0.0, 0.33999999999999997]","[0.011390411197462223, -0.10032475904293936, 0.5241336505251795]","[0.02169602132757119, -0.191094779129479, 0.6907307629051225]","[-0.1693167714499899, -0.10403350101677591, 0.6965999066841633]","[-0.367336430222095, -0.0804752726920564, 0.7008087804028073]","[-0.36944973216430144, -0.01130324096882901, 0.6269423199340539]"
152,1639136567179531542,-2.596331809555522,0.5034764661804152,-2.5087818111014726,-0.4718925390247746,1.5296548166423656,1.1771702943137463,0.3367192960733112,"[0.0, 0.0, 0.15]","[0.0, 0.0, 0.33999999999999997]","[0.0687492125414011, -0.19814131517236488, 0.35065668788615023]","[0.1309508810321198, -0.3774120288994396, 0.3602984531164374]","[0.009765844241253707, -0.5427008765309493, 0.31454057175547456]","[-0.07121237445936968, -0.7249813322525153, 0.3154644537892395]","[-0.08323283102009854, -0.7491000288854722, 0.2178976197891604]"
153,1639136567279527566,-0.08601334602628175,-1.3231367993384897,-2.863365670855168,1.5646877236600318,0.35475369646244514,1.7070654672440946,0.7730301159015505,"[0.0, 0.0, 0.15]","[0.0, 0.0, 0.33999999999999997]","[-0.08662731380761232, -0.052548428361855366, 0.5239412166404702]","[-0.16500440725214183, -0.1000922444995854, 0.6903642221723053]","[-0.21379768371045174, -0.06365878340514528, 0.8913413827780391]","[-0.2283690972862271, 0.022257294667021685, 1.070758749370855]","[-0.3281332512507559, 0.00888347860497489, 1.0814238620135015]"
154,1639136567379621755,-0.28542365019313204,-2.054602455137972,1.7413152314025315,0.5474331034946824,-1.4854452744998372,1.9618705384281685,-2.7007217016836886,"[0.0, 0.0, 0.15]","[0.0, 0.0, 0.33999999999999997]","[-0.20283999490450785, 0.01749010026927647, 0.3914784698656622]","[-0.38636189505611584, 0.03331447670430979, 0.43805422831558516]","[-0.33333129382785637, 0.08663155151251731, 0.6341283083651047]","[-0.3048662262808593, 0.19145249511141407, 0.8014208656191015]","[-0.3613665919357631, 0.11136250317940638, 0.8266951979187512]"
155,1639136567479639671,0.13115617304871785,0.472931502653974,0.7366448803038521,1.0549711915082174,1.7913651663101322,-1.1860310644292005,-1.6246045502966584,"[0.0, 0.0, 0.15]","[0.0, 0.0, 0.33999999999999997]","[-0.17837749466095537, 0.05234232039812128, 0.24231811378857773]","[-0.33976665649681353, 0.0996996579020813, 0.15393926435923047]","[-0.5306852079901336, 0.04346102294165404, 0.08695178318938643]","[-0.6969515307455493, -0.061442486794941784, 0.0532582591478742]","[-0.7055016765092273, 0.02848767081160203, 0.0989195311437577]"
156,1639136567579468903,1.5926479831077738,-1.5934662855792163,1.3272167758594366,0.5240271595660317,-2.2256065374240124,1.6337230198527235,1.667660960466398,"[0.0, 0.0, 0.15]","[0.0, 0.0, 0.3400000000000001]","[0.0948330302854051, 0.012509750391152197, 0.5269497325808159]","[0.18063434340068463, 0.023828095984073996, 0.6960947287253456]","[0.12403471014904757, -0.10742427299249595, 0.8499430213834653]","[0.10346456761016685, -0.19241556300097057, 1.029213319700352]","[0.12620306475300797, -0.2863010172140073, 0.9989813459821716]"
157,1639136567679482817,0.4612230405260713,-1.8527058306060311,-0.8876273032810298,-1.5146267674669731,1.8051783654162168,-0.25070956821397483,2.4876427246877912,"[0.0, 0.0, 0.15]","[0.0, 0.0, 0.33999999999999997]","[0.00458730362041429, -0.2098959178872403, 0.33523971641947614]","[0.008737721180811286, -0.39980174835666943, 0.33093279317999397]","[0.11464865416282335, -0.5787294748334955, 0.3014753158149197]","[0.24145473860157607, -0.7148080507215115, 0.22945220748431927]","[0.26420944824214565, -0.7115898249203794, 0.3280288589382325]"
158,1639136567779602236,1.737716213478366,-0.5294871007383251,-1.5184454807517078,-0.6875127253556155,-0.8190702791934991,1.0923209547776085,-1.1335626073408287,"[0.0, 0.0, 0.15]","[0.0, 0.0, 0.33999999999999997]","[-0.18063350133911366, -0.0897699645919584, 0.28158004064422015]","[-0.34406381207492603, -0.1709904087457593, 0.22872388694140952]","[-0.3148065345431723, -0.33803885468344824, 0.3525739108462637]","[-0.24369293612119325, -0.4599251273728251, 0.4935387385493768]","[-0.2640785700227249, -0.5589794395422193, 0.49780009644104994]"
159,1639136567879545045,-1.5605330670868196,0.6504395370238161,2.8742994308625365,-0.04748716215208537,1.894324675309992,-2.0385677764511616,0.17544660110963228,"[0.0, 0.0, 0.15]","[0.0, 0.0, 0.33999999999999997]","[0.017622932214023015, -0.10459482227062555, 0.5212439113856138]","[0.03356748993054938, -0.1992282328965508, 0.6852264978773795]","[0.17742421227254082, -0.25201505956625053, 0.8288189571750817]","[0.28452757585061855, -0.3558722305026802, 0.9612087134077423]","[0.37782988697934855, -0.329827941099937, 0.9318511977168019]"
160,1639136567979581574,1.8650423518263997,-0.17879367995745765,-2.674261356373372,-0.1942605907130035,-2.66587907621057,0.41578808600497297,-0.6610319616341274,"[0.0, 0.0, 0.15]","[0.0, 0.0, 0.33999999999999997]","[0.001305080016516899, -0.12715591642323032, 0.5071217211637044]","[0.0024858666990580786, -0.2422017455680795, 0.6583270879308417]","[0.006343722048723188, -0.36153625744582696, 0.8310823808367344]","[0.005894081600307743, -0.41970915069842646, 1.0218707513263656]","[0.08129711716332069, -0.44413594926379274, 0.9589167701994344]"
161,1639136568079563489,0.4383985947859013,-1.9802871252722856,0.6435788272751481,0.4813186325584416,0.9108068569381618,0.6131959255705031,-2.9492534020055,"[0.0, 0.0, 0.15]","[0.0, 0.0, 0.33999999999999997]","[0.010831300928234835, -0.03574181725916714, 0.5466523782084646]","[0.020631049386212474, -0.06807965192245591, 0.7336235775399397]","[0.05906554216969172, -0.13193681951201117, 0.9299525155799446]","[0.11457276771501446, -0.1343910287550431, 1.121518208670467]","[0.07724079057406233, -0.20317152003852243, 1.1857136719178853]"
162,1639136568179572079,-2.3899225192421945,-2.004087347965811,-1.9620352416579112,-0.06264354961888262,-1.157135654809607,1.4264257883246958,0.6445275000253194,"[0.0, 0.0, 0.15]","[0.0, 0.0, 0.33999999999999997]","[-0.17442070074932994, -0.08177290151523495, 0.25639012182826504]","[-0.33222990618960896, -0.15575790764723085, 0.18074308919673135]","[-0.4340344619600579, -0.26791707009362087, 0.03529153470622136]","[-0.5630790337948469, -0.39142161055618785, -0.053470038990430346]","[-0.5875429056999347, -0.3691802866508576, -0.14913786264263654]"
163,1639136568279522076,1.0609265057157726,-0.4288202383718369,-0.13035931219571628,0.8194467219772559,2.1415701493594943,-0.7266152628931737,-2.8184020541972212,"[0.0, 0.0, 0.15]","[0.0, 0.0, 0.33999999999999997]","[0.13923809432541887, 0.1301487598067487, 0.2518294073435423]","[0.26521541776335006, 0.2479023996312339, 0.17205601398773537]","[0.3943438014130261, 0.38523703875068094, 0.07950841848167549]","[0.5544214457822331, 0.4669869399599328, -0.006958866808677466]","[0.4912422595092163, 0.4941644808072767, -0.08122367472851502]"
164,1639136568379756235,0.9305793735593056,-1.3367212533880015,0.8484358907273752,-0.7161101337179121,1.1045203145506153,-0.8446328747305532,2.8073765355052545,"[0.0, 0.0, 0.15]","[0.0, 0.0, 0.33999999999999997]","[-0.04261655037891819, -0.07621151421726008, 0.530985954285946]","[-0.0811743816749245, -0.1451647889847721, 0.703782770068485]","[-0.19521610604346795, -0.3082337574180126, 0.7708871412909916]","[-0.31315914436206294, -0.4248342194002809, 0.8816944604432032]","[-0.28802532184299623, -0.5227188078238676, 0.8760033871942386]"
165,1639136568479472150,2.686007727506943,0.8644303323601465,2.5323342907057853,1.2849737943386597,2.918807157405516,0.7170837042680898,-2.564499511810931,"[0.0, 0.0, 0.15]","[0.0, 0.0, 0.33999999999999997]","[-0.122026538441806, -0.16382015725032656, 0.38870811015004314]","[-0.23243150179465683, -0.3120383947619637, 0.43277735266678696]","[-0.39479945144672496, -0.35688136636166923, 0.5581797323247962]","[-0.5245782605959827, -0.35329566587952377, 0.7096032887744216]","[-0.5488891649462118, -0.4484309904775452, 0.7341744088812293]"
166,1639136568579454429,-0.3167475598995755,-1.0288658295920468,1.7982736336759069,-1.5847853037838926,2.1841217071872028,0.4119889190935875,2.9573281342067026,"[0.0, 0.0, 0.15]","[0.0, 0.0, 0.33999999999999997]","[-0.14345824997260745, 0.07028907613430092, 0.47630545216895503]","[-0.27325380947206557, 0.13388395454070143, 0.5996294327027416]","[-0.3592780760118866, 0.3044273526079754, 0.5123667548733674]","[-0.4039374470369218, 0.4941281025475411, 0.46989728287271026]","[-0.4232357781776766, 0.509327028315967, 0.37170330611920643]"
167,1639136568679555077,-1.7140281561149435,-2.041302338154149,1.1311123653954591,0.5676796873127614,-1.317091837619761,1.1383682483536421,-1.6609909427526424,"[0.0, 0.0, 0.15]","[0.0, 0.0, 0.33999999999999997]","[-0.17096015986047614, 0.0560379467848342, 0.44831607572572285]","[-0.3256383997339312, 0.10673894625770483, 0.5463163347156962]","[-0.2827379841798065, 0.30795633800433875, 0.5042317103979589]","[-0.22278962871481645, 0.47407922525063184, 0.4115285766321656]","[-0.2584354993279306, 0.5648284544802153, 0.43872120987114493]"
168,1639136568779502741,2.1461191644289896,-1.6937007066716023,1.354590830075766,-0.7495261681402212,-1.2229505280344428,0.8852792062841117,-2.9927547204240126,"[0.0, 0.0, 0.15]","[0.0, 0.0, 0.33999999999999997]","[0.026718728005155776, 0.18526442758545078, 0.24479915207719125]","[0.05089281524883915, 0.35288462397217213, 0.1586650515756374]","[-0.030815779098986668, 0.5021099246940911, 0.035557313256085604]","[-0.1600230052858834, 0.6133008993274578, -0.06801174515988204]","[-0.1281430345260534, 0.704192499476542, -0.036901063928328176]"
169,1639136568879502552,2.510696491433405,0.8232903324125398,-0.3698622228714172,1.5687585890427034,-1.9270406586836812,0.5385699990453849,2.012681135054232,"[0.0, 0.0, 0.15]","[0.0, 0.0, 0.34]","[0.1134002866527721, -0.17486443452922432, 0.3142550097330809]","[0.21600054600450222, -0.333075113389509, 0.29096192330114545]","[0.18381368859082536, -0.540268484087149, 0.3025771438665048]","[0.21439215874641981, -0.7366447317127915, 0.31948325315917736]","[0.14082235597109288, -0.7738990292056631, 0.3781781544531748]"
170,1639136568979583013,-2.058310045086025,-0.7906079109180777,-1.025480612836611,-1.6503828072060702,-2.2619810766133237,-0.375713755038154,-1.7952334772768959,"[0.0, 0.0, 0.15]","[0.0, 0.0, 0.34]","[-0.124363912159212, 0.09084636989442638, 0.48276047922818444]","[-0.23688364220859323, 0.17304070456007667, 0.6119247223393702]","[-0.17443197493353899, 0.03341160588992774, 0.7558118449707154]","[-0.1000471020852408, -0.13047658781752886, 0.8417888224393941]","[-0.05951876361109574, -0.12176901060860926, 0.9341312389102437]"
171,1639136569079510626,-1.888420452870269,1.0536191577490222,2.350798701533098,0.5406740699047687,2.581821331130407,-1.134148378982225,-0.9374147707056016,"[0.0, 0.0, 0.15]","[0.0, 0.0, 0.33999999999999997]","[0.06991984746081137, 0.13187479152428352, 0.4877168043639031]","[0.13318066183092592, 0.2511900790934132, 0.6213653416455578]","[-0.06627880532685651, 0.257064059710444, 0.6867978818136137]","[-0.22783245360265014, 0.2619856877483369, 0.8036768204905104]","[-0.3191599344371442, 0.23477664018035413, 0.769552797063189]"
172,1639136569179620453,-2.1376607076886396,1.1679121601619382,1.5831290478077311,-1.5635366839576057,-0.9428447266502288,-1.8411241259750173,-2.31163672149018,"[0.0, 0.0, 0.15]","[0.0, 0.0, 0.33999999999999997]","[-0.05700784608738303, -0.1734054257500619, 0.4438299754642995]","[-0.10858637349889948, -0.330296049048046, 0.5377713818367267]","[-0.2421997780188273, -0.49067383047496455, 0.5607153430721741]","[-0.37464614796285, -0.6180110682309307, 0.6383534585138282]","[-0.3300083457290621, -0.7041729711020146, 0.6095596552677975]"
173,1639136569279491123,1.7941801443409449,0.2849858413246173,2.2114640463699904,1.655994280380376,-2.3355568088541414,-1.5860600475490363,2.7676135689491765,"[0.0, 0.0, 0.15]","[0.0, 0.0, 0.33999999999999997]","[-0.10373893442687399, -0.162969689129153, 0.4223353745915083]","[-0.19759797033612625, -0.3104184554846135, 0.49682928493616996]","[-0.020670297936149384, -0.4235012468218505, 0.49980939273713154]","[0.10770442215736956, -0.5757728740805746, 0.48895707626133567]","[0.11088900939005314, -0.5282669013492337, 0.5782796991460589]"
174,1639136569379537048,-2.4501664000830154,0.5596109924033188,-0.8208076665697202,1.2347514150961771,2.4656433946875427,1.860010811476661,-0.9751612110556542,"[0.0, 0.0, 0.15]","[0.0, 0.0, 0.33999999999999997]","[-0.013079215003855896, 0.05757326371719946, 0.5415297830094419]","[-0.024912790484450664, 0.10966335946116296, 0.7238662533513066]","[0.11318904172318789, 0.2589664410972199, 0.6715549376072908]","[0.2700754347369038, 0.3533742739232284, 0.592445451524759]","[0.2809922816504079, 0.3759003876763459, 0.6905213744245652]"
175,1639136569479613054,2.7409235161969634,1.9973764929199525,0.5781835248816822,2.049106916138604,1.0437923508235234,-2.0264184814229718,-2.4767771034216564,"[0.0, 0.0, 0.15]","[0.0, 0.0, 0.33999999999999997]","[-0.08587711690440059, -0.07108364316955584, 0.517966953297322]","[-0.16357546076971927, -0.13539741556179669, 0.678984672947259]","[-0.011176327616463713, -0.19756038846554363, 0.8094080949768327]","[0.09859394794912943, -0.30707992658744815, 0.9348690346027516]","[0.14944023407535345, -0.276220790384902, 0.8529675150808108]"
176,1639136569579580140,-2.1643040340233197,1.4549752375111915,-0.8165931735962864,0.1154735962342186,2.815449187696507,0.007114412533701042,-2.910625833361547,"[0.0, 0.0, 0.15]","[0.0, 0.0, 0.33999999999999997]","[-0.17603957255332064, 0.07456722775816371, 0.2531104296264143]","[-0.3353134715304824, 0.14203281477659166, 0.1744960564312295]","[-0.27403056929230935, 0.22672391538386247, 0.35662739193172943]","[-0.24385738019229974, 0.3561522640972227, 0.5053633028909456]","[-0.16635192376424743, 0.3096287386705111, 0.4598225979584416]"
177,1639136569679476655,-0.42658855644120175,1.9756037606538717,0.9816123338411042,0.4979795159181011,-1.15686788517267,-1.4900021961368153,0.32645786865436266,"[0.0, 0.0, 0.15]","[0.0, 0.0, 0.33999999999999997]","[-0.1166603122301956, -0.1729203040147423, 0.364268086241036]","[-0.22221011853293715, -0.3293720076476523, 0.3862249261733629]","[-0.32240432952031517, -0.5094159242993173, 0.4267873245411252]","[-0.396898277122988, -0.693584478723972, 0.40898043453463506]","[-0.45121894238716986, -0.7419738136859952, 0.4793596046575471]"
178,1639136569779631123,1.8632992184281931,-1.919280496227511,1.671155519688488,-0.09291899196450283,0.053475695995352616,-0.6163478927168196,0.32682986641169176,"[0.0, 0.0, 0.15]","[0.0, 0.0, 0.34]","[0.17572881464288023, -0.07986847807873015, 0.2572932293364343]","[0.334721551701095, -0.1521304344348231, 0.18246329397412442]","[0.47458701398694436, -0.30730287945548457, 0.1610351637272849]","[0.5589599499664026, -0.4880199629693953, 0.1583831078394141]","[0.6274062553178625, -0.4434257607099115, 0.21814890414946891]"
179,1639136569879564476,2.900912495127605,2.0497109256087973,2.3783325534829154,0.6260674941455721,-1.5243266247772769,0.3281847606956609,-1.928560183010352,"[0.0, 0.0, 0.15]","[0.0, 0.0, 0.33999999999999997]","[0.05691365666806285, -0.18899363241395878, 0.26829056832154297]","[0.10840696508113748, -0.35998787126496445, 0.20341060632678543]","[0.14631945834906057, -0.5531180983341526, 0.13017565397196004]","[0.1775533614259474, -0.7498750957386162, 0.12039724556549891]","[0.2385464102653918, -0.7816005013553802, 0.04610837269936277]"
180,1639136569979527979,-2.8767557081123285,0.8515998801848044,0.4513153926840121,-0.3851888806106203,-0.7621728237196712,0.401107531023372,2.1692383281106777,"[0.0, 0.0, 0.15]","[0.0, 0.0, 0.33999999999999997]","[-0.18100204679718343, 0.04442472849458465, 0.2432286067403561]","[-0.34476580342341084, 0.08461853046496776, 0.15567353664826247]","[-0.43136981339368413, 0.19346265086104003, -0.001656380761854065]","[-0.4547303860668517, 0.31131853055230974, -0.1608693364739401]","[-0.5388632225910902, 0.31096900576292397, -0.2171457405062466]"
181,1639136570079704390,2.722404199827205,-0.2927332481496789,-0.986972250956296,0.4244535084966064,1.1622423977575391,0.608474974628527,-0.3556697539760787,"[0.0, 0.0, 0.15]","[0.0, 0.0, 0.33999999999999997]","[-0.1524821153587969, -0.04135429313760847, 0.47834387205364504]","[-0.29044212449272794, -0.07877008216777798, 0.6035121372450086]","[-0.467888649773655, -0.16255211802537572, 0.6783005129011325]","[-0.6445988007368698, -0.18424795503352587, 0.7682299474766573]","[-0.7061141815618033, -0.2613034498553532, 0.7453432998469415]"
182,1639136570179533095,-1.060555256418498,-0.4968920771172749,2.0949373588643945,-1.6752883821227884,-1.7303850053437448,1.6486031966280643,0.11475240914406415,"[0.0, 0.0, 0.15]","[0.0, 0.0, 0.33999999999999997]","[0.05535300324981824, -0.024665271025152865, 0.5410663309370353]","[0.10543429190400268, -0.046981468620173314, 0.722983487499126]","[0.16819700395632797, -0.15394600158491295, 0.8924515690468678]","[0.24680403498697187, -0.19952685035334156, 1.070012293583847]","[0.2039163534082048, -0.27666805946851813, 1.119563990073946]"
183,1639136570279598330,1.6358367065744663,-1.822061847099904,1.7843041537128284,0.1095866778156771,-1.5287163799452863,2.038186081267656,0.8915666094216146,"[0.0, 0.0, 0.15]","[0.0, 0.0, 0.3400000000000001]","[-0.048890586056938135, 0.08735527538495441, 0.52460435113352]","[-0.09312492582191055, 0.16639100073367075, 0.6916273354924377]","[0.024884518128933872, 0.3257695787668636, 0.6225459342144526]","[0.11336021672265037, 0.5038532524932019, 0.6069656290029075]","[0.19032302495057665, 0.43811801769541137, 0.605919179887666]"
184,1639136570379632477,2.5889658465128482,1.7628028582783402,2.0840845993444868,1.9079654900214449,-1.2824105636633878,-1.576473877719612,1.5292337661059574,"[0.0, 0.0, 0.15]","[0.0, 0.0, 0.34]","[0.013220258263314688, -0.20297561881763304, 0.2877877127770657]","[0.025181444310147905, -0.3866202263193713, 0.240548024337306]","[0.06079924906413964, -0.5881268262302646, 0.19336262217882394]","[0.1511032615099367, -0.7640257903078084, 0.16710943622670812]","[0.06976139497363254, -0.7542910042597109, 0.22655878179911845]"
