CodingCatMountain/get_multi_robot_pos/multi_robot/bagfile/iiwa_samples_with_noise.csv
,Unnamed: 0,time,iiwa_joint_1,iiwa_joint_2,iiwa_joint_3,iiwa_joint_4,iiwa_joint_5,iiwa_joint_6,iiwa_joint_7,link_pos_1,link_pos_2,link_pos_3,link_pos_4,link_pos_5,link_pos_6,link_pos_7
0,0,1639136551979647857,-1.023703194096215,1.5749805595303847,-1.3804528138430516,0.04063594506668977,0.9865373747813306,-0.4824352502065259,-3.004986539856081,"[0.021459106931778563, 0.028830683409855284, 0.1304871168538432]","[-0.09699981432535139, 0.15189635423931236, 0.15204656888350046]","[-0.35263845468067057, 0.02684024316481093, 0.4785586077865744]","[-0.12535323914709934, 0.42045521977381967, 0.4199766677111594]","[-0.2610822882181112, 0.5628755919013014, 0.46813311907145294]","[-0.32581156261646105, 0.6695024683046257, 0.45690776213868967]","[-0.31067987036438516, 0.7838162656204238, 0.6147493986712657]"
1,1,1639136552079621092,-0.6608328361337574,1.7872430943801532,-2.2248734686231115,-1.1237707401404329,-1.012589531106192,0.5904746647457784,2.08659337273068,"[0.3012974671126327, -0.2233637042904103, 0.2211224393378622]","[-0.17027437433663395, 0.0483384447879765, 0.27868768543073186]","[0.12317047048906743, -0.1729857883003535, 0.3073333888712451]","[0.20361161036808106, -0.22144708848452785, 0.43490164511654406]","[0.2447758050126069, -0.5024738854415174, 0.26117874211900716]","[0.47506636166712557, -0.5532905846369945, 0.2509584033605392]","[0.4297274123707314, -0.7947063146632769, 0.2981704551295602]"
2,2,1639136552179660552,-0.72229873259601,-1.7098140129449797,2.502516226267916,0.6498130097705848,-1.1491044817412228,0.05401149202661859,1.3097006317268316,"[0.07628554712296855, -0.03314024572614263, 0.15985911430592886]","[-0.11179899914422275, 0.07464563462677092, 0.23505298799462238]","[0.10444575035187531, 0.056336931530201806, 0.27519715464023997]","[0.1589765066237756, -0.18695092503851804, 0.21814188466389625]","[0.27390811580291596, -0.40264799425809195, 0.36101122690325776]","[0.5368063031620947, -0.47879313272740864, 0.3899041275269628]","[0.2802700917835044, -0.6815690111602826, 0.35491607454294066]"
3,3,1639136552279538442,1.5287084280048862,-1.941011322291752,-0.2376808397333301,-0.059154938071304126,0.3057950297051999,-0.44250695174556,-2.5505073890627936,"[0.005626991023168557, -0.1879023110830262, 0.04036228242770269]","[0.07088841703470523, 0.02237221043000125, 0.4479454028188383]","[-0.12223576788820643, -0.04340805811667414, 0.3600203198027861]","[-0.4427073087182347, 0.22818992601782045, 0.4189861607236658]","[-0.4482022201824384, 0.38417613043862747, 0.35161052510958624]","[-0.7921441464097212, 0.36309413490161613, 0.48575300559751683]","[-0.7919097599885493, 0.44306556648697204, 0.36608486380752747]"
4,4,1639136552379591108,-0.44251515140100217,-0.6577343032383909,-2.4295911133694017,0.36064043652603095,-1.4717208153007533,-0.02895603160650584,-0.4038694470439759,"[0.04092395905794954, 0.136100683882973, 0.1375013676345423]","[0.16965623204491287, -0.0316497149653215, 0.21601311622815278]","[0.01613817333875109, -0.4173850212537723, 0.3041620619196866]","[-0.0505553408056453, -0.3610699751336571, 0.10236618222554701]","[-0.03917456397036603, -0.44609079917239947, 0.014759543160153599]","[0.06869460416963552, -0.6291904087947086, 0.17058292471002223]","[-0.0886098214690305, -0.8098830168959272, 0.03679930692760276]"
5,5,1639136552479542712,-2.246996857709032,0.9278366713338948,-1.747410045033763,-1.470247929720148,-0.7338488463636685,0.6737685972872329,-2.0367842791635047,"[-0.07386014109134119, 0.08227073959350972, 0.2643935977289441]","[-0.01747675175113712, 0.19415460815961294, 0.42569270007269633]","[-0.09877341868192012, 0.06228363542665402, 0.6582581732200081]","[-0.4063984687904991, 0.1357791565706812, 0.9597582417941878]","[-0.1813523177580491, 0.2683800385384026, 0.7772004141182189]","[-0.4479452961050464, 0.14279665930592939, 1.0388903867564092]","[-0.1732618657180738, 0.2842697173909393, 0.9792236951329552]"
6,6,1639136552579473379,1.903139121606924,-0.2752902981922085,0.6591381883465369,-1.5254133377210344,1.0530855959970724,-0.6977808217284871,1.1908887207846148,"[-0.04289783256599997, -0.0813533613508804, 0.08778359105176815]","[0.14515017848998543, 0.14738109395501348, 0.3061936292843249]","[0.0021939329597996243, -0.07319340745086414, 0.34056441314743935]","[-0.1912088205597415, -0.2721024965973413, 0.7065817700910866]","[-0.39971322556965305, -0.24122369329351886, 0.7090246171262935]","[-0.4915300791412908, 0.1373944348296991, 0.8971486051234441]","[-0.6011233651890906, 0.03599964486592414, 0.680128569490468]"
7,7,1639136552679530707,-1.0136293410717208,1.2233512807905678,2.367016829823472,0.05399741016848925,-0.8737511270067793,-0.5787613309182393,2.6856976030831747,"[-0.03821641734749903, 0.03713545857529909, 0.03615060302829634]","[-0.12741296661240414, -0.02338360475309091, 0.3858455268056607]","[0.08701480523726832, -0.11346145258625964, 0.5486159739904157]","[0.11645197385028294, -0.260230709722443, 0.5419218487134883]","[-0.2493141209418869, 0.08493050012033464, 0.7095743163083702]","[-0.24814572362427734, 0.28379430335511935, 0.8625700718953649]","[-0.28680779617408214, 0.14959257410978674, 0.9127962511616375]"
8,8,1639136552779589580,0.3744893437640053,1.2771331165045856,-1.210286171542382,0.07383822278643049,-2.904335887579621,0.36271751991193657,1.804575382448521,"[0.022942711170726517, -0.16256153169491064, 0.15975245802267787]","[-0.05706917516739618, 0.023874229711913914, 0.3523671233264706]","[0.025922603449359136, -0.23053046274570277, 0.37001578688484593]","[0.10285635912162365, -0.5075928383959655, 0.4178636327524742]","[0.36345383456571995, -0.5414112881211617, 0.5594729240560161]","[0.47124656644421054, -0.7065695400841593, 0.4730681862142895]","[0.531100678045395, -0.6961536864140857, 0.49085347688100567]"
9,9,1639136552879505560,2.4015842197994384,1.840977779767484,2.350340566077946,1.0743213717915558,-0.5884394352197573,0.8736000673349662,1.6490086903632488,"[-0.0578515561047573, -0.0883392159345623, -0.10699186149186182]","[-0.06533174950336311, -0.1660432758119299, 0.2980419940607941]","[0.2567180688215398, 0.1220353240865569, 0.251269057865222]","[0.23322125581679246, 0.173386772659258, 0.503889525509688]","[0.48610061254815995, 0.33608137308567926, 0.6079824888890782]","[0.8054986763873476, 0.3200953376256435, 0.4472751524042058]","[0.6037019779973356, 0.37523875222683944, 0.4015582637589448]"
10,10,1639136552979686319,0.6146980717750408,-1.5199026983142994,0.2538516815539298,-1.4411205202685582,0.5706685513644056,2.0407037293734764,0.9987074574607786,"[0.04702398232375671, 0.11963116291224535, 0.015078030795133923]","[0.10833117941117427, 0.2416157678413851, 0.3502647761797319]","[-0.280698027577006, -0.05883950764778184, 0.42029413036610624]","[-0.2633286687831109, 0.40968543745244157, 0.15734456315899076]","[-0.14145116947272296, 0.4779644964579436, 0.3148444689089642]","[-0.08013153690450184, 0.5499032954677149, -0.12132357654438704]","[-0.13994681730750685, 0.5832272496516709, 0.13858764170175666]"
11,11,1639136553079531073,-1.0228005882112234,0.0824589389144128,-2.670561611343249,2.045752605905258,-1.6800679392390108,1.7477630428894682,0.10079149289529796,"[-0.1993390238482925, 0.18209334038480945, 0.20369384752546174]","[0.005533154967164531, 0.09286244939718591, 0.3079925451903125]","[-0.26119469005384954, -0.07832176573343724, 0.3635058212400604]","[-0.2829186718529782, -0.35234411188505355, 0.4582386418248351]","[-0.33271875317320887, -0.12766801993038024, 0.4234808076470775]","[-0.19909745191995326, -0.08613845908642367, 0.8181449087109869]","[-0.42020111512106445, -0.23205151506334257, 0.9422695177461675]"
12,12,1639136553179557200,-1.92480086367406,0.4986876914365119,-0.5362090758954796,-1.474085615482724,0.4066357063343585,-1.7471127293555924,1.9405533087796063,"[-0.0932803109978866, -0.0798403856459371, 0.20138733466985836]","[0.06617258658879278, 0.1764150632149085, 0.25023359138149504]","[0.036889155260824875, -0.07084968350528259, 0.719514115890848]","[0.08438904905579825, -0.08097993353520758, 0.8405536405030087]","[0.22925231280901415, -0.1141477126829316, 0.8512916114040138]","[0.15123393141309116, -0.20300307890486685, 0.36945647466553766]","[0.37423789753721304, -0.003581510117860967, 0.5876054650719374]"
13,13,1639136553279700176,-1.8861643475188559,1.3573598119734118,0.6378223165467207,-2.0150725150249054,1.3582527889999096,-1.0793132306619553,0.0402375505658501,"[-0.10359404241625131, -0.0015485655556070474, -0.02420058107799153]","[0.03750594148535994, 0.028281392711282095, 0.18846877960609618]","[-0.10572330729182938, 0.027818790074710997, 0.6168580251768215]","[-0.18724126171422056, -0.30399353898272585, 0.8312652191295768]","[-0.21921233898246514, -0.2000658194328082, 0.5685007819329407]","[-0.36700856683682354, -0.4471016140750768, 0.545900343377486]","[-0.3011907785034733, -0.43628801825838864, 0.6631401464946217]"
14,14,1639136553379545028,-2.5871035331109042,0.09227825514858257,1.2190850830563815,-1.3780922766526762,-2.727121477280754,-1.8446646880248807,1.2591106039163589,"[0.006098087655247183, 0.04371504149641055, 0.0870256893927181]","[-0.11352754732418252, -0.20946296968578226, 0.21641156055212973]","[-0.1460453608962466, -0.10630487616677438, 0.2592962347279706]","[-0.07510406340448766, -0.5453790905206628, 0.421719115073547]","[-0.0583280742200671, -0.4388593497758053, 0.2866426460389762]","[0.2324454298878144, -0.27964708139178507, 0.22310743966046312]","[0.23793996828447544, -0.3536075195011016, 0.02109435001619533]"
15,15,1639136553479524237,1.7791349729014247,1.5723906177922449,0.9779971989982714,-1.153216087445509,1.2857625205943086,-0.6659555168620834,-1.456576655108471,"[0.13434601314458794, -0.04488475561438118, -0.04818460547855266]","[0.01459224551639363, 0.050116157416423515, 0.15353769135178988]","[-0.003513930362877782, -0.047613033512761825, 0.63691588904489]","[-0.06670498650945376, 0.17573000437991396, 0.7300867728375022]","[-0.07274749523481802, -0.2720024777728238, 0.7866366753434794]","[0.02854483928503776, -0.3943936408316225, 0.781325169614693]","[0.08502286346731183, -0.25890533056957904, 0.7058127896088717]"
16,16,1639136553579590598,0.6877747717356004,1.6573363156478709,-1.9083704676343989,1.0079538068798812,0.8824147863850413,-1.6837570684726455,0.04152220146092933,"[-0.046879946137162364, 0.11234048010426952, 0.15062850995181665]","[-0.03122001242983424, -0.07853603887326044, 0.2701605216253638]","[0.016599071925278264, 0.1536038349386581, 0.5424268421590772]","[-0.05517825610878997, 0.4399004371708719, 0.21452229178932225]","[-0.16144886254887603, 0.5455010428391741, 0.15784399004200989]","[-0.3214921992830624, 0.4000883762243842, 0.10728874502942373]","[-0.4597923503958994, 0.6611729592491277, -0.04223257510340736]"
17,17,1639136553679535772,1.670611448891926,-0.69335251714903,1.1410451416740597,1.658088238995394,2.302824709189933,-0.06728110897881767,-0.04840764922332808,"[0.017599483772746963, -0.22246164310662714, 0.29759418343447297]","[0.1502033183662641, 0.13000619638440244, 0.38159330442224126]","[0.1973681297772883, 0.13724786013121082, 0.31011010740713807]","[0.2665528081189945, 0.20558235324853993, 0.45341915342733385]","[0.14426673086108988, 0.5315798711292099, 0.31528968030677257]","[0.26229314529375924, 0.6729690861752596, 0.1781827145899193]","[0.19215636091448418, 0.6036284091190225, 0.3895450237626862]"
18,18,1639136553779530786,-1.4848747786497254,0.6927475737812521,2.1857560643382743,2.035112894044063,1.4173190258661497,1.1595003937221264,2.8583961928490385,"[-0.12142129343764585, -0.14081641871691467, 0.13494329990354625]","[-0.15306337906254175, 0.08944783612482886, 0.19899962894753181]","[-0.0708478674007072, -0.28351982462632846, 0.4768377171097589]","[-0.07944306560488215, -0.28053782555498147, 0.7779327090666359]","[0.3397420717154667, -0.2517061340286386, 0.5530411534336841]","[0.4887945715625867, -0.4985947513925907, 0.5186166775401194]","[0.449646511413398, -0.3732554848714502, 0.41905457261097695]"
19,19,1639136553879587806,2.809409702856553,-0.8763445551554709,2.083594121092996,-1.3942466851904212,0.522749637460648,-1.6447211036778135,2.341168705175189,"[-0.10970030455563975, 0.006825786928013127, 0.11214406490490994]","[0.003973472552046004, 0.023882375396735378, 0.29840481397641566]","[0.2307674044491142, -0.396407043289025, 0.45516791065621265]","[0.10238211270681076, -0.32720011840907437, 0.7214232938399588]","[0.18247574573912212, -0.18581713887945106, 0.34774810412251955]","[-0.28607033074963806, -0.24987115422686135, 0.35440386122756956]","[-0.15205824973056176, -0.24612913801951283, 0.4573986591724209]"
20,20,1639136553979575185,1.6551089575724052,-1.9466549472613481,-2.543787172480982,1.8874670551043409,2.4792360032951595,-1.435484911790558,0.8517001872427405,"[0.055676774503453666, 0.01403003983502283, 0.047536537220237596]","[0.16313537467551517, 0.022452520999106246, 0.38608117580825346]","[0.09225154386140208, -0.25230819440416696, 0.4122483968745485]","[0.1035363447068994, -0.04441819014206531, 0.48090558878132844]","[0.4699480783880364, -0.3729324721402808, 0.6435633988058883]","[0.28125320810263826, -0.4776302808840049, 0.7673854452763926]","[0.28950986807193485, -0.4221834267568572, 0.6102190271553337]"
21,21,1639136554079602245,0.2627360542503272,1.4149791235786315,1.824820241638868,1.9648943309280376,-0.4628406628128547,0.7452890477598593,1.8702255463650457,"[0.0741564614396426, 0.06228857815978109, 0.050971698538466864]","[0.16175553683365954, 0.1297577839646975, 0.28608535652145717]","[0.26491591508476153, -0.10018107685305949, 0.2634831527445684]","[-0.05403102037566586, -0.4416141240726361, 0.2978859284039787]","[-0.15741137916717218, -0.34590553888315995, 0.2846723193683963]","[-0.16528996702193266, -0.3927131536140661, 0.6772672107809303]","[-0.3876847255853998, -0.547874507086696, 0.47937169903326227]"
22,22,1639136554179562277,-0.5395604443271504,0.20389406372606445,2.112162279372195,-1.0211626604547492,-0.33778572788230266,0.1542182888189756,-0.3588606614136838,"[-0.04777731003254903, -0.05510144953522938, 0.04254063253349952]","[-0.08603614769377699, -0.11815617891953223, 0.4615683584182197]","[0.18743655009520457, 0.21673105705409734, 0.5826440664831576]","[0.3606775896441017, 0.052672288273075844, 0.20752801019399453]","[0.2547028535560659, -0.21829113545288337, 0.4217814013807769]","[0.3906772844563091, -0.49851279517859975, 0.1880257174297191]","[0.4258157474121224, -0.3761876610355448, 0.2384338558961596]"
23,23,1639136554279540118,-1.2333709462790359,0.7351175175677107,-0.6804697127093586,1.14793262647496,-0.256023539495712,-0.3241129330692676,-2.4202607361112265,"[-0.0809211544420011, -0.0022862715101473487, 0.0077440486413165865]","[0.12505399437242845, -0.008180317335969337, 0.34211246528881484]","[-0.10185095860074803, -0.04973320720633379, 0.5616664552141448]","[-0.03646885453145163, 0.005458646770776357, 0.830071092624666]","[0.16673725781204957, -0.043011367634054665, 1.0335884639683206]","[0.16718940355736958, 0.3930973258838578, 1.0188336796888768]","[0.0327469423712749, 0.2985826871026211, 0.9647111740614305]"
24,24,1639136554379634650,1.9185040099468416,1.2522115601680532,-2.6869807874634937,-1.837861561650624,-0.4101289330339797,0.08073883672754299,-0.5817376238010996,"[-0.0022512627773195893, 0.06393107100703767, 0.10106284298923131]","[0.07278424231736516, -0.052593508319382504, 0.45080213904187744]","[-0.00012123941604871152, -0.1399858254995993, 0.5122046172826625]","[0.06085411515216975, -0.27910084233132915, 0.630607270403426]","[-0.03677813678211456, -0.2524365845899855, 0.81075768851627]","[0.2616632333246719, -0.14459649501412125, 1.111354529602236]","[0.31926567696522273, -0.11368514170342028, 0.9897557051036597]"
25,25,1639136554479516513,2.3066306105545533,0.05402337108360866,0.01892537875336675,1.8278649532981184,-1.2303439583266949,0.6052717606441687,0.6641226914589344,"[-0.18150325183792965, 0.0444196467726924, 0.14560222076866866]","[0.018031105870023763, -0.05905588327095847, 0.42270680879472045]","[-0.021754470724948488, 0.15146759969810286, 0.47881967387884605]","[0.06519385365239885, 0.24020826928851596, 0.4152613315424211]","[0.03640565905758131, 0.2138459330630984, 0.6695682420249134]","[0.10895575833733655, 0.21783475623347132, 0.8594455319752219]","[0.18856800341637422, 0.1300652627423029, 0.6786980988740456]"
26,26,1639136554579500906,-1.7526941188350589,-0.2132469799629606,2.629935701592918,-0.2482123412715802,-2.8116846950101584,1.2106151829415237,2.046084837311952,"[-0.070510735791552, -0.06286339928139172, 0.2571278764191777]","[0.04315182341866863, 0.02631222852815316, 0.42668166029672516]","[-0.0763937540647074, 0.0843912818707676, 0.5494940573687702]","[0.18788376235512555, 0.07443945901704602, 0.8766286637948425]","[0.0903595319550482, -0.11490038675597311, 0.6819976629166449]","[0.24368752228191828, -0.342218629509012, 0.45636431278307776]","[0.3463390328856421, -0.2561078501400213, 0.5847239169178589]"
27,27,1639136554679621882,2.8883104661865686,-0.6968811226205028,-2.301557355929244,-1.136240642293608,-2.2101501553871694,-1.1646766900621108,-1.8769166602863523,"[0.055311876129993824, -0.02457334931196202, 0.06985542643364243]","[0.0015892000727348425, 0.07389744016866043, 0.3117263595818225]","[-0.17422014971158925, -0.0514623121694817, 0.38298484794008303]","[-0.016534621946042084, -0.018226761467498742, 0.8054680140188828]","[-0.00969935081882483, 0.03795674194236481, 0.8418203915074166]","[-0.06623354265772445, 0.2719651990020766, 0.8780119783773427]","[0.08594150851108409, 0.2208560771608131, 1.0372809413431423]"
28,28,1639136554779559044,0.4047919924474379,-0.6913970594074621,-1.022449469152487,-1.6335066772049542,0.09688663859175728,0.9391934526336104,0.8805502104439085,"[0.07146635883217614, -0.15131961465916283, 0.16184993631388406]","[-0.04237992449986841, -0.04938907458993912, 0.4808680219496799]","[0.13218770412889014, -0.1484939048628806, 0.44691959934501896]","[0.09386444699697208, -0.13067602127186845, 0.5590100692356587]","[0.5936128144738633, 0.010678361145911489, 0.7837613735702138]","[0.5829057107263756, 0.0801672648713129, 0.6828902934968532]","[0.5318105150281909, 0.20378394376647696, 0.7448678387721983]"
29,29,1639136554879618208,-0.12111806917846925,2.0581814155183404,-0.5957399247592035,-0.8278293079868166,0.4868335273099715,0.3978379408325208,1.9968292936579748,"[-0.010556924188843152, -0.09810614200195596, 0.10408356320133283]","[0.10486383113237943, 0.11329244551352638, 0.543778813958624]","[-0.20018439807358407, -0.13458249890987295, 0.5738530063047207]","[-0.09051085892919122, 0.06610736685051957, 0.6908591333376368]","[-0.001687702419494258, -0.17919150854195723, 0.6199540212124094]","[0.06218072923827243, -0.44617359294893844, 0.7222186750061312]","[-0.02480679646498868, -0.39898859473668213, 0.7548700730499371]"
30,30,1639136554979582086,0.2240081364506308,0.1847778250120484,-1.4026721658633892,0.4800444384158738,-0.4805793614038562,-1.7177436320080646,-0.505508135385031,"[-0.09345557960633136, 0.10319591672609203, 0.38551307314104144]","[0.14443095673605452, -0.08091679533311824, 0.1570143005803936]","[0.20128087075172987, 0.006540065101404608, 0.30787022308056505]","[0.36856665688736057, -0.007072692597750389, 0.07485382566279117]","[0.27191111260225465, -0.06158237849937044, 0.08604822633186356]","[0.2910724639772087, 0.019696214184499572, -0.20787115814022233]","[0.46966509251772465, -0.18424630931100783, -0.29293515753016147]"
31,31,1639136555079560231,-1.4748432808038383,0.17363163950931115,0.7217967419203881,-0.485986357872823,2.8321225103487486,-1.6173786518229705,0.4355873339713514,"[-0.04363382537897516, 0.13930449852689777, 0.18320263818274657]","[0.1307735817614248, 0.021513663823641015, 0.33989259743847344]","[0.008761378839243078, -0.22798820517644447, 0.5298709398780126]","[0.14488449277477844, 0.014877305719744695, 0.605858356163433]","[0.0945919836882701, 0.2911727877255711, 1.0187304929396412]","[-0.04874964766384485, 0.20046179082077953, 0.9936498465085969]","[0.010853379408573074, 0.24656295754675042, 1.0466483091418288]"
32,32,1639136555179503654,1.6296201220477855,-2.04013375081856,-2.3917796795515014,-1.324712483007409,0.2552829185861181,-1.533981516550821,2.0069065812354334,"[0.23717154088554243, -0.026156929098401088, 0.23629874529958095]","[-0.04631544094604281, -0.15606412197315822, 0.5410707048502948]","[0.044414563819164914, 0.01901133029900314, 0.50022861895923]","[0.1544016146952354, -0.06424637159944806, 0.629021944029699]","[-0.047497165087746235, -0.16011542697547984, 0.999815442308473]","[0.09966847587696967, -0.2617443256429889, 1.2817268135092852]","[0.2961084248244187, -0.15471989299001881, 1.145337914965771]"
33,33,1639136555279507688,0.7473447803064119,-1.9080785386300576,-0.6675736505829617,0.2467514667157995,2.7640912868304137,1.0469343657580437,2.713361524248324,"[0.0073007218624168285, -0.22783757550834727, 0.020710126653300243]","[0.005144563030621164, 0.13616282977195823, 0.21604612755354663]","[-0.035326076336303684, -0.2039569293860723, 0.3454593759456902]","[0.022337989920098476, -0.4886614806920567, 0.131172274959502]","[0.2492531601321782, -0.3631209778554388, -0.22849293672771362]","[0.07692684773811703, -0.3155190154858259, -0.06956170952774643]","[0.42236961530340744, -0.34541296992311643, -0.1846425660102068]"
34,34,1639136555379544612,2.2024718015715936,-0.9356563007145352,-1.9085942654456245,-0.08490388341916932,1.1029148458976592,1.6053964915604553,1.3982958924942357,"[0.08682857623878529, 0.19593324795161082, 0.20421904899678153]","[-0.15599974128158217, 0.10731524364132239, 0.32841431001509913]","[-0.1427287411522598, -0.07008512626201151, 0.21039403976402965]","[-0.26374501308381326, -0.23508696415669678, 0.05665461364733107]","[-0.4180725232743621, -0.35876630629519857, 0.0748806082918389]","[-0.6013583621234717, -0.4120962229848539, 0.049090083627506165]","[-0.7728487249607627, -0.44768377796053116, -0.011404155845090094]"
35,35,1639136555479598116,2.8954712244768612,1.8195749713498992,0.6075089398299998,-2.001380674952129,1.0047964974357084,0.5260662360056729,1.7005528770567768,"[0.10529033742197061, 0.07074756777561018, 0.2555374833205487]","[0.009748507476655174, 0.006193390743813588, 0.3852835254176795]","[0.17231304032447564, -0.07533762722782442, 0.5347903571629808]","[0.05434996493759928, -0.14101764588903065, 0.5886199150848382]","[0.309749076197401, -0.22840388403145637, 0.7042888725352355]","[0.5160231089281827, -0.48465944445031384, 0.6591019508367316]","[0.2917270565334954, -0.2995393993657448, 0.9684640107928]"
36,36,1639136555579517554,-1.5862656747906314,0.014820357047762744,-2.33052298011246,1.1122545211262542,2.31104815174908,-0.4535400287557319,-1.3127095474926365,"[-0.024637435513829534, -0.08634358294659439, 0.044048594948157244]","[0.06864667637374151, 0.14215136229997002, 0.31489130381553615]","[-0.023330665067240075, -0.038492543772258636, 0.2856118238990552]","[-0.3830490162896956, 0.20816037691310357, 0.355529745348376]","[-0.1956784602883644, -0.04421370466667797, 0.10980579739626138]","[-0.12414059824777526, -0.1733265321992526, 0.19395774275673022]","[-0.3610546634802612, -0.2326662632653007, -0.07605509340226271]"
37,37,1639136555679538199,-0.6679337731867627,-0.8025733066722005,2.319029978196362,1.5523519619872137,-1.976060473672167,1.6775987278445883,1.544989632946208,"[0.0457686034850765, 0.039984054957986306, 0.15163443191877604]","[-0.11801883148396589, 0.06526030693327073, 0.26209462735892947]","[-0.10375649615741642, -0.004583757641021464, 0.48550287271149384]","[0.13181718276385743, -0.11060946450186049, 0.8781568772761598]","[0.04603870979982702, -0.20549308071045158, 0.8582382415554215]","[0.11237941771228134, -0.40185050850669357, 0.8531874271032258]","[0.4353525961206745, -0.11007438190450361, 0.980724241450363]"
38,38,1639136555779521944,2.1006742742777837,1.6518000001105109,2.5523090152468257,-1.5790890457992264,0.14433570843230825,1.618802655357396,-1.5398581507713798,"[-0.09503948840736945, 0.03092532806264573, 0.10589516445815311]","[-0.011429290892856228, -0.08309796772774407, 0.27131717118422616]","[-0.045742855413433425, 0.16146879853956098, 0.46249393161612207]","[-0.4401043832810208, 0.1991310250697254, 0.5985881916668065]","[-0.36992838684916113, 0.15059785606522225, 0.8909246588428251]","[-0.23633572956900448, -0.07676420048014482, 0.7037857038816093]","[-0.24802943986678447, -0.11094110932309642, 0.9054149933648059]"
39,39,1639136555879554075,-0.9516969063865964,1.5009135065267467,-0.9792365735977804,1.6593266361418182,-0.3552053913917517,-0.518546107132916,-2.591000817612865,"[0.03998987117278818, -0.14859540911456906, 0.056096503391282485]","[0.08006220506010009, 0.08635771395329882, 0.17626121871130843]","[-0.1787969565447709, 0.06346198571162068, 0.1408119871631459]","[-0.190020398822548, 0.26652119861303825, 0.4425838983946472]","[-0.26848487417991956, 0.2711343052229277, 0.571386440215543]","[-0.37108413827060627, 0.23984913849357997, 0.48443146304005724]","[-0.4460926419787825, 0.3249418435240644, 0.7099878859179072]"
40,40,1639136555979511398,1.6803294932140207,-0.5093359136009799,-0.5426956673501021,-1.1388053745717914,-0.6514194328782326,1.9784574618787816,0.8128114892976814,"[0.21078006605411678, 0.0934478457389234, 0.11426837562867671]","[0.15788246542823137, -0.11169084961298373, 0.31846546575378754]","[-0.05456548191704444, -0.13998564505388297, 0.3237782587377668]","[0.2647712273704546, -0.40078262982540785, 0.41490801039777964]","[0.3013701007166286, -0.08568740062467631, 0.39246851491411017]","[0.37257537647315025, 0.057229819978870416, 0.6304872779467424]","[0.4649712451438878, -0.018377143251359234, 0.4777287653332617]"
41,41,1639136556079600032,2.1936735024614475,-0.39834149821296094,0.825257120401254,2.0171837242370985,-1.7947546988851235,-1.5238762981263363,-2.4819699318487234,"[-0.18487101189209174, 0.017661074920139474, 0.1608575137100633]","[-0.032383528477551056, 0.010224643696046809, 0.3119927797225022]","[-0.038695280336236065, -0.14119384566141374, 0.6120825607832749]","[-0.03448177205209268, -0.2160794423999475, 0.647636862115383]","[0.09557512448792223, 0.045102885643012056, 0.8439275246390021]","[0.23608635000241207, -0.12999358019743917, 0.9360476612085606]","[0.4121786418533142, -0.09970812669708591, 1.0261107211392284]"
42,42,1639136556179581216,-1.3270103064593282,0.2810992014657612,-2.7392832064154047,0.17235714413465342,-2.069168178624603,0.8950537141925472,-1.037191345250229,"[0.0053543621049248575, 0.01837125575030654, 0.2006580726415489]","[-0.010821501756991099, 0.09379421214934353, 0.3333329084903787]","[0.13393015680728343, -0.14682383986630138, 0.5420743180983781]","[0.04932129391593423, -0.11659220170229559, 0.7628162570502114]","[0.31752885974854966, -0.10397208965539471, 0.6025346553807716]","[0.34502969226746083, -0.12980074836723063, 0.3970509957111452]","[0.45581942661899155, -0.1626442198478672, 0.4469762054152214]"
43,43,1639136556279560309,-2.5024643990322417,-0.3920457407821798,1.7000437859219368,-1.1505853586903876,-0.3007791812905149,1.5847233148392363,1.4267641110790694,"[0.07593785048726143, -0.029138291206882716, 0.12487127678518162]","[0.14821901072750432, -0.1268711731056318, 0.29301107357615674]","[-0.23042670517871594, -0.1830774191837001, 0.5715184904639261]","[0.010475906014188924, -0.12626253421626224, 0.6050999619902834]","[-0.14322129788604576, -0.04985951601049121, 0.8441675985389833]","[0.09813017577462044, -0.3635345017802633, 1.089883577201452]","[0.29068368303339487, -0.24379574955764705, 1.078440358842535]"
44,44,1639136556379566736,-2.555789198761345,-1.3675793574525614,1.3698059339657331,-1.7032236255276716,-2.3937706001242973,1.1275172838110246,1.2360690501431109,"[0.010245731305534574, 0.03701722843185023, 0.2807587269059093]","[0.020936586678143014, 0.03264642724090067, 0.31558624553156195]","[0.2680383738152411, 0.10301967190969856, 0.4054889610829332]","[-0.019109599595809337, 0.06166251788896349, 0.8963709459236915]","[0.20574910900476118, -0.10986036483643781, 0.799441302556085]","[0.3486464681496802, 0.03031037462122671, 0.8788009695055634]","[0.3341818218488124, -0.13161625410386327, 0.7330353916003461]"
45,45,1639136556479552340,0.9916875346405124,0.8656664536212872,0.9726632135561974,-0.3526678672244625,-1.4581483331401033,0.9539962901853104,-2.8474522867708503,"[-0.04884028000170453, -0.12604927580107955, 0.08436855621726846]","[-0.16005443683587503, -0.09696250458967434, 0.13048295062418394]","[0.27217581602900115, 0.22409196618138677, 0.2774530796419107]","[0.18863029440886747, 0.34004123461948144, 0.40572419602431664]","[0.35375255666205596, 0.10576192925247502, 0.39863103446111214]","[0.3683847469003776, -0.05623839294978927, 0.37564402999033103]","[0.7000537899955477, -0.08248906464883288, 0.5031198583144204]"
46,46,1639136556579485980,-0.9465934568566714,-1.1724261519869748,0.5100672175856804,-2.0120641946030697,1.6985586284831498,-1.2355205960840585,-0.35885998934068075,"[-0.18083402768539603, 0.14195439591205758, 0.13131507619505414]","[0.0031935274061269977, -0.15803934434588213, 0.40200802566670674]","[-0.05165908731364277, 0.3021933038399956, 0.3617235234425709]","[0.17815732896469885, 0.23963162710136973, 0.5921453415724814]","[0.14501101739931516, 0.4561124910161556, 0.8276368027210906]","[0.058414824884488986, 0.6534990868946249, 0.9705569818370245]","[0.31261479785887314, 0.8346838204299007, 0.7960934251318486]"
47,47,1639136556679681245,2.0433479781411665,-0.64105302308163,-2.681199691682546,-1.3569014451996628,0.6024684423445508,0.2745186003990603,-0.2216766333570788,"[0.3392095711828848, 0.052477229424332285, 0.2277848794114912]","[-0.03961799406990934, -0.0721468984957265, 0.5100261952320804]","[-0.11583495401340684, 0.11635058068007798, 0.4954600150087921]","[-0.3038630117357281, 0.4050564998278566, 0.5626466915813916]","[-0.03173090032481293, 0.2566788526772085, 0.5914536752556547]","[0.005846854160395973, 0.22625557839653046, 0.6829547432843404]","[0.12353262029809245, 0.035820927075151124, 0.7802423995775065]"
48,48,1639136556779643711,1.4961296653730085,-1.782494444515965,1.263558379445739,-1.7930940179876456,-0.5109131651695735,-1.8868378557368508,0.7891346780863033,"[-0.09973076563921321, -0.05393309425649206, 0.3070408990364314]","[0.20100309422436116, -0.07819849292686228, 0.38035985031418945]","[0.10130097408863845, -0.09349576359102138, 0.5267555704869972]","[0.1246880624503753, -0.30769727223207655, 0.6500006419828791]","[0.186154260222809, -0.2977398153057616, 0.6445425699137555]","[0.2647790049311165, -0.5480043552210472, 0.3901736173469896]","[0.35744134582258613, -0.4833137331760742, 0.34588096800931467]"
49,49,1639136556879536005,-0.10525707323416622,0.04748001798525081,-2.6255312472261045,0.18527809049393484,1.6952230536796418,-1.4151212543933902,-2.9429772853671814,"[0.10171490922655586, 0.11788324680482701, 0.17779862560932227]","[-0.03128762645487465, 0.04154895382590519, 0.4046513228483864]","[0.2196512326828421, -0.20784578850282695, 0.37892500167623044]","[0.019865617617645062, -0.3787641954387528, 0.13636401107792576]","[-0.2813723123848794, -0.42417210040866976, 0.17815595547444427]","[-0.47872152906168564, -0.2781918344168496, 0.24220634119171933]","[-0.31321121999170776, -0.3599228964078366, 0.4830161633577361]"
50,50,1639136556979628356,1.0928277754922004,1.2774959840091515,-2.4904920687739978,-0.3225602330860107,-2.222128952721992,-1.5114215646654483,1.8520705402062367,"[0.10791905197768054, 0.010196835607804985, 0.21706745716878012]","[-0.016408627726600896, -0.10509483574056222, 0.35888471486745654]","[-0.15803013665726998, -0.018233812411878148, 0.5418896352112949]","[0.00517736538778461, -0.048719542221864094, 0.6894897301134653]","[0.26269679432297266, -0.11367017696353005, 0.85799221815616]","[-0.01851697086188133, -0.04352258059296851, 1.1026670699066419]","[0.2039250830572847, 0.03751599208228, 1.1686036023057589]"
51,51,1639136557079528528,-0.11790675392000027,0.0896883245688791,-0.38894753462494025,1.9056160083456308,-1.2293962502824292,1.0142582026848492,-2.6495385451327333,"[0.05533196396305187, -0.004394807670520864, 0.0692460065417498]","[0.12646563308445247, -0.07958827160662958, 0.2826903956130289]","[0.07369013930322277, 0.16415096043988997, 0.33497607193167994]","[0.16384529471093381, 0.31995394028912627, 0.5403862102106666]","[0.26024411493556415, 0.522386950872219, 0.42966337301406987]","[0.3783601258888727, 0.46628776077228995, 0.5270225725005775]","[0.4259979054964061, 0.677061583719102, 0.7714696772671711]"
52,52,1639136557179548594,-0.050265379184737835,-0.15206595022214842,-1.6598883916834206,-1.878453623116933,1.7228006198583483,0.8880231488536414,-2.3712207573915847,"[0.057321897322968746, 0.02641770496055683, 0.2073624853885597]","[-0.06103582827447403, 0.03676942558561948, 0.427089692872262]","[-0.03608219945940376, -0.03870978741530814, 0.5605514943850987]","[-0.001633927635404972, -0.09887251221970911, 0.7631107568652251]","[-0.12247394565029496, 0.02063947433053584, 0.6683737331617481]","[-0.34490685605683286, 0.20446433010141699, 0.552811461360968]","[-0.5225135828539698, 0.024565185780681356, 0.6150214351401054]"
53,53,1639136557279493635,2.048215148850255,-0.6016643227706344,-2.348563107350188,1.6752716555495977,2.6811916663365776,0.27668185716684857,-0.9601095165971616,"[0.02280776099798069, -0.01751310688612173, 0.2275374928113541]","[0.07208470930048134, -0.10434636227386332, 0.2877551793842761]","[-0.007142597995797664, 0.013451609176321759, 0.4093117349180615]","[0.12633169476722955, -0.05217222053862315, 0.5705360819095221]","[0.0167676070590229, -0.1244683530640494, 0.6605335287516167]","[-0.23680599733909885, -0.4372105793716772, 0.49506199729757416]","[-0.06516589564155159, -0.5674935646981013, 0.6894857898800137]"
54,54,1639136557379498732,-2.3916803643199165,-0.947147480697488,2.410748923239216,-1.4456994249193913,-1.7223994661955564,-0.06675234094167083,2.643676115997541,"[-0.060784137913256764, -0.0044391723442186335, 0.13971889331680395]","[0.08369730405769567, -0.23341193107443192, 0.17338751757907436]","[-0.05042262149668951, -0.11252859509357863, 0.4262986657984023]","[0.2913899251776997, -0.22046338840511145, 0.6689651594400587]","[-0.025807504465213627, 0.008284724181445213, 0.6348340568737152]","[-0.21329976818585134, -0.1436350545856569, 0.8835579054017683]","[-0.28567943293915415, 0.019844782311169165, 0.9682900506897362]"
55,55,1639136557479619067,1.3686892094895886,1.9633987793877783,-0.5812107845059593,0.1685801528723947,1.9939244455081693,0.3589941997163746,-2.4468965433656105,"[0.02727720491916908, 0.14462835861589093, 0.1517021943468445]","[-0.15216840601397014, -0.09146211206667157, 0.4277899119667173]","[0.1660998269800899, 0.16314413547798357, 0.4353723725664671]","[0.28239808187032706, 0.24067181988629371, 0.6201640557911526]","[0.42121794444900273, 0.24182219992152285, 0.3921280630080208]","[0.4855113097349578, 0.26759805856922564, 0.28402072618547236]","[0.4647852272288938, 0.31194641173025317, 0.11976743212484886]"
56,56,1639136557579632712,-0.09217127679307248,1.3680544418521907,1.4047894684052022,-0.7378858492542146,-1.129988444851479,1.3511286125555682,-0.4747853390617931,"[-0.007684238863610649, 0.09724158784721575, 0.046501008714378025]","[0.16501151030016414, -0.13965662591775893, 0.26050194753741923]","[0.10105120939202547, 0.3596921736152446, 0.11108004367696922]","[0.1401653793954838, 0.43995706546845237, 0.11194712680248271]","[0.1743167441191241, 0.6788669308336182, 0.32631545620260605]","[0.20829633401000736, 0.7067568511767892, 0.004776993977730987]","[0.33082685061180983, 0.8944832409249761, 0.06844667823655622]"
57,57,1639136557679525355,-0.7832079707940092,0.877999384500161,-2.0069781981371992,-1.5994115794396595,-1.1106368494036285,-1.875205213061769,-0.4640217435364109,"[-0.003234446636591991, -0.08985318758003413, 0.1411975559894326]","[-0.1579445080621643, 0.07729412747864464, 0.2737228295160884]","[0.19129887153733888, 0.006787995459248474, 0.35472585040979365]","[0.46278328426714005, -0.08547176619248825, 0.4101288382426878]","[0.7052822497355118, 0.3369408467308483, 0.42680982841003245]","[0.8277727465182896, 0.060485835650845865, 0.5078121660907237]","[0.8132527568451737, 0.09623886688098746, 0.4345209615613158]"
58,58,1639136557779608699,-1.4783364527445084,-1.546492945112854,0.4454717322228441,0.8182999896185739,-2.4300767026485524,0.4184483404841917,0.08795593145509484,"[0.015525035805700516, -0.0279583335672935, 0.31350539454976467]","[-0.1817774601943874, -0.19668421468545985, 0.35866660428325137]","[0.15483409054849656, -0.19049461775406445, 0.41982772200769025]","[0.28809522562530937, -0.18271330483334558, 0.7585991289578167]","[-0.12956025542652094, -0.251878472536626, 0.6346356496640528]","[-0.2481127436911126, -0.4705197329953723, 0.8537130378815592]","[0.03455648089795972, -0.665386909850668, 0.8943558272996985]"
59,59,1639136557879484573,-1.3560145844569809,0.3929408567561219,2.12014267060476,-1.6541963687268333,2.3544666358842985,0.640741477777953,2.601639484823505,"[0.008730041810810081, -0.043642962286284885, 0.09082772780697336]","[0.12184812722578056, -0.1865652310356384, 0.2456989630209097]","[0.12001150347023817, 0.18909298009824477, 0.34900528453479573]","[0.03880564198043533, 0.38669775634469145, 0.3595205584508612]","[-0.1266137288184939, 0.514591901883004, 0.2547591301040608]","[-0.21589553163260078, 0.6788055986969652, 0.03521874126200668]","[-0.22721025115198765, 0.7826291927842699, 0.037452563514187805]"
60,60,1639136557979536966,-1.1780436191409556,-1.4288699743436046,-1.2627743659986854,1.3630185336359582,0.933437747330292,1.1229454722866041,2.821135532850436,"[-0.15894477390200837, 0.01057320617876845, 0.1983146746772536]","[0.020878850306911924, -0.10447294477761214, 0.46254285242470755]","[0.12583957988899747, -0.15179097877719389, 0.566257552520565]","[0.08688015512275611, -0.22727862172103291, 0.6072187271965618]","[0.10578287485036673, -0.12563975400792493, 0.5021306727928071]","[0.2115651857433713, 0.18160543141159977, 0.6898770350207286]","[0.34904999124560093, 0.1302100642644991, 0.6919356901275708]"
61,61,1639136558079526665,-1.093219961616586,0.6805537645750008,-2.6081800184992834,0.10038456388618933,-1.90255117541894,-0.8795196434835231,-1.3862617775246433,"[-0.12175074140031156, 0.004125570356254171, 0.20660023745925005]","[-0.057370532196639956, -0.07055811443703308, 0.3282617557336886]","[-0.023531174660217875, 0.006428236475916171, 0.23828002481654442]","[-0.10079715924143626, 0.3325281890454126, 0.25643722981089156]","[0.007893237622444598, 0.661132387987441, 0.2609497935257658]","[-0.010833698742296227, 0.6290759539772944, 0.11596708496089966]","[-0.021732909801552985, 0.7034054504931107, 0.37977614034023327]"
62,62,1639136558179612915,-1.982153888284288,0.6304252247272499,2.7567755098347773,1.7054314097022265,0.3952664191022071,1.6083645570040352,-0.99381019677595,"[-0.019729362518394016, 0.002086054477460705, 0.16112870194116388]","[-0.01651889766229169, -0.10128410965120022, 0.44239714880259884]","[0.029666136785431146, -0.3978786434850563, 0.6423665197809327]","[0.03229793364278989, -0.09101525853322542, 0.6827912685545616]","[0.1545749598057879, -0.3244263634261686, 0.7442918774117938]","[0.41911773479717596, -0.4459778076211631, 0.764969908484579]","[0.1366625886273329, -0.5503136871462938, 0.9259233305239792]"
63,63,1639136558279587039,0.683085349700796,2.0188268797228983,-2.6530509308228067,-1.807361061551821,0.6513281076313655,1.1266279222585052,0.5823602714128149,"[-0.03424475843693862, 0.0612627746442752, 0.137977054386789]","[-0.1526962994654386, -0.13972554361011494, 0.17736504500339453]","[-0.15121933420171862, -0.2680024764719674, 0.46866516277240206]","[-0.08069153564437231, -0.05539608918501257, 0.769324904644708]","[-0.2711393877003998, -0.29965594509060256, 0.6388109324994731]","[-0.15218012553867521, -0.4666815391349579, 0.37952171672245655]","[-0.4520980584669987, -0.46305432705416616, 0.5070405047013615]"
64,64,1639136558379574266,-1.1152680376801467,0.7204416960990963,2.300239190537279,0.22542161252211604,1.1833131125665175,0.346101726417273,-1.4145539394486786,"[0.11806297561617743, 0.04824857510328819, 0.2232831134940632]","[-0.05772190203740799, 0.008610089461380413, 0.2394293251658795]","[0.32493438985424117, 0.1413351064642302, 0.31253914786341086]","[0.28524544242398486, 0.08222826456193802, 0.24332828295252643]","[0.28893834076124697, 0.11181684815322158, 0.36179589105310517]","[0.2951885230221908, 0.13007249974655344, 0.4420431047703875]","[0.38288626105533347, 0.11432092240103123, 0.45255756527250823]"
65,65,1639136558479545630,-2.383518485161201,1.7990470723146004,2.8499119387745635,0.3132891655970509,1.2869200167129695,-1.6824351627273315,0.0061045916785866785,"[-0.029014938672472346, -0.06219724040845909, 0.19336620704424765]","[0.12353625927913237, -0.03189893519191671, 0.3515320280424642]","[0.01925052807721498, -0.10199731234414805, 0.6145967791334437]","[0.01625196473957169, -0.23593134742849836, 0.5279938939014539]","[0.12764568986590294, -0.33064411986052766, 0.749185398874843]","[0.21605777652013877, -0.4809498394686138, 1.0030054016464605]","[-0.04182728860286619, -0.7068847790590347, 1.110199992274215]"
66,66,1639136558579495213,2.694720263310248,-0.35664211676646596,2.257237529721914,0.4200723752398723,2.5601016627049646,1.4291914067762699,-1.182821488985926,"[-0.09369961302303481, -0.004761180531246714, 0.14965223125646776]","[0.05789236749353706, -0.03351747643046352, 0.3643264807312758]","[-0.15829390636763396, -0.054184766797300984, 0.4049937844100084]","[-0.4420045578354119, -0.2784717537320786, 0.24753313281254377]","[-0.36651053115070414, -0.5151625158144415, 0.19227716084964902]","[-0.6939374986606291, -0.585528903018016, 0.23789817760206225]","[-0.378859058875953, -0.5741913542205834, -0.012874455580489053]"
67,67,1639136558679571905,2.5112852163723223,-1.2292022399495426,-1.1420881283016495,0.3588104156361567,0.1396358337835535,-0.3035762369420334,-1.756584197053528,"[0.016816988569741377, 0.05190671362867941, -0.004305287241587713]","[0.005122768656820507, -0.038254884232636004, 0.45671825916488795]","[0.02202814577369138, -0.0842140889118598, 0.4882720187240149]","[0.19287240425495839, 0.04612872332692262, 0.6790174431631765]","[0.0939411468507228, -0.20028031850521705, 0.8848511839769247]","[0.30454117453047846, 0.13379122169559382, 0.9174166073972296]","[0.3160998574299616, 0.11050371807764785, 1.1203722108963885]"
68,68,1639136558779457002,0.21447783337201493,0.4655461162567822,1.5078736366991419,1.359027453779687,1.2749595524105115,-1.4168856032928243,-0.5048434445027916,"[0.08359091019682975, 0.04829371030893677, 0.1572735344544957]","[-0.08912325206612144, 0.00997317060780503, 0.35718700895428596]","[0.08612808056138095, -0.19461071339771982, 0.5084534111664989]","[0.3142365538584217, -0.19972117290994323, 0.5299745724389883]","[0.4569391996316697, -0.21802740311091542, 0.2997320815414167]","[0.5398421462726706, -0.658195363026894, 0.5943568603817723]","[0.4417491936270314, -0.6288474986572685, 0.4973751011049774]"
69,69,1639136558879563430,2.175172691328546,1.1881991410973516,-0.8880833988976296,0.8264654391597319,1.7489606677422045,0.40464116951267615,1.944645409784696,"[0.01991566299771096, 0.031997588417356754, 0.08743269728052326]","[-0.04854292089024128, -0.025447260518498854, 0.5896488724463107]","[0.24499400253818898, 0.01438900223233756, 0.5509532682092508]","[0.1335909489418649, -0.019940718167352947, 0.5515257472978]","[0.1196001760564642, -0.1504394691477591, 0.6910591783831315]","[0.3522084933601792, -0.27391448099776744, 0.6487713379203304]","[0.41298224748177825, -0.26635322314961696, 0.646012605811283]"
70,70,1639136558979527651,-2.5917008796620573,0.33140396218803136,0.32129314849429,-0.18113673900457367,-2.1007037805794395,-1.2616187603004412,2.22294982171238,"[-0.10803469512966801, 0.05101877647852326, 0.22545289701917026]","[-0.05156393890581147, -0.14825275079633346, 0.3452968611898583]","[0.03554574697824393, 0.32620528121415304, 0.40707471972535486]","[-0.13008340367244164, 0.2954164511686054, 0.4355387187370532]","[-0.22907482204842752, 0.22943604458086386, 0.768165326172022]","[-0.46326342620979505, 0.35119887088168766, 0.6903165525078967]","[-0.6055109619049586, 0.37945212966377584, 0.8482478069942918]"
71,71,1639136559079625884,-0.8480076993615202,-0.11262183242326418,0.747655280362959,1.7980766768414853,2.7316272605864405,2.0085328127477067,1.7603440001048294,"[-0.047042783677226835, -0.014957361651497705, 0.13783014032895635]","[-0.03511925364871165, -0.028061909766664936, 0.32705753172530155]","[0.013231758408889648, -0.021283258961673754, 0.5250268188946605]","[0.03165186262936505, -0.15846569429047513, 0.8791017058589436]","[-0.1979341397903873, -0.23916985915694022, 0.996901857802539]","[-0.2293022883724822, -0.049438548838255686, 0.8212917883719195]","[-0.2777699294503987, -0.2434510872203701, 1.2106499417784138]"
72,72,1639136559179546851,-0.2121915018004996,-1.1251549966761178,-1.7837054879336152,1.5030741707288002,0.6034760901848101,-0.8737764408485291,-0.08207246388699563,"[0.2290409418556415, -0.11880332984809219, 0.03233027660898785]","[-0.050574062264315926, 0.09402302012080099, 0.49968918623176445]","[-0.11251852266967505, 0.13894403917216952, 0.4494012279009712]","[0.04978974604467799, -0.028554053056181958, 0.6818080549107208]","[-0.1656020124267322, -0.0011572670660569967, 0.6658314649548956]","[-0.278600903646795, 0.08190381394852991, 0.6260946727715018]","[-0.43532479658187534, 0.07199247110167495, 0.6452901431879684]"
73,73,1639136559279522042,2.0293214443869885,1.0878783255280555,-0.5189716582722603,-1.0463487562146894,-1.1457253603395583,0.7683461037554458,-0.8818812521857002,"[-0.12872742464769465, 0.040444526154066275, 0.07081946580196788]","[0.044602358712897805, -0.03518012620951287, 0.4190401850780805]","[-0.27173557483825894, -0.05867732981448086, 0.4705005462675931]","[-0.2570262152086734, 0.1459121683650794, 0.42016295278966315]","[-0.39548043626673457, 0.49727366735094125, 0.5032245348305878]","[-0.19670590539754945, 0.2947895978363798, 0.5487632232259215]","[-0.08539211711786049, 0.4247033648115224, 0.41258270980433426]"
74,74,1639136559379599320,-1.612963085015271,0.5245653530629846,1.8189595085682064,-0.1911677564369565,1.1407941203889815,1.7620713707197333,-0.2362230223267429,"[0.1562191489134306, -0.13943926780533789, 0.11080937668275664]","[-0.010186004662122572, 0.02960593982377543, 0.2648936212927394]","[-0.0661531685455407, -0.04988130660187293, 0.5555092879148893]","[-0.02016686198675685, 0.4429414742499401, 0.47374192178854907]","[-0.13569434356100288, 0.3654136629122291, 0.42898136921399244]","[-0.1300283672267031, 0.8029941752031444, 0.4106350633981758]","[0.018388137085292133, 0.8693776509901403, 0.46549319509324083]"
75,75,1639136559479521113,-2.4950845966985407,1.700282080730902,0.07377047115275248,-1.0639556439101896,0.4317932459178877,-0.6579404616259183,0.8650094234013914,"[0.006645918017895969, -0.10497342587980751, 0.2050527317619607]","[0.16902746311537908, -0.08403330921487343, 0.29261909333915315]","[-0.08666303022623985, -0.08357879490496622, 0.5355629392853041]","[0.20173165138390267, -0.34633351539263724, 0.7442497339581695]","[-0.07521829578357048, -0.2329223569507189, 0.8371264997772928]","[-0.017391527868574452, -0.35654210896304217, 1.0159274293148637]","[0.0636328034948258, -0.40552362948991716, 0.7593458462773798]"
76,76,1639136559579509398,-1.7736478654837184,0.09429545439375486,1.3364749090604922,-1.8192920065284703,0.4930040566585552,-1.4108440292338038,1.6176295164659051,"[0.10395163160754489, 0.0740014128913916, 0.14353596977348607]","[-0.03168584250279701, -0.18650438090648516, 0.46543832774017596]","[-0.1549240084132369, -0.12037810996174611, 0.13789640400944841]","[-0.18555672963181674, -0.29217070768807774, -0.018496625940878475]","[-0.32270834653600183, -0.2446059272268798, 0.15428583669272045]","[-0.47977254674497183, -0.18007382446740655, -0.13047322612244158]","[-0.4761456298080037, -0.5872677095615206, -0.2575013939985111]"
77,77,1639136559679503932,2.827883288322373,-1.8605016907623533,-2.29118072145362,-0.989906359932096,-1.3662334270328411,1.264012147277218,-0.18259849045191912,"[0.14177063745602264, 0.03527763854619762, 0.3264001917971734]","[-0.02887749928886632, 0.01858333062763866, 0.3194079506976872]","[-0.03270035214333767, -0.13845152919472165, 0.6007158676590806]","[0.20866739244608584, 0.00695992435529099, 0.8425574844113998]","[0.23705904476454545, -0.11320436529420627, 0.5489781083369863]","[0.2733080412967035, -0.30983902508097966, 0.6211987711785655]","[0.33283970731071283, -0.13493522207834524, 0.7708790749900143]"
78,78,1639136559779499117,-2.5708305310164064,-0.3194082839289334,2.743320378770504,1.450970736761175,-1.303652571424044,0.2841239860183329,0.8572560416301438,"[-0.08612412047612927, -0.007836451619376994, 0.09802508992867753]","[0.0046823806917385075, 0.08684427604729898, 0.5300835616776589]","[0.17819537822731754, -0.1244392059434353, 0.4303892282977061]","[0.5003286763831566, -0.18900372444942112, 0.33309168370060926]","[0.42336435601972683, 0.049157471666087596, 0.13303227988065325]","[0.708470672147055, 0.10015529803117607, -0.10236414906751308]","[0.5241199081138522, -0.07686547739897308, 0.05010536572477636]"
79,79,1639136559879607287,0.4674751361708118,-1.7810642256476727,-0.2270963995010313,-1.2141770802164882,-2.8410827843526825,1.7948725679280115,0.5735533296324458,"[-0.182299719177619, 0.14107430478854882, 0.23558108610777553]","[-0.018910550056176235, -0.048976857640326985, 0.3510917758786663]","[0.02203685582011404, 0.05180765959058138, 0.4590438041238012]","[0.10033136189163824, -0.015237452456991096, 0.6681516983012719]","[-0.1066974354036241, -0.005651617443710018, 0.8245404620087812]","[-0.21087777388178083, 0.23869048438280951, 0.8153543241026449]","[-0.43343748382494374, -0.10159501794413558, 1.0128945826966946]"
80,80,1639136559979580004,-0.6506922725981847,-1.1788266833053238,-0.5962781161324844,0.2664807497897872,-0.3892570807259403,-1.4059096757746483,1.7800809393961,"[-0.03919749982064011, -0.020491113156115747, -0.017455158505980783]","[-0.08967199700121523, 0.05086274182610584, 0.4734576150026355]","[-0.37205138000782534, -0.043340614479595, 0.25271059851334454]","[-0.30494573087574306, -0.0028396133967481807, 0.25698557340139944]","[-0.3430329582334139, -0.2531624620093131, 0.34635199940232625]","[-0.5919411067538473, -0.2602018567535727, 0.5252620770845352]","[-0.5447951717062204, -0.5908098785599434, 0.6797329679846963]"
81,81,1639136560079481194,2.649807357192324,-1.8992056268347288,0.19713090661190727,-0.4685577935549856,2.3289934043703657,-0.014442432211049015,-0.7659691016447154,"[-0.14858934278262595, -0.08280455729481251, 0.08239177497358006]","[0.16801925310063434, 0.020872964009070197, 0.2791715892476611]","[-0.22486239995097174, 0.07284317320438216, 0.38227623008841777]","[-0.23947301147109434, 0.37098985396914763, 0.5276171250269961]","[-0.6509405340247657, 0.46785685247866926, 0.5830778292787465]","[-0.5694096837622991, 0.42987526073199844, 0.5094535809439222]","[-0.5739953539198324, 0.70733043677357, 0.5455884099962854]"
82,82,1639136560179689152,-1.5537258366125055,0.8898463538725219,2.9088686015599605,1.253679334320298,-0.36640542331694137,1.8723647703606368,-2.5473620405948467,"[0.018320281315140234, 0.022044248134421324, -0.0012347513372077956]","[-0.04534179035305819, 0.024542017262947885, 0.40793648945109934]","[0.062427844790634276, 0.01914998463035711, 0.32086249740141526]","[0.2209670044904663, -0.3468200191173257, 0.3173455540682336]","[0.5055605523850779, -0.1438320341268285, 0.2684715248370591]","[0.8130837817906071, -0.3104506984491213, 0.2819632177874032]","[0.8634169578640394, -0.5078078836231894, 0.27658288635400746]"
83,83,1639136560279471875,0.5751320148828043,1.1843606515592051,-1.3321683805371969,-0.028246865826519137,-2.178314158241744,1.6339871658901957,2.194588861761647,"[0.003932673894932428, -0.08033168210350142, 0.2998226546870256]","[-0.14904233747203696, -0.05715575593877603, 0.1065875416440786]","[0.014942019812666546, -0.2615799098786019, 0.3320305412041914]","[0.01680775029502858, -0.24012371261279225, 0.6069063740012782]","[-0.2051239259403734, -0.5263315200743556, 0.28718912136026964]","[-0.040871702887518374, -0.6876247385271594, 0.3937148112452463]","[0.02514083572514074, -0.600756431088871, 0.3773645907380237]"
84,84,1639136560379649380,-1.3125861192040649,-1.7933341588567833,0.4843175029204621,0.04049487063971125,-1.0677112709875372,0.4307921840342584,0.5234436426018791,"[0.040407757319380934, -0.0041825176417833445, 0.3095438959181138]","[-0.05909590397180473, 0.04568737292057293, 0.3030120478731886]","[0.24538077950918052, -0.04752874069553968, 0.4430360496293625]","[0.21815032912745203, 0.4041506303067858, 0.39366459329542436]","[0.4405165701121221, 0.36307005430641254, 0.7575772189359524]","[0.6172435428571829, 0.40191832645979597, 0.6985309858661556]","[0.6541590174769637, 0.42524954776608886, 0.7075315483805118]"
85,85,1639136560479448251,2.8652117654660443,1.8304632502691789,-1.5135389401243111,1.4214137681798475,0.6728572497165626,-0.07203257244823646,-2.5551306122304025,"[0.14496653550506683, -0.11792594640873917, 0.24043076542472305]","[-0.027662561127855725, 0.03629460945817172, 0.3007098593382366]","[-0.12062837511958872, 0.2874061348573787, 0.3304131134463839]","[-0.08052503224975448, 0.45444968605328334, 0.3522851339026328]","[-0.18338328731876746, 0.6096166662003163, 0.23278531390207177]","[-0.34932302632502443, 0.6723534508603024, -0.01873667862130335]","[-0.3210792932435742, 0.8852947065507076, -0.01912545839369101]"
86,86,1639136560579600170,-1.703842125309206,1.9535214092446425,1.5048177336041615,1.2347068876064289,1.9471501321267968,0.8249407724269711,-2.6893921810384365,"[0.22554192949918483, -0.057317013257968175, 0.11794231663085683]","[0.09855012672215137, 0.0020868203593880693, 0.2609397347982358]","[-0.2704960274312801, 0.09841751112611402, 0.1688570398386125]","[-0.2961608082531955, 0.17275081881249954, 0.20746561691632906]","[-0.5250421920589436, -0.0022496592983733132, 0.3273713996932127]","[-0.49000769796188154, -0.27953345290368836, 0.12626457647459666]","[-0.6075515226084398, -0.35410296333196883, 0.16308050472762345]"
87,87,1639136560679522586,0.3895489712870677,-1.2434133606635882,-0.4578318664133243,0.7246952430824307,-1.250043819044714,1.6731665942694145,0.5723147172512175,"[0.0868613771831005, -0.061831363576556164, 0.08058931823962592]","[-0.02394844815100423, -0.11011389467873765, 0.08972128066868174]","[-0.07309593340265638, -0.10390372436237602, 0.4020188481077075]","[-0.07244796036073621, -0.39781353268861785, 0.11029441863073108]","[-0.1468927558157016, -0.3462782425274413, 0.3002267750668169]","[-0.35781934735745496, -0.6264194032869745, 0.03599481264086424]","[-0.4272118516487079, -0.4648976647968926, 0.019786210482915234]"
88,88,1639136560779552555,1.8304114112999768,0.6665340907785327,-2.323631067945123,0.4833140924204944,0.6356457032731431,-0.4111796913878541,-1.1427452527371478,"[0.07687428580761549, -0.05651008601459906, -0.08015547027804942]","[0.01703285326419034, 0.033224327055528705, 0.37810083539369854]","[-0.15404221715413985, 0.07626670277408844, 0.2088523035374793]","[-0.31779375907865104, -0.20268120077660298, 0.396968617815494]","[-0.3661244015804387, -0.1284393215858645, 0.30974524147147087]","[-0.7838959294299337, -0.07793601304969036, 0.31270680800726164]","[-0.6912887611028325, -0.3298808304331827, 0.1789802282148813]"
89,89,1639136560879533582,1.0823477679676619,-0.7701611203614753,-2.836708905902375,-0.16114847647416594,0.7214073509596717,1.1561141648082052,-1.1659678068457533,"[0.06272784620989952, 0.10728141397286706, 0.3084624774939107]","[0.061760496528049685, -0.034163840690616495, 0.18882342649120812]","[-0.055988466332347414, 0.1882269636138783, 0.5210815794884956]","[-0.1421384517645477, 0.18858178780064197, 0.6794493791775155]","[-0.07175421075634364, 0.41322433988898355, 0.7828553485271652]","[-0.44146784409453244, 0.6185718452196596, 0.9888768843439372]","[-0.2399650862540631, 0.45409325211668805, 0.9248302899265026]"
90,90,1639136560979704469,-2.7558733067099155,0.8020981030644823,-1.3871795952914174,2.0209702286078355,1.9222575615381632,1.6081194945415782,-1.6596808718740157,"[-0.02923708254548616, -0.031237340906132463, 0.28562160574332063]","[0.012917572210375653, 0.04446457623245423, 0.40664839639771094]","[-0.2098723098756286, -0.08768946626597077, 0.572085740672841]","[0.04182626495248673, -0.001611420039913547, 0.7721172362055535]","[-0.32066851270579194, -0.295052537578142, 0.8153097900348344]","[-0.30496224053325455, -0.4447390802455734, 0.8588641074920179]","[-0.10647532077603455, -0.491853629913679, 0.9368404038016911]"
91,91,1639136561079505426,-0.5828900474686844,1.7649948206140165,2.624986854467397,0.37167315833852177,2.0666693557511584,-1.0586423252228,0.16455860441471204,"[-0.16094795507790832, -0.07686997429623188, 0.16863468389408354]","[-0.094662632144746, -0.1693300483099764, 0.3066332400744125]","[-0.2206316994249396, 0.09660790049780812, 0.4710806496135551]","[-0.2740934572470198, -0.031155944128522878, 0.5793009308853645]","[-0.30438422869539056, -0.3031141185101213, 0.5892881639441481]","[-0.041292996369888195, -0.27736592366798585, 0.5076598217928419]","[0.05562359303643924, -0.36693710915740557, 0.6066949891244554]"
92,92,1639136561179563861,-2.17515910015956,0.7836653079355158,0.0958147075192608,1.9648546693929787,2.0809314989181362,0.7343057107737412,-2.165377725972121,"[0.009617636194718499, 0.11236232302273415, 0.06372798982630344]","[-0.016847562263428827, 0.005104305019799422, 0.2564298769618114]","[0.20281835086051309, -0.14548854550456572, 0.36940602135451733]","[0.32567024486498075, -0.39314018532316797, 0.421184650044763]","[0.4827159442788426, -0.2777798602486263, 0.0835533611632529]","[0.7251424815931826, -0.49693745838571324, 0.24194185904883872]","[0.8417377448301784, -0.45832736581198896, -0.11537880620363669]"
93,93,1639136561279592903,2.0119084158982266,1.4760200756543034,1.420472984523832,0.7905112095206892,2.3333257887404093,-1.4321527874316184,2.6606975449073818,"[0.017613323697669034, -0.06672052264498284, 0.20791314948048914]","[0.012941265375124897, 0.10832753708957182, 0.2977083605856265]","[0.02774121366896977, -0.13910667684216904, 0.7131256452609948]","[-0.1053916759508928, -0.207054295829971, 0.584453098926746]","[-0.004724574716040292, -0.05942012811620383, 0.9113589088912921]","[-0.008245325167648872, 0.15408209278937673, 0.9840809722611736]","[0.06337929937364983, 0.23848193467035744, 0.6843011241035719]"
94,94,1639136561379483186,0.6157216549372935,0.7897359155470034,1.4219690695328144,-0.8208207896048567,-2.355737197893927,-1.7955023037208542,-2.869740537754837,"[0.09055362643994042, -0.03869091764949918, 0.09171574747388764]","[-0.05188104049743594, 0.1128218156877286, 0.2937977824682171]","[-0.1193948913458764, 0.05722870440046196, 0.3188332773687924]","[-0.16707890045507412, 0.39129674789497493, 0.5105023872398644]","[-0.05084334602560498, 0.5734608639050349, 0.520247703422595]","[0.009325643983005047, 0.7910516456740607, 0.283064711416262]","[-0.15200912643194944, 0.9448048079656017, 0.37907549982371047]"
95,95,1639136561479668321,2.431612006889092,1.9265176108684567,2.872246362636925,-1.0119028214616823,-1.4001513013164453,-0.022700846115429663,0.8906582648060497,"[-0.09987556705691983, 0.11631162226440664, 0.05984957763964076]","[0.0036631655355609744, 0.1147215698140711, 0.3535557454278469]","[0.11341227865205887, 0.03599059488435906, 0.4386890752608843]","[0.2203634437423356, 0.03528556497209415, 0.6653537191087638]","[0.12996618162786824, 0.3510957194612433, 0.7433412220488017]","[0.35769925668720576, 0.4962659408228588, 1.0627358949823447]","[0.17211164967254708, 0.5512558564365894, 0.9516557479883376]"
96,96,1639136561579529269,2.5675732647745906,0.939358793297584,0.8769443455303878,1.8659980591247791,-2.580514813815588,1.9842358276926928,1.1897435608021223,"[0.050960895554231216, 0.16163924746043234, 0.35142553805030163]","[0.03129787737202197, -0.07816917718835543, 0.27679465032892514]","[-0.2502989499113728, 0.07972224122946098, 0.40420448636982587]","[-0.37171265907131545, 0.2882717760828688, 0.3246339644080827]","[-0.365114165117674, 0.38760676441186814, 0.24587743009048124]","[-0.45726776745057673, 0.5062863574846506, 0.34205028997337505]","[-0.66152681244057, 0.4044626202900491, 0.4893870759203078]"
97,97,1639136561679635500,-2.507250559197051,-0.9209924891889398,0.09279229031140313,-1.6691093584743593,0.8668571776133169,-0.4185105928206769,-2.118851091758189,"[-0.04783322233723962, -0.03302454428880421, 0.20607111593758667]","[-0.1517357909742805, 0.0008301818102894034, 0.20429568338295795]","[-0.12906309203680866, 0.1913416586368314, 0.47985504988907735]","[-0.23120309243821177, 0.09548408115150225, 0.5358223279520633]","[-0.03386947320534725, 0.22662689154797633, 0.7586652963130031]","[0.13686223902987038, 0.34242257157479783, 0.6880505240537689]","[0.09476819495692056, 0.22765962432865008, 0.632693270681091]"
98,98,1639136561779640255,-1.3344026173273271,-0.4174898459228642,0.03896063710795738,-1.5831246526843252,1.57346398634929,0.3881900521796573,2.3459278934972896,"[0.12973899943698416, -0.11938338097962356, 0.09848053986302333]","[0.13331082967350974, -0.018473786190719675, 0.35000541840403165]","[0.30120548587057283, -0.06728953961364256, 0.43898252666962223]","[0.15078376851784758, 0.23598468273802292, 0.4923225967326152]","[-0.18538587999589562, -0.012318517929878744, 0.7263425336854974]","[-0.06735374566103174, 0.15234382771058982, 0.9103107108783876]","[0.06502813441690364, 0.05568847804882314, 1.1257913056179274]"
99,99,1639136561879563702,1.0544510705967909,-0.052446688713517535,-1.3161783205667,1.3047005712550286,1.7315192834152715,1.1457941113071626,-2.9859729921535285,"[0.0964795051491279, -0.015616034408409717, 0.03222133594064992]","[0.15295244163700508, 0.003725171151065117, 0.5461949274069053]","[0.02210299968795152, -0.014353345233137443, 0.5208906348826674]","[-0.05241192181180169, 0.2774678293245306, 0.7148372723656273]","[-0.02611401745046182, -0.0826941208039127, 0.7918468476591944]","[-0.10320318234898908, -0.23108430651739842, 0.8398745539997051]","[0.08450271595515317, -0.3329285507912633, 0.6604376525121699]"
100,100,1639136561979559905,2.004516106815101,0.7404127951289965,-1.6582783226938511,1.0976873925345971,1.4882847268464758,1.1619396641339428,-2.7443601304876712,"[0.008272587089673279, 0.05832877640006884, 0.12112018600191633]","[0.023135424856603214, -0.12726572820167062, 0.25972452629999676]","[0.02870233857870113, -0.06273011291261033, 0.4506599067195122]","[-0.08602388420468983, -0.01003276759618482, 0.8121041736165122]","[-0.14025539262675574, -0.06849497608472783, 0.9315845638692427]","[-0.3379204010730038, -0.09824952986738228, 0.7520696305446416]","[-0.30792190011232656, 0.12016233150635562, 0.7565221969531102]"
101,101,1639136562079651044,-2.710553112312424,1.3714244639952735,-0.09124325854831428,-0.08344513851166369,-0.4217346676545284,-1.7480552579849178,2.484564555990319,"[0.003989331084035401, 0.02208127329376493, 0.0866332915878224]","[0.11148231609587458, -0.01163273243472552, 0.27778455252327755]","[-0.17958717027252968, 0.06376131316354962, 0.49559682586621134]","[-0.13756915961361244, 0.3408252930153788, 0.5012968479681464]","[-0.3199521176000595, 0.37587751105115835, 0.7244384066005958]","[-0.5270299533028728, 0.333419540415367, 0.8503068915353152]","[-0.3805138096661469, 0.24235635365934657, 0.5935122876116786]"
102,102,1639136562179601392,0.19712244213784305,1.6230548654753711,0.5472745936618466,0.9678550676026321,-0.9107540455072748,0.4223244782468787,-2.10004805020014,"[-0.08551178124734761, -0.006957407523346084, 0.1903427733032997]","[-0.05213170254532974, 0.07015758661554965, 0.3113316800100085]","[-0.07615109457593923, 0.05198161684973608, 0.2664719907324837]","[-0.20491665875097897, -0.151949579550601, 0.30584094282718394]","[-0.3006599553601932, -0.18630846254974215, 0.4770641726205211]","[-0.689298322790709, -0.25970597108587623, 0.6116389946783722]","[-0.7716844864398857, -0.3341776336177715, 0.5939243409893561]"
103,103,1639136562279664553,0.6787446713009961,-1.990008771022095,0.1280999014760109,-1.6289040619495332,0.2438715021891276,1.7150529149136906,2.7157294889870003,"[-0.029273329967629488, 0.04745570535585644, 0.1592594537927375]","[0.030128486804868067, 0.013733812369791777, 0.4234655313128681]","[0.3017283607183448, 0.3109397179428746, 0.42671742730233986]","[0.17540433841044387, -0.02679202804087251, 0.2524981094399784]","[0.752739952367123, 0.03612607382262536, 0.49149099630678245]","[0.6952762448776346, -0.11441245053873254, 0.7324951126813293]","[0.728225458818282, -0.15146818544640414, 0.6141461368583534]"
104,104,1639136562379497951,0.7802887082461698,0.9955627900955636,1.0514676707978463,-0.0927320144668271,-1.0159519293512624,-0.9116368599472492,1.716667370940112,"[0.0011871747051184014, -0.23221904322606607, 0.10626335627585184]","[-0.043233262781643626, -0.030926892806940234, 0.33364545425768016]","[-0.061944240850730525, -0.16524018895322617, 0.15337424641880737]","[-0.18285109437456626, -0.3206594916381914, 0.010426894418592625]","[-0.3389507166692845, -0.33155434717724863, 0.3381331575008548]","[-0.38627721890759986, -0.1536371580672409, 0.6285380894629136]","[-0.42103259418809724, -0.18425134302326662, 0.5052907782969311]"
105,105,1639136562479486954,-0.6207250607079584,-0.2909311650400952,0.8675543551529068,-1.3479432622982708,2.823240691215998,1.2749009192279268,0.3733929567084786,"[-0.0456205319037529, 0.033173312439146875, 0.2261740440730303]","[-0.02934108412883224, 0.13300843913323365, 0.5242726642662057]","[0.023001259570727184, 0.16554728048283138, 0.37329784649827213]","[0.07370602745973623, 0.17461721311295408, 0.4118615270979663]","[0.5552639998023492, 0.3784767876150592, 0.6125950020293358]","[0.30649483639804315, 0.35075760032857756, 0.8123452113069028]","[0.36307030066235174, 0.36144320572087635, 0.7944934372390764]"
106,106,1639136562579533989,2.7329528267080696,1.6301097248150411,-0.8095317399363569,1.6518406343576628,-1.4589657690436368,0.2653513203936999,1.4270750933258711,"[0.14573077305148183, 0.02261829545852022, 0.23860186898071414]","[0.13236556302441221, -0.12099385910275569, 0.3109851227131621]","[0.04500529052624533, 0.08425345979206768, 0.7270846930515068]","[0.08393604346146785, 0.11249675167923875, 0.6085453784748003]","[0.07758683159881435, 0.27223651746281663, 0.8260928750423051]","[0.1768042978174903, 0.10666694644864066, 0.8509541337092562]","[0.2048423584222466, 0.05358876366945736, 1.0010500345337312]"
107,107,1639136562679512138,0.5243190872284562,-1.1559837591426203,-0.3619132764314981,-1.5720532192816057,1.0987677711696962,2.01998302559334,2.766697675093655,"[-0.01755772523996801, 0.010378507633067649, 0.08860105017208916]","[0.08262379337135989, 0.05750367317201105, 0.32880236812223324]","[-0.23180193957394357, 0.11953890339777726, 0.49681530205748986]","[-0.4311754687217963, 0.16943664697525906, 0.18194356103139014]","[-0.5893877066140161, -0.11969228666605143, 0.4538982798438852]","[-0.4033495478142577, -0.33301291259952953, 0.5994820164818354]","[-0.5985716668191834, -0.06430541184267984, 0.5653997052747061]"
108,108,1639136562779588172,-1.294981152311287,-0.28094697253852496,1.6907307436697905,0.5804440173577623,1.186970748723454,-0.8926639375542063,-1.9310543289326216,"[-0.03556978916557287, 0.055305918898058165, 0.05094561474986689]","[0.04209992801349818, 0.08956376572414715, 0.23934887615514053]","[0.061581048889597034, -0.19012360781933968, 0.5464998925253729]","[-0.43134193076509875, -0.37967417093581823, 0.5222450016331341]","[-0.45045014495381375, -0.16524650202857305, 0.7655458038628569]","[-0.04972345881883314, -0.184273138093616, 0.7989500220638256]","[-0.12748395964837345, -0.13160078897683436, 0.6183177884975071]"
109,109,1639136562879527153,-1.3721517541875736,0.295893903839171,2.2554928681467143,-1.9300134363330617,2.2549705272487555,0.4340397712514124,-0.4217833895384091,"[0.07252151811337991, 0.10644595472813399, 0.2578436815005207]","[-0.025052017416649197, 0.24944605912390114, 0.32364948403253935]","[0.004016896837085948, 0.29538755778044984, 0.32404794477145815]","[0.11569530891926644, -0.08611462736646339, 0.7155115121435487]","[-0.08386597797077412, 0.0034671695515237494, 1.0065803713860266]","[-0.1636215111700297, 0.19137753267761315, 0.8851225931001738]","[-0.237774160739355, 0.18344307073911564, 1.194762057401142]"
110,110,1639136562979522629,-1.258108328358227,-0.6171934604716558,-2.2565653118846107,-1.9662971228195207,0.9574683297179098,-0.4738799977221393,-0.06411596133433006,"[-0.08151753224338798, -0.0659965462376264, 0.16925792518847638]","[0.19227846549208397, -0.2112379795306529, 0.5594902998181781]","[0.1367583770458255, -0.27200871618557476, 0.4731241075199688]","[-0.13949288623667602, -0.12487962695623418, 0.9088678261001607]","[0.2256134048213549, 0.07174674033622346, 0.7652883882937609]","[0.28082263256661677, 0.2077124770473593, 0.5738453718756774]","[0.2415788931387307, 0.16259045795840094, 0.6678864586098147]"
111,111,1639136563079595249,-1.230185984005987,0.5757475406673183,-2.11199219023662,-0.3710306486368471,2.8951564677490262,1.65362062028144,1.1788345819895336,"[0.08393009292587213, -0.07069443925890662, 0.2608439745262244]","[-0.16086950885028833, 0.014759802577675658, 0.4203752529183145]","[-0.06585503068198725, 0.054490118648535195, 0.5127757020920799]","[-0.026337302415860693, 0.34125078556334676, 0.8270169366068241]","[-0.20230214976553898, 0.1703980626468161, 0.38444990928445777]","[-0.19300208670619115, 0.23212165381543384, 0.34973435576073153]","[-0.49907264633772064, 0.31241728817184233, 0.4204614952723781]"
112,112,1639136563179596021,2.6566626393553845,-1.2786185956897596,0.8452844007489264,0.8588566814811718,-2.06386132363377,1.1093905792146308,0.4642305259638753,"[-0.023890243695251043, -0.04015386010035393, 0.040707314317988935]","[0.13218758611169193, 0.0849705927600709, 0.34415308992013965]","[0.10388535550610448, 0.026054121564297678, 0.5688062661162396]","[0.07816939107204321, -0.06078812883455742, 0.7169427838470298]","[0.052666949426737025, -0.30012774662900876, 0.9142304033281343]","[-0.06888733517037054, -0.4349827218363812, 0.9136666203333457]","[0.03645861400030758, -0.38439429670565123, 1.0480471931437974]"
113,113,1639136563279669231,-2.706971092540685,0.8622862647057681,2.6152815671181817,-1.5248433465912687,1.7684365508419062,-0.5440747702919133,-1.3656716063891483,"[-0.02686604061860284, -0.02843168115892571, 0.09199561513787727]","[-0.07506490615285363, -0.04927552309382935, 0.48255876659104596]","[0.2816782163831902, -0.12736226491477207, 0.2664102696821784]","[0.2477370814914766, -0.2824791608624585, 0.3834860131108515]","[0.6920367825525207, -0.1762988081361366, 0.4752684281252404]","[0.7096547763446494, -0.18350701952558424, 0.3575976174007768]","[0.803774432569292, 0.05240340087374529, 0.4107887035970465]"
114,114,1639136563379643786,1.658145921072109,0.797187691495187,-1.5872918489538517,0.6889403218173005,0.7911153056341047,0.7590168478067838,-0.6346069645770402,"[-0.10257610005035392, 0.0318068920711921, 0.1636392089190153]","[0.047954040092075774, -0.13225844802661446, 0.27098275165682706]","[-0.09121557890334905, -0.16908094734181073, 0.386311635414471]","[-0.41933519744335357, -0.2710279349751855, 0.8402887202969718]","[-0.2529080813655923, -0.12018632367973878, 0.6484224046872347]","[-0.04500088989094718, -0.22352323324704293, 0.9181433453123584]","[-0.04569693085035089, -0.22691208936213564, 0.9133242694372481]"
115,115,1639136563479534105,-1.2213896285974328,0.11351692900806133,1.60392979710103,0.8409226704913881,2.5175570037928967,0.6196378384743255,-1.6555920365943446,"[0.053554539594885944, -0.1629980814807227, 0.04485813909027657]","[-0.012802468429609701, 0.03116445460395538, 0.5479206097844089]","[-0.016394253929532504, 0.2842282008951289, 0.5162760960902424]","[0.04350362459007724, 0.25195252131166607, 0.8410459332653664]","[-0.19739421227198042, 0.17489034394755, 0.6055876536985809]","[0.015101501527263805, 0.361109699471715, 0.8602560178218138]","[-0.31482646678956655, 0.6343283060366786, 0.9010248530776118]"
116,116,1639136563579605708,0.7227537774408619,-1.7133337171700498,0.951353041637138,-0.7674359114909572,-1.6108915012396832,-1.603141998664943,-0.8721470255966439,"[0.048336098736186606, -0.0949520379765617, 0.08424424868681633]","[-0.021275497212881165, 0.12683365442739047, 0.22853919716863258]","[0.2217844704101729, -0.020088927408231344, 0.4774754306281689]","[-0.0252793211744078, -0.006501894736531795, 0.6606593806790436]","[-0.18689552352304756, -0.23478480071160635, 0.894168529256437]","[-0.27456117651296363, -0.1047178160833447, 0.8676396357381955]","[-0.36041183019306133, -0.370742333906218, 1.0478235940601142]"
117,117,1639136563679566506,-0.8897691661487439,-1.171595170757732,-0.22182381161774867,1.9442754056731952,1.3197182245918673,-1.7936630504289826,-0.057637703691402635,"[0.09026011158802322, 0.10822240246249054, 0.09305119690501937]","[-0.03417077036228302, -0.022729583230302462, 0.38041185115536524]","[-0.1689747296474898, -0.12493864872874558, 0.27466546766648103]","[-0.4468766204577948, -0.25064032992418683, 0.20721787864175317]","[-0.5940821211613643, -0.28318214364293226, 0.3349480422363773]","[-0.597107944283954, -0.14410579856791136, 0.21375222232099286]","[-0.7372783079998061, -0.23204599613583057, 0.2536358391010571]"
118,118,1639136563779479793,-0.6457595483521827,-0.9993076548924462,-0.5306218991856021,1.1383638073062028,-0.7051347852915875,1.8608285814446155,-1.684165177995936,"[-0.12846985115500048, -0.11661601106406135, 0.13889771032217682]","[-0.027512703086881224, -0.004861779200141603, 0.40012136774647233]","[-0.2385942889482442, 0.1512671466674757, 0.5461607859572156]","[-0.27066497579914933, 0.3476581797816546, 0.5164268542038382]","[-0.18476155192600127, 0.15205125099181507, 0.25035877679714175]","[-0.31524499960864877, 0.3498021681361467, 0.07411533951725013]","[-0.22058089734400252, 0.4494057641197272, 0.09970302222489008]"
119,119,1639136563879881969,-0.8810996723394444,0.11671921351990068,0.19240552093370453,1.6876199502065,-0.6252373676517697,-0.7723096040912347,-2.512307629943436,"[0.013059974581338844, 0.09646091177687642, 0.2709041120035316]","[-0.03137430926887834, 0.006271895889540271, 0.35263650219086723]","[-0.19141439008847794, -0.14508117896481962, 0.5888496617788616]","[-0.25410208047748994, 0.28587523712748797, 0.6225593144902603]","[-0.5067205776660199, 0.3040869027118049, 0.4939508680649304]","[-0.5745666369612279, 0.42935166734585534, 0.4515701934984408]","[-0.4363468429112254, 0.42777393638165395, 0.3560320954368887]"
120,120,1639136563979646932,1.8433785052602096,0.4995251940783674,1.4291455152421535,-0.06379288976517294,0.2285219033399221,0.2762617413126547,2.440842299815277,"[0.09417365719951362, -0.17235772630942017, 0.18818179012634745]","[0.12763681205395594, 0.06593107270144696, 0.32062405748461]","[-0.01016920792519721, -0.10389980342043954, 0.5747552750480894]","[0.002545067721904614, -0.002842109066262394, 0.5481263212120254]","[-0.13798331879830736, 0.021202323458779704, 0.7321213683857851]","[-0.2755840274417497, 0.13996282272751998, 0.8449141430123245]","[-0.27703115047655985, 0.23670718408758623, 0.7273694940563353]"
121,121,1639136564079528268,0.2697296469866912,0.07006908153922707,0.1786249955428474,0.4918972445549907,-2.7751921048956985,1.8718875642778263,0.8195341914406553,"[0.06517604927527064, 0.08262061826729292, 0.30190942627357176]","[-0.12153896599102479, 0.13651778088517982, 0.33713789919918086]","[0.17313352249890324, 0.15320064319499388, 0.4875468505525096]","[-0.16954390738559277, 0.17514191671787116, 0.5351580548722028]","[-0.21201410071571886, 0.2693369981163224, 0.8362888513641874]","[-0.10784982778806987, 0.22062232398247014, 0.9711071265458581]","[-0.22064969292959, 0.47023027375763793, 0.9380481199586481]"
122,122,1639136564179534565,0.4904206951912316,0.1710211971727995,-1.7605169455529484,0.7247315794689939,-2.2840668713758285,-1.5119303637998152,1.902117050861793,"[0.03842975225979857, -0.04541929630811818, 0.07378913517088612]","[0.09021570211443476, 0.023044763665517096, 0.2943132500321345]","[-0.16840176967925152, 0.04194406618762913, 0.5336374560155539]","[0.04373510405614796, -0.1809468432314139, 0.7138814818787601]","[-0.19158943084572055, 0.0013818818416817258, 0.8242096952093094]","[-0.0866725852167165, 0.07405578647528485, 1.0345927139115945]","[-0.196621292348219, -0.05666889032499196, 0.920405070650066]"
123,123,1639136564279528031,-0.04966800502329116,0.5331206032390471,0.8137890741715283,0.5132102778065186,2.6498879679442875,1.6013215633787268,-2.2084150170486403,"[0.089215438882304, -0.04826254649949526, 0.03477707607332542]","[-0.06965618121905197, 0.03087606306993186, 0.4141805597459742]","[0.1095686730965417, 0.09303868554814254, 0.45143048119312146]","[0.07303240733700757, 0.18305159445568514, 0.8632401994509942]","[0.014270996373670693, 0.40962075160625555, 0.7931158455700791]","[0.015632123554273666, 0.30516858352326404, 0.9752447440561065]","[0.08373037881030157, 0.31391760688835846, 1.1291426955776593]"
124,124,1639136564379565862,0.6111168209223488,-1.7908021283945923,0.011222654584921003,-1.1458462967011291,-0.6465991214186513,1.2804309549668362,0.7041876182999798,"[0.18290863273392752, -0.012367526744989463, 0.1589982807859867]","[-0.025531618659899, 0.05459699913500197, 0.2981416367241721]","[0.03915962775274118, 0.003077657739965503, 0.6798432788648583]","[0.119234060372683, -0.010097446401864543, 0.7473113646636287]","[0.13180893415613412, -0.030905728706953683, 0.8451978038109484]","[0.2592753380097761, -0.11319588842889003, 0.9391789834538689]","[0.1401092280612088, -0.20682133923234433, 1.0517013780591813]"
125,125,1639136564479535722,2.774426663210324,-0.13142595998004605,0.18650616445851398,1.1667323797741678,-0.9274718136433946,0.9771707964151184,-1.7524033939587025,"[0.023224378355184136, -0.07620567169801752, 0.2605838235497353]","[-0.04662879218780517, 0.045304754929102006, 0.40435013348418203]","[-0.0864496795835116, -0.13605523329143007, 0.29756852154526]","[-0.3876793850166985, -0.2529030759845695, 0.37430171456224276]","[-0.5105871710809164, -0.348836752130333, 0.47119234627941736]","[-0.5399637075808568, -0.3955198874420726, 0.6844377032897826]","[-0.30282542496841447, -0.5856729121142591, 0.5552079704147364]"
126,126,1639136564579515987,-2.631867564156255,-0.6491605868736476,1.43083453486584,1.4939379559310453,0.6630157621678534,1.8908757035533617,2.1220844166720947,"[-0.055363918301085835, 0.09614684873468296, 0.3125582481266621]","[-0.08509943558357333, -0.04313951761069101, 0.5340397657927577]","[0.2185877385027738, -0.11758700710838234, 0.5964250584854746]","[-0.08953418976778661, -0.05208613048448169, 0.76447942044198]","[0.24018473928654951, -0.22880382965374707, 0.7578933700961471]","[0.45589367370001327, -0.004196542951488712, 0.8250453244951058]","[0.49945032674109174, 0.04193395564228122, 0.7666586294221117]"
127,127,1639136564679591034,2.69369449371754,-1.949497438818884,0.2535763622446283,-0.057053130706205664,0.7809332184625649,0.005839203087158129,2.7759475238308613,"[0.16956779206243527, 0.0962215636548552, 0.07193118569375631]","[-0.056065053899918255, -0.07482866725015788, 0.3745818849606213]","[-0.03562002580314316, -0.005672330992294222, 0.561841084366873]","[0.08858499743000975, -0.02659155802630786, 0.7799768244234766]","[0.1280092110050055, 0.18486970594911423, 0.527975582067344]","[0.10148101090751772, 0.5595388166336515, 0.6454662927556722]","[0.20943536229041088, 0.3837294648248867, 0.5643181526272991]"
128,128,1639136564779682159,-1.9367287481567528,-1.4198315582062624,-1.7237939335748356,1.940176144079936,-0.4831204602009902,1.0827617309252702,-1.0301206245895842,"[0.053365041195779055, -0.024742888069752163, 0.1991498625484112]","[-0.08175348341560204, -0.12733878335781862, 0.17730571498112502]","[0.03374240463071307, 0.07872172403938307, 0.2961516484025696]","[0.31580968893723715, -0.05329786956019597, 0.18736575387763318]","[0.4764039801234275, -0.2485328665985804, 0.09374368576415695]","[0.7094294496723407, -0.33432393618113804, 0.19168458304955582]","[0.8143299239640747, -0.4274135265186148, 0.12150027978200886]"
129,129,1639136564879504400,0.4429408794169909,-0.5962733849562327,-1.6106065871186748,-1.3627291573429123,-2.74347520861774,-0.32575393572887945,1.7298262549382453,"[0.06367741474738696, 0.20858586692772463, 0.24208248826165535]","[0.2077940384204487, -0.05210352001456414, 0.3541754609410334]","[0.14311212986596406, 0.2763842737362726, 0.45426378303339515]","[-0.000984941989666227, 0.49362680501826806, 0.49728474704311554]","[0.3333529335247688, 0.1645768976588855, 0.3148050545346197]","[0.32031025692325543, 0.0484828491432966, 0.45612893848094144]","[0.2495096840960373, 0.1450410287141496, 0.32709799855836025]"
130,130,1639136564979539165,1.3056393538783009,0.2784858168293143,1.3295235544879929,-0.3220327990123475,-2.0352958140760795,-0.17903878344423596,-1.1411407030850371,"[0.026790870494749094, 0.05370065281500404, 0.05700835641763932]","[0.08674082244646904, 0.021517415126635558, 0.38567240404282677]","[-0.19240227422646816, -0.10144398982789778, 0.3543913816290719]","[-0.29400783027580124, 0.010771838395021605, 0.8249154790362376]","[-0.18040957632531612, -0.34352805636041767, 0.7855190647004033]","[-0.15131154840683808, -0.5568968749673451, 0.952181771085758]","[-0.24800875464422067, -0.39934985742065354, 0.7917798989402407]"
131,131,1639136565079541235,-2.1302167879440166,-0.4101108165083571,1.8663210830660364,1.0624961697869315,-2.319424851871969,-0.6375219223307829,1.6395153896347527,"[-0.08657906356379148, 0.006861975658154196, 0.21297804900703993]","[-0.11393206125991387, 0.11894132852130207, 0.3118205515582514]","[0.07476359920437683, 0.15771338701223625, 0.675064650882332]","[-0.016707849717081467, 0.2038449403103656, 0.5254399337895415]","[-0.01570086465087563, 0.3165271138559943, 0.9916597039325812]","[-0.025614930992742736, 0.1579874619212751, 1.2424854453341934]","[-0.08391730642132317, 0.2151701718464693, 1.0543688137541554]"
132,132,1639136565179639334,1.6442116513705265,-0.1888251426310852,-2.3144298848047797,0.07339794481355888,-1.0605050499923083,1.7804286241945708,-1.0427343200667891,"[0.014267371246792305, 0.03001751937767391, 0.1649256716265891]","[-0.059331911884349914, 0.030187342470690232, 0.2339055579539806]","[0.23594202337020548, 0.04211013721971277, 0.44349162015025534]","[0.14954533384516755, 0.3441011610037392, 0.7004911408549626]","[-0.00698148988783788, 0.12260977466379847, 0.7077833632614619]","[-0.2620715687844156, 0.22924544951239226, 0.957898205278378]","[-0.4277662649666502, 0.4260242646692036, 0.9632327525359038]"
133,133,1639136565279535239,-0.9585369991249424,-0.3090308299203983,-2.9061632984194365,-0.9470521462251392,-1.2089392781478123,0.8680709012980872,-0.7869522846634385,"[0.2726315957141751, 0.1250199005315846, 0.13953983599764622]","[-0.05167738448572928, -0.17163053108225595, 0.412680324120242]","[-0.07537947610846732, -0.3022042183337995, 0.5745649014413894]","[0.015358872939609742, -0.03859309545296213, 0.6660885519359048]","[-0.10725614212902435, -0.1363598896526225, 0.9201568132143632]","[0.048727376496438435, -0.1735883210815083, 1.0676048301537349]","[-0.07666751033612104, -0.2282875000310698, 1.162832808329424]"
134,134,1639136565379587814,0.5178473359437552,-1.3774829342158723,0.15743144740184922,-0.8846739090698008,-2.4040495227576866,0.6371691367103951,1.398153076665848,"[0.040189748604484155, 0.025826858114604268, 0.17031611866929214]","[0.0057654377599755365, 0.059895419692933105, 0.3462062537880647]","[-0.019703007556273258, 0.23711921248399628, 0.4530704384600798]","[0.06357452050206049, 0.21673400350650052, 0.776812012914835]","[-0.17343880384998067, 0.199244436551938, 0.8432290973576085]","[-0.1415052209656351, 0.47177080507288993, 1.029271403916908]","[-0.6004554950609124, 0.2841812479465464, 0.966142833885144]"
135,135,1639136565479635702,-2.094463419823846,-1.1277453546075176,2.5380796493239743,0.16700154983144788,-0.0992233647773202,-0.5581845217041987,2.395363852034895,"[-0.07999414088936306, 0.07723488400229668, 0.23942301105002814]","[-0.11472136139254972, -0.03250692324264258, 0.31309059359044494]","[-0.1484238978520278, -0.1248147249489667, 0.08504167912590926]","[-0.3285775720692642, -0.14209980799814473, 0.3660727193229778]","[-0.5405661302279199, -0.303285616839149, 0.5997029772893646]","[-0.5792885261174724, -0.2185077056701971, 0.6899444373092642]","[-0.5664038134876519, -0.25034857984961595, 0.558133833557122]"
136,136,1639136565579692627,2.4904316100756843,-1.3403755226193868,0.4061531652847834,-0.8430016599239323,-2.0650573165129984,0.4712151845284378,0.6001198694382097,"[0.10819396770612494, -0.04814219408709889, 0.06557729959568759]","[0.053946238321034914, -0.03371706581173458, 0.42674835526708765]","[-0.012083020793879962, 0.1560237961384852, 0.4369609631520514]","[0.16880589358814538, 0.33284656940724877, 0.4258133146071192]","[0.17753738014519585, 0.5838971865327035, 0.4331469404315773]","[0.3732180396890752, 0.7008674656887093, 0.8288606470971158]","[0.23225962950464135, 0.9247649501926386, 0.7248580390630885]"
137,137,1639136565679594740,0.5120968700753292,1.8162831885010664,-1.7930910161274531,-0.11272066871595032,-0.15773896661000994,-1.2329309848863583,-2.1657544387629946,"[0.06545082447942556, -0.021517729466990418, 0.20839557800190242]","[0.09921162396227705, 0.05915773869329628, 0.30859279475770246]","[0.1584986717714847, -0.042338539274774115, 0.1580927466229797]","[0.41116332303000713, -0.29266454760554855, 0.417654462521321]","[0.31551740818024204, -0.38624014268388995, 0.6504928970985255]","[0.5474666111929851, -0.6710529077868683, 0.6214490580752428]","[0.4117072183769556, -0.3581305771439954, 0.6033331298296432]"
138,138,1639136565779580747,0.9882879108846256,0.8718360945580849,1.7615037873968402,1.3418369820187972,-0.34259904537900354,1.616041018750972,0.03625414757777223,"[0.031532986041808826, -0.08856965484902303, 0.1296646673612506]","[-0.1615297236114014, 0.06592813711826721, 0.4826330285984015]","[0.21260641120755078, 0.08929814724533093, 0.50779605049624]","[0.34582302800453996, 0.16823134650650495, 0.21573640504552583]","[0.5478344934688214, 0.26487896601320626, 0.3243914920258695]","[0.7045640060037429, 0.38003671187028093, 0.14451728832610777]","[0.5725381491777245, 0.45467931710027365, 0.056189444759550095]"
139,139,1639136565879506759,1.2939581376612197,0.5628607244915438,2.456864030986607,-1.9455249649743969,1.3690345786247282,0.8297478081841927,-2.6758614783053742,"[-0.06905143155759189, 0.11448649415261264, 0.26924962778402994]","[0.024026113426588256, 0.009455176089134232, 0.2220157093288285]","[0.18456206728054525, 0.21884548798933912, 0.48872143647537025]","[0.09352200239858967, 0.22199577648877916, 0.5270170291078199]","[0.3824475713339015, 0.1770499550388984, 0.550349703285795]","[0.6112519579811407, 0.09467677742475862, 0.49113068174101454]","[0.47989723852151517, 0.26105875826137087, 0.5549368354514137]"
140,140,1639136565979580996,-2.759366013937858,-0.4207013380665625,0.7249448727401657,0.9699486208758552,0.6011796100729541,0.0075024778207106735,0.5216842681727054,"[-0.029201657144469248, -0.06336004081793016, 0.23230958836654447]","[-0.09780947363757331, 0.1250632112686991, 0.4510409465031734]","[-0.08171310058690963, 0.05061872362690848, 0.40508325021223]","[0.08610693982654312, 0.25862094803574304, 0.7753323586394697]","[-0.21228279183978455, 0.35354720106778925, 0.8915479270380331]","[-0.42977686583441876, 0.10454159717190133, 0.7353567336161755]","[-0.19041663914856227, -0.20341861798048794, 0.7643148582614586]"
141,141,1639136566079520013,-0.2849286818960257,-1.9352233062850541,-0.7420545573858699,-1.9256679944345318,-1.1762925155855564,1.4451939332549095,1.209210180537926,"[-0.26420312933458673, 0.1316397535226174, 0.12493502460695247]","[-0.11260470426262435, -0.21850625209168273, 0.3886278711211273]","[-0.11130181875073046, 0.11458803991793161, 0.4421194271535726]","[0.1628604209972986, 0.2143457450821331, 0.678554468249776]","[0.35900784805635944, 0.2958861029167369, 0.9374589400475327]","[0.3590870292652883, 0.30942209921363745, 0.931116042690129]","[0.4064798887502316, 0.55491566687317, 0.9735609234948737]"
142,142,1639136566179532566,-0.2109727069838913,-1.5407357691738417,-1.5857432973097518,1.8112784058336597,-1.207912761136221,0.6906206122313572,-0.8965612308923725,"[-0.018060826996493192, 0.24298339573655767, 0.20493610363018946]","[0.00825495491635362, -0.133493779656739, 0.2640402701262774]","[-0.3090075635427707, -0.06034169614390901, 0.2530697538660045]","[-0.43432119446112805, -0.00955136485050738, 0.08934099102678228]","[-0.344482987430383, -0.16504608213265967, 0.2688379903796851]","[-0.5034515213071702, -0.10019684873258583, 0.5803034691465758]","[-0.41789382431718125, -0.3572619010458665, 0.5111715191169897]"
143,143,1639136566279780853,2.332555964476648,-1.5895636908023771,2.6038783329394053,-1.4051703106252051,-0.7218683129688865,0.5294559296725563,1.045221942931128,"[-0.10440181160413396, 0.03823223982486254, 0.24868609455389548]","[-0.020547626403621875, 0.021568170496632278, 0.36663693109633055]","[-0.19597510274167776, 0.1729664928026046, 0.34191768215170637]","[-0.18837616921754352, 0.24957641775115563, 0.17873674535965065]","[-0.31211172390006564, 0.26608569021876216, 0.39914905242908755]","[-0.1198748905210526, 0.42821420948557637, 0.39219567515995013]","[-0.08944449911723049, 0.36037908517197237, 0.2237196166476476]"
144,144,1639136566379539913,2.489712239385204,0.11150925935895416,-1.835276308042366,1.5960942336450137,-2.0338131178000403,-0.9187293562231584,-1.3210109662595564,"[0.17117269289182657, 0.024294750364689366, 0.27602095774484225]","[0.05461338821933114, -0.18256957350541447, 0.15226382938650135]","[0.12440130564794413, -0.12482462594701282, 0.2606245722848939]","[-0.005614935824711231, -0.2820005700824351, 0.27864579738883793]","[0.22240895982182968, -0.16899386310806708, 0.11130182478607817]","[0.2162024149021765, -0.7667666368526744, 0.17913643679509056]","[-0.07440762030257767, -0.3486296356191682, 0.09187519628158425]"
145,145,1639136566479641430,0.08664408354988806,1.2511323013728672,-0.6133640671604983,-2.0235250885739364,0.12250117697975725,-1.0806779272013751,0.4442556769939357,"[0.09059144899685259, -0.0806231588056663, 0.19495556845570278]","[-0.0529287067190429, 0.007836177677959907, 0.3186755489865767]","[-0.07322293371369026, 0.08361755565453083, 0.4699882286495153]","[-0.05905119607749394, -0.1200948639941575, 0.7020809500969915]","[-0.12513077338030648, 0.04747657662064225, 0.5367319220014868]","[-0.3041218550310962, -0.18063409815741593, 0.6379732483511866]","[-0.543419025288687, -0.08405846104965839, 0.9814262281431335]"
146,146,1639136566579484733,0.3524084657604329,0.5469934014320263,-2.0482251618228005,1.3843314179958033,1.7482665980575691,0.019310682739108742,2.7078044309392326,"[0.03415653447058289, 0.036438618994754236, 0.19586288102652813]","[0.03712052959111759, 0.12997585903387934, 0.4934316195182737]","[0.20206570075109523, 0.21020284237383663, 0.3458705004342686]","[0.2521020729998402, 0.13453483675516248, 0.6316627805942739]","[0.383000942797472, -0.025760039419000083, 0.34899781085112713]","[0.41807788582725247, -0.2013192456878787, 0.09662696878537978]","[0.49838967415576363, -0.1764842083945105, 0.13372502685905271]"
147,147,1639136566679478664,-1.1060131496203334,-1.5155984565275975,-1.7691124748402232,-0.11930054822168867,-1.1847240610436045,1.2278551717708837,-1.958894897165912,"[0.0985124313214458, -0.0815282603399287, 0.2225680746194773]","[0.2972798785271988, 0.027355893003131806, 0.3333760873139746]","[0.11534082187450134, 0.02087202433110308, 0.442319407387163]","[0.07136063347771938, 0.07147448819119001, 0.6486124017728854]","[0.34734287615750936, 0.14798984209775043, 0.6814681765125197]","[0.19288318638345525, 0.47214179093139585, 0.7649757234337813]","[0.04296750389995291, 0.6187242832386801, 0.6425360561817921]"
148,148,1639136566779684965,-2.3362346390720226,1.386872166275627,-1.6674915504998389,-1.2731726091590057,-1.737916209030899,-1.3623932042491247,-2.000726262352607,"[0.14762508500530866, -0.052079286669144645, -0.04221448815162279]","[-0.11098192869745467, -0.05121043088729574, 0.45458430946497447]","[-0.08016754294009032, 0.17429213483152367, 0.3567787666863198]","[-0.04566376241088674, 0.518302055884202, 0.23135293886230315]","[-0.22371129047230492, 0.5134373091890575, 0.42456585741559877]","[-0.41708573393409215, 0.763460432253245, 0.5180993492884389]","[-0.35467116852031566, 0.6552511811263565, 0.3830274760410035]"
149,149,1639136566879576476,-0.20684342971935754,-0.22492373444775413,-0.3036805366854951,1.8888177540245668,-0.6968316255257894,-0.4787330919127155,-2.3859366300603364,"[-0.0033427494005816684, 0.09795305886534496, 0.2636016251826663]","[0.04845750855336467, -0.15261110349014684, 0.48137209303089556]","[-0.12700196339312653, -0.3399686876089083, 0.33146239445653797]","[-0.4341572062327819, -0.502316003427919, 0.4227355578270902]","[-0.4422108281271886, -0.16642863521873763, 0.3939043358308081]","[-0.49656115101870946, -0.13889669044271657, 0.4205728574905725]","[-0.5810249503474871, -0.21224432575803073, 0.32134051631777705]"
150,150,1639136566979524000,1.6838476263238484,-0.5015739002650124,1.074023294869677,-1.7955734483306718,-2.7231517585575435,-1.2107865518859535,-1.3080350729835506,"[-0.0740143962983275, 0.03289930323511243, 0.20764126410700867]","[0.09826945068713563, -0.020757531402934747, 0.33642371098536894]","[0.029088954137171684, -0.0010152602671565855, 0.5769563160246324]","[0.0052551483019333545, 0.022555797004769285, 0.6711042504849006]","[-0.1729511459840487, 0.04656181413707036, 0.5397743819778089]","[-0.44771011304859887, 0.10282038272305409, 0.3221179885371134]","[-0.503881975392186, 0.3521107564018252, 0.39830565253018546]"
151,151,1639136567079578828,-1.236822842904691,1.5200283887393182,1.8677166517924408,0.9971891108504436,2.1589716164191066,-0.9490403530878152,1.1949898482559056,"[-0.016844622317572232, 0.11176807148072704, 0.19206879287276407]","[0.07409511877326179, -0.03906633110678388, 0.2919614463367025]","[0.004761477019962967, 0.01676273375398213, 0.6283820695368695]","[-0.0023721662744550474, -0.13857490977863576, 0.5174729436369178]","[-0.07701095834797156, -0.022947998808550266, 0.7139704386578413]","[-0.2732887351378494, -0.23907986937506936, 0.5787805379138832]","[-0.10380336481355867, -0.13372513290780114, 0.5978213948352206]"
152,152,1639136567179531542,-2.596331809555522,0.5034764661804152,-2.5087818111014726,-0.4718925390247746,1.5296548166423656,1.1771702943137463,0.3367192960733112,"[-0.1744991946142738, 0.08144619535764698, 0.3412244933802462]","[0.11329602958277436, 0.14119645071048206, 0.13639480969541978]","[0.0642895316913161, -0.1040903337086237, 0.36831190549810316]","[0.21254881019440985, -0.2682266470947611, 0.3203501842744889]","[-0.007330240852898438, -0.5753825984467555, 0.18623579945837723]","[-0.03744588651305746, -0.7058564546355531, 0.2736903374460447]","[0.15918581214438404, -0.8842580444402535, 0.4643229181441261]"
153,153,1639136567279527566,-0.08601334602628175,-1.3231367993384897,-2.8633656708551682,1.5646877236600318,0.35475369646244514,1.7070654672440946,0.7730301159015505,"[-0.19056480504995457, -0.004464602594882705, 0.09275303226193532]","[-0.07257798653211404, -0.011262056315448543, 0.25459210035482777]","[-0.17510685162554712, -0.12907691376840252, 0.40938424979861354]","[-0.36142247124701804, -0.0010176162234242503, 0.6155126124419378]","[-0.2099621719436065, -0.16059330519685083, 0.7401638415609076]","[-0.20610054838857272, 0.13092115649704705, 1.1409713869218676]","[-0.26949581927429, 0.1988606603276491, 1.208404372395508]"
154,154,1639136567379621755,-0.28542365019313204,-2.054602455137972,1.7413152314025315,0.5474331034946824,-1.4854452744998372,1.9618705384281685,-2.7007217016836886,"[-0.12039282186442474, -0.10448082936016459, 0.1512933160956923]","[-0.0550939628386912, -0.08074314259399445, 0.4758751247992091]","[-0.3006012692332165, -0.06560350743172451, 0.3775790153710293]","[-0.14548160319283565, -0.08011868266155406, 0.4027137287317792]","[-0.5232259215021743, 0.14569738429694196, 0.6337446723044666]","[-0.1817552253860099, 0.2694800137152681, 0.8406649785363266]","[-0.21209719650035003, 0.09079576697798473, 0.8559900455501195]"
155,155,1639136567479639671,0.13115617304871785,0.472931502653974,0.7366448803038521,1.0549711915082174,1.7913651663101322,-1.1860310644292005,-1.6246045502966584,"[-0.20909553721415575, -0.07458849659176779, 0.28780348555192703]","[-0.13033006945311218, 0.018221787264828652, 0.23631301156833]","[-0.10971419381359106, -0.06574632282825771, 0.1637068473941522]","[-0.4523282352513006, 0.14766788961151434, 0.0010272279974838927]","[-0.6056464828262236, 0.026511013364452402, -0.03892792381850296]","[-0.5688369366559213, -0.2136393232932431, -0.1713236022902636]","[-0.715102228050604, -0.0139960476044493, -0.018939936441529998]"
156,156,1639136567579468903,1.5926479831077738,-1.5934662855792163,1.3272167758594366,0.5240271595660317,-2.2256065374240124,1.6337230198527235,1.6676609604663983,"[-0.014015900154936842, -0.11545555750197022, 0.07961452344512235]","[0.03238444601513705, 0.022540966534765793, 0.4693929751925334]","[-0.1043075747207804, 0.2724885646292344, 0.6072244304952804]","[0.16230125990799174, -0.052364643365418836, 0.733850121457979]","[0.12151635387261997, -0.013868535807640844, 0.85021050059679]","[0.06052900702648505, -0.3462236512869964, 1.0567164314176256]","[0.20748791052063867, -0.353027077676046, 1.1702707563081516]"
157,157,1639136567679482817,0.4612230405260713,-1.8527058306060311,-0.8876273032810298,-1.5146267674669731,1.8051783654162168,-0.25070956821397483,2.4876427246877912,"[0.1500020093795688, -0.051530371528813505, 0.24505711341237635]","[0.065725303183873, 0.07198186495072371, 0.3300676529150063]","[0.22269380819813148, -0.22774564807041708, 0.09047956072960539]","[-0.1228332673514739, -0.5119571225479483, 0.41409953072005223]","[0.08081887495025969, -0.4960198464989671, 0.27766923475984706]","[0.2504174729752011, -0.7249522520809201, 0.24641576731067666]","[0.23494645383156426, -0.8491932240296584, 0.33243320431392404]"
158,158,1639136567779602236,1.737716213478366,-0.5294871007383251,-1.5184454807517078,-0.6875127253556155,-0.8190702791934991,1.0923209547776085,-1.1335626073408287,"[0.18298898944941325, 0.21973153624404423, 0.14239535145395937]","[-0.016264825827365926, 0.012928019073426798, 0.4102242746250159]","[-0.2988801413201339, -0.16815726681942164, 0.22340553014614936]","[-0.2500484548461705, -0.16012007566684514, 0.12416991789968254]","[-0.3938992216291028, -0.4211306808992151, 0.33263413494622723]","[-0.28259479572008467, -0.43751097792281973, 0.4955292974995269]","[-0.3016155261421316, -0.6458986297071779, 0.553499328476079]"
