CodingCatMountain/get_multi_robot_pos/multi_robot/bagfile/iiwa_samples_with_noise.csv
,Unnamed: 0,time,iiwa_joint_1,iiwa_joint_2,iiwa_joint_3,iiwa_joint_4,iiwa_joint_5,iiwa_joint_6,iiwa_joint_7,link_pos_1,link_pos_2,link_pos_3,link_pos_4,link_pos_5,link_pos_6,link_pos_7
0,0,1639136551979647857,-1.023703194096215,1.5749805595303847,-1.3804528138430516,0.04063594506668977,0.9865373747813306,-0.4824352502065259,-3.004986539856081,"[0.07781410931951517, 0.09146323489477025, 0.12018674679605092]","[-0.02553502664907586, -0.01528825122053211, 0.32878691290033746]","[-0.12464583032824843, 0.09623583211998413, 0.39932982441755216]","[-0.18703660951724155, 0.340156048892954, 0.4419801289048621]","[-0.30048175199395427, 0.47864327412157753, 0.538757660454405]","[-0.23364360692487685, 0.7194803332226405, 0.466588215819618]","[-0.21101654006389448, 0.853762812708964, 0.6136921317775553]"
1,1,1639136552079621092,-0.6608328361337574,1.7872430943801532,-2.2248734686231115,-1.1237707401404329,-1.012589531106192,0.5904746647457784,2.08659337273068,"[0.06647635262089097, -0.025196919787277745, 0.2374820965324227]","[0.02148930370425168, -0.09270259790923777, 0.42542807738323407]","[0.04696817039266814, -0.09096772745692049, 0.31518821359797383]","[0.17342408338239904, -0.28601218509542115, 0.34216387494672484]","[0.2909361045436127, -0.4234114210162119, 0.26225815129795504]","[0.3325748875342325, -0.6210455719607617, 0.43411659011033027]","[0.5190862081022508, -0.7312093002813541, 0.4189579119696816]"
2,2,1639136552179660552,-0.72229873259601,-1.7098140129449797,2.502516226267916,0.6498130097705848,-1.1491044817412228,0.05401149202661859,1.3097006317268316,"[-0.05131771472862511, 0.06688003606122131, 0.14088944573139428]","[-0.06234403899179119, -0.09100750715362912, 0.39620802728981475]","[0.08133530677545739, -0.12196045028764642, 0.24686700423164903]","[0.24464508416071334, -0.14508401583456776, 0.1840849619154502]","[0.28834048017991115, -0.5098423098951955, 0.3502785135245361]","[0.34648162196587906, -0.5810337414621856, 0.44317071118086854]","[0.21380146968720776, -0.7262856648657154, 0.5030663506652279]"
3,3,1639136552279538442,1.5287084280048862,-1.941011322291752,-0.2376808397333301,-0.059154938071304126,0.3057950297051999,-0.44250695174556,-2.5505073890627936,"[-0.056524024136150874, 0.05890196180774574, 0.1737092064894326]","[-0.022166866968765665, -0.04300599982799173, 0.2846402833428633]","[-0.2359228686771665, 0.0696799092174445, 0.2749601845325376]","[-0.28056707497511263, 0.3362045551992069, 0.24165389609936783]","[-0.4551839165612622, 0.3458750177548872, 0.38083012750036777]","[-0.7156455217184263, 0.34966236153562474, 0.4156676251381888]","[-0.6885933511206637, 0.47424356507811144, 0.4890366480606859]"
4,4,1639136552379591108,-0.44251515140100217,-0.6577343032383909,-2.4295911133694017,0.36064043652603095,-1.4717208153007533,-0.02895603160650584,-0.4038694470439759,"[0.06460760427962439, -0.07427582046890184, 0.21262829376902684]","[-0.06757673714868774, 0.015589640714185504, 0.36327014047332595]","[-0.06523371676494184, -0.21282919566409791, 0.34901009072556843]","[0.06253645374860041, -0.4067216290080889, 0.28562697403207393]","[0.036078379624899064, -0.4820037113094062, 0.1191798601898382]","[-0.054653741500109, -0.7058746711677432, 0.1754164898380462]","[-0.11016348437626663, -0.8611165255640484, -0.02454720462144523]"
5,5,1639136552479542712,-2.246996857709032,0.9278366713338948,-1.747410045033763,-1.470247929720148,-0.7338488463636685,0.6737685972872329,-2.0367842791635047,"[-0.061387532080695306, -0.07652471871270208, 0.2177879060184718]","[-0.07519132716874288, -0.07482685349117471, 0.3446639323323412]","[-0.131646195876535, 0.08631585779138953, 0.5371298443028611]","[-0.15126967970224547, 0.1182621977801403, 0.7035073413474701]","[-0.2915852962681376, 0.14194864194892587, 0.925389917247003]","[-0.3127845901496719, 0.32955322251253605, 0.9800660884848342]","[-0.4044139782754005, 0.3020303148505416, 1.1187078561650219]"
6,6,1639136552579473379,1.903139121606924,-0.2752902981922085,0.6591381883465369,-1.5254133377210344,1.0530855959970724,-0.6977808217284871,1.1908887207846148,"[-0.08632260942263484, 0.018511236448349785, 0.2399124227693217]","[0.07631191729898743, 0.03084370966623883, 0.3137000711229542]","[-0.10230177232285438, -0.1471767072684336, 0.5460686635329598]","[-0.14597757762883418, -0.16922184606569446, 0.595489197938261]","[-0.30100727707260305, -0.03944854479084542, 0.6261956572872007]","[-0.573025524700155, -0.06434245494519991, 0.6865090950887478]","[-0.42403527269098407, 0.17194922584662248, 0.6447836312406845]"
7,7,1639136552679530707,-1.0136293410717208,1.2233512807905678,2.367016829823472,0.05399741016848925,-0.8737511270067793,-0.5787613309182393,2.6856976030831747,"[0.09099835469199337, 0.09492281316853865, 0.13341821538140086]","[-0.014204165528664029, 0.0015587158981055897, 0.32564175509697385]","[0.052078364417954146, 0.027619989192440096, 0.45067021604603696]","[0.06154535259617862, -0.08767899314510608, 0.7857453779993259]","[-0.12375651804457638, 0.073826838694636, 0.7709828243014912]","[-0.29374470897798016, 0.15962752168844013, 0.8060424257654603]","[-0.3326069746433611, 0.21454871549799404, 0.9180005199939488]"
8,8,1639136552779589580,0.3744893437640053,1.2771331165045856,-1.210286171542382,0.07383822278643049,-2.904335887579621,0.36271751991193657,1.804575382448521,"[0.005708937738123558, -0.007446043009578406, 0.22611502487969684]","[-0.02347109773508706, 0.07189510302523162, 0.40008755782872574]","[0.12872917440891457, -0.23828405887246257, 0.3691904005850441]","[0.2172789137302418, -0.3995111901701932, 0.45482802077911855]","[0.37293405436958166, -0.42097366795076563, 0.5910562690316462]","[0.40317710777054283, -0.6581297764549133, 0.45424673457609577]","[0.34237603821339124, -0.7403258006833111, 0.614325974138335]"
9,9,1639136552879505560,2.4015842197994384,1.840977779767484,2.350340566077946,1.0743213717915558,-0.5884394352197573,0.8736000673349662,1.6490086903632488,"[-0.051880144320616606, 0.007092158194471643, 0.16022843135995796]","[-0.03369623204584645, 0.09500784274406075, 0.2730238889685709]","[0.25982486950291517, 0.1025468100730895, 0.4364395287550928]","[0.35372745070567485, 0.14746696764344414, 0.4027381166540233]","[0.5835141632854276, 0.13504394815908516, 0.532400149245404]","[0.7511849865068974, 0.2869137073648804, 0.5078358631545801]","[0.809721019875997, 0.2903996378179753, 0.6216981301499144]"
10,10,1639136552979686319,0.6146980717750408,-1.5199026983142994,0.2538516815539298,-1.4411205202685582,0.5706685513644056,2.0407037293734764,0.9987074574607786,"[-0.03223750896321355, -0.008133313930809618, 0.07042492128176471]","[0.03932282753027685, -0.08482864441090841, 0.36301479273590964]","[-0.17310708228360205, 0.08322980486035893, 0.28106026531316186]","[-0.30166987053435584, 0.3446708515595493, 0.14190611504623346]","[-0.27812081127437666, 0.4564189959821151, 0.1716036970680803]","[-0.21468542207994362, 0.5502473044518187, -0.08580882423978214]","[-0.31570740999166014, 0.6465441322550757, -0.11546947014026428]"
11,11,1639136553079531073,-1.0228005882112234,0.0824589389144128,-2.670561611343249,2.045752605905258,-1.6800679392390108,1.7477630428894682,0.10079149289529796,"[-0.06464226327578776, 0.030884727790976264, 0.23964607332374047]","[-0.022198978559665843, 0.043503355452760274, 0.30787996499569914]","[-0.2425492935663386, -0.1374295057033696, 0.3304842796608166]","[-0.31489307066784394, -0.15627341063558758, 0.27610978103079287]","[-0.31720954157036113, -0.15411652964590922, 0.502094079628155]","[-0.3051611592585246, -0.2579356493676621, 0.8006775143794554]","[-0.28135690235056454, -0.11250158220870035, 0.6691553481558801]"
12,12,1639136553179557200,-1.92480086367406,0.4986876914365119,-0.5362090758954796,-1.474085615482724,0.4066357063343585,-1.7471127293555924,1.9405533087796063,"[0.006522486169118238, 0.03103594682673444, 0.18596504350273993]","[-0.0712728347725734, 0.06409164717921144, 0.437916625921738]","[0.09119782921558865, -0.06378319131220314, 0.5325665365288903]","[0.04281768423957987, -0.028402597222732466, 0.8316258447450487]","[0.217869691184132, -0.09609415780384814, 0.681895471280411]","[0.33106566811980687, -0.19041074514644557, 0.44402131384421845]","[0.3724618600384317, -0.08607221827214243, 0.6284561051625348]"
13,13,1639136553279700176,-1.8861643475188559,1.3573598119734118,0.6378223165467207,-2.0150725150249054,1.3582527889999096,-1.0793132306619553,0.0402375505658501,"[0.023169032697504297, 0.028668877905294196, 0.054749539846308676]","[0.058238810287791515, 0.09314255322356783, 0.4222426115178436]","[-0.011531309944771539, -0.03685265455736261, 0.4699043885701528]","[-0.013469557053296624, -0.26534529289980374, 0.6934313674630301]","[-0.1883179053988747, -0.26907994168180044, 0.662205632207924]","[-0.3752450429009447, -0.40013884327833454, 0.5006534276261501]","[-0.3773067890446472, -0.4839382938758059, 0.6080211593484153]"
14,14,1639136553379545028,-2.5871035331109042,0.09227825514858257,1.2190850830563815,-1.3780922766526762,-2.727121477280754,-1.8446646880248807,1.2591106039163589,"[0.0529019322982522, 0.021934953009190045, 0.08728555289073513]","[-0.04266808141771422, -0.07131159581956246, 0.31899757572360293]","[-0.0062350329777433044, -0.20456241169732292, 0.29625994526882854]","[-0.06831253110343401, -0.3993452957438827, 0.41094059685346757]","[-0.04464684248202186, -0.3172510842053017, 0.272642216098685]","[0.05294437437921261, -0.36482052306487855, 0.14365545947609865]","[0.1308263197938595, -0.3106750791432079, -0.02826204370105561]"
15,15,1639136553479524237,1.7791349729014247,1.5723906177922449,0.9779971989982714,-1.153216087445509,1.2857625205943086,-0.6659555168620834,-1.456576655108471,"[0.0634350944357309, 0.05731404452318805, 0.16117336090271261]","[0.03947795198363113, -0.06916144981308024, 0.3197755247682189]","[-0.11482879982208832, -0.049642646472932025, 0.5667933249066188]","[0.03544469787044802, -0.042706056486798316, 0.6623144127040216]","[0.08340608779638847, -0.2221973129015778, 0.8467752335767035]","[0.10726776093353375, -0.33464676454067044, 0.7724741375076518]","[0.1015757647283333, -0.4360152568696682, 0.7999705417230073]"
16,16,1639136553579590598,0.6877747717356004,1.6573363156478709,-1.9083704676343989,1.0079538068798812,0.8824147863850413,-1.6837570684726455,0.04152220146092933,"[-0.05414092885497467, 0.015767801165551515, 0.09386401042308123]","[-0.01898861270262316, 0.09621044361704781, 0.25871669168761435]","[0.015390177841224956, 0.16587458638339336, 0.26276677464077486]","[-0.13596669855005494, 0.368735415941034, 0.23941518571280151]","[-0.30988501909429983, 0.36833789239656806, 0.2470612793902619]","[-0.3242229047611009, 0.37273272981871997, 0.10191090634136103]","[-0.37958790273415594, 0.5683908630573595, 0.10108582974561589]"
17,17,1639136553679535772,1.670611448891926,-0.69335251714903,1.1410451416740597,1.658088238995394,2.302824709189933,-0.06728110897881767,-0.04840764922332808,"[-0.05520532382553285, 0.05329217374355521, 0.13317814478275256]","[0.040066346633252196, 0.013421257816063695, 0.3932778563884477]","[0.11864027233631887, 0.05209784870257361, 0.29004822897865434]","[0.24458413815275162, 0.3309343777745002, 0.2712438896845297]","[0.195492794871389, 0.43833840697256604, 0.20207002569385185]","[0.34330703580617206, 0.5722484235370551, 0.20021903968312646]","[0.2480263255857801, 0.6520406351939827, 0.19649267602319215]"
18,18,1639136553779530786,-1.4848747786497254,0.6927475737812521,2.1857560643382743,2.035112894044063,1.4173190258661497,1.1595003937221264,2.8583961928490385,"[0.05342476999305168, 0.025754226464633635, 0.08368623528287814]","[0.08437701882853975, 0.06640654413050234, 0.34163913892274417]","[-0.004324992188165802, -0.07666210912598426, 0.5299579352726207]","[0.08412295880720924, -0.30169302550123955, 0.6195948723579602]","[0.17040979983676238, -0.2977822316426002, 0.6563469133022992]","[0.36430896349817, -0.46876801750026087, 0.4802107844554231]","[0.5425713730924172, -0.3959624305153237, 0.4585623435059477]"
19,19,1639136553879587806,2.809409702856553,-0.8763445551554709,2.083594121092996,-1.3942466851904212,0.522749637460648,-1.6447211036778135,2.341168705175189,"[0.006109996319225213, -0.023981891216023364, 0.16399792884211867]","[-0.032074990303820036, -0.08605358657249572, 0.34787506799128837]","[0.031138670924846554, -0.04569394828134929, 0.5035496309207146]","[-0.05538004863289239, -0.26467934704912127, 0.6911649581545422]","[-0.18223623324309415, -0.24101467434962892, 0.5528985097444247]","[-0.22393455975589371, -0.4669794953808586, 0.4578229726115379]","[-0.3301288241705933, -0.2976370876892424, 0.40264269384397017]"
20,20,1639136553979575185,1.6551089575724052,-1.9466549472613481,-2.543787172480982,1.8874670551043409,2.4792360032951595,-1.435484911790558,0.8517001872427405,"[-0.010427229043755329, 0.09916534231571597, 0.19381616010079722]","[-0.09121599866652597, -0.09164247545534676, 0.29322177519292336]","[0.2199371915321102, -0.04692285166479799, 0.4514707973399147]","[0.22557802430395957, -0.04456802469532115, 0.5313705313994562]","[0.29336418500520806, -0.34867880766792536, 0.5295377437136896]","[0.3877355952058869, -0.5096307572128463, 0.47710452864310154]","[0.4198001966398124, -0.4182569333824324, 0.5558504785350643]"
21,21,1639136554079602245,0.2627360542503272,1.4149791235786315,1.824820241638868,1.9648943309280376,-0.4628406628128547,0.7452890477598593,1.8702255463650457,"[-0.09736475505743619, 0.05922016507519967, 0.071513850952518]","[-0.05322741981927429, -0.045298139970306496, 0.3947875263642232]","[0.10208726951897838, -0.23758459562071768, 0.21146230007411293]","[0.07119096171720143, -0.3327173476769324, 0.2653493247626235]","[-0.06931654229528117, -0.3655958812873287, 0.4190901908902803]","[-0.05990791989455885, -0.48943295427212685, 0.5439629238377396]","[-0.33502615355025317, -0.5374985393137015, 0.47809252063063423]"
22,22,1639136554179562277,-0.5395604443271504,0.20389406372606445,2.112162279372195,-1.0211626604547492,-0.33778572788230266,0.1542182888189756,-0.3588606614136838,"[0.060692012716739754, 0.026912413755644446, 0.138050018266085]","[-0.0003321645299757429, 0.05406532944199871, 0.36593348093709027]","[0.12018381434154125, 0.14665639921937212, 0.27588559705580307]","[0.4447060791849215, 0.12891920338288285, 0.3734189712073706]","[0.3914867271248938, -0.15776562886899018, 0.39532037710999973]","[0.40611554316941906, -0.2101040583036185, 0.1486921968207237]","[0.2898677015750669, -0.26815200143584117, 0.2866118506087491]"
23,23,1639136554279540118,-1.2333709462790359,0.7351175175677107,-0.6804697127093586,1.14793262647496,-0.256023539495712,-0.3241129330692676,-2.4202607361112265,"[-0.09777108643754838, 0.04144540538068879, 0.09729452810892389]","[0.032360562537637076, 0.018011509988242965, 0.41487605714399356]","[-0.046709546480758854, 0.051776682229859976, 0.46824949028089363]","[0.05417902752663477, -0.0034387274220913297, 0.8137618685532997]","[0.0871130853273219, 0.15124888705705802, 0.8950461923041794]","[0.19645267321899829, 0.3532331228080132, 0.9667042440822204]","[0.07089713511823031, 0.34586539711695957, 0.9771320066622411]"
24,24,1639136554379634650,1.9185040099468416,1.2522115601680532,-2.6869807874634937,-1.837861561650624,-0.4101289330339797,0.08073883672754299,-0.5817376238010996,"[0.06244700617914565, 0.07519422054560551, 0.10765892702821478]","[0.013328781974828377, 0.0109333866678335, 0.3501905594323433]","[0.05392901954814691, -0.14017466377060073, 0.47378438393941535]","[0.04234747971356707, -0.23352645329441618, 0.6381576878842251]","[0.09374969188122009, -0.23426981475165765, 0.7541240757847015]","[0.30868498431815516, -0.036507318605292854, 0.9169117004935925]","[0.3701304471645729, 0.013411762980948844, 0.9341579511338389]"
25,25,1639136554479516513,2.3066306105545533,0.05402337108360866,0.01892537875336675,1.8278649532981184,-1.2303439583266949,0.6052717606441687,0.6641226914589344,"[-0.034606764886318524, 0.02983042610108686, 0.2350571989590397]","[-0.01635639285857266, -0.02150905336758603, 0.27869821945560247]","[-0.0037665408804645473, 0.12815319219444563, 0.45769973899826055]","[-0.11688196891165728, 0.41751430198665596, 0.4132834955459521]","[0.018352677215729186, 0.3579607654139463, 0.6498198637599836]","[0.04841512959385274, 0.22939987081897587, 0.7957372550870737]","[0.05989057493999757, 0.16545339276033547, 0.899273437128536]"
26,26,1639136554579500906,-1.7526941188350589,-0.2132469799629606,2.629935701592918,-0.2482123412715802,-2.8116846950101584,1.2106151829415237,2.046084837311952,"[0.07464269225966617, 0.07661736203139718, 0.06715876154908659]","[-0.03598499693407757, -0.058823316491103096, 0.31477481886566866]","[0.010101675836039058, 0.06294027028830519, 0.46871425977379255]","[-0.0865159159939016, 0.09908966922504556, 0.7456935222038847]","[0.09930858408627391, -0.16088776893231546, 0.7307706947102872]","[0.26240889004596596, -0.34648994119206483, 0.6297731556739256]","[0.32450335672396113, -0.27418874462813386, 0.6852983911461027]"
27,27,1639136554679621882,2.8883104661865686,-0.6968811226205028,-2.301557355929244,-1.136240642293608,-2.2101501553871694,-1.1646766900621108,-1.8769166602863523,"[0.061361375337458945, 0.0046034350578030995, 0.13517859396502346]","[-0.08008170599298853, 0.08302111950442491, 0.33541407517367355]","[-0.000648027782852138, -0.03629076545236047, 0.6387158325690522]","[-0.02582554320343692, 0.00254522829282694, 0.7736601639488241]","[0.09688815324085404, 0.11233417871885082, 0.9208554196332961]","[0.05197504255521973, 0.28418112773305665, 1.1061659793667196]","[0.13551716125938715, 0.11792138290794446, 1.2315868075296432]"
28,28,1639136554779559044,0.4047919924474379,-0.6913970594074621,-1.022449469152487,-1.6335066772049542,0.09688663859175728,0.9391934526336104,0.8805502104439085,"[0.054926387848701755, -0.02116064581022322, 0.09613341655704691]","[0.024786336336208917, -0.019496346661654493, 0.35026519652133525]","[0.14862993895467624, -0.07507448066117528, 0.5572909250607405]","[0.27311040044320434, -0.15913430968488, 0.6481294415090887]","[0.43604996197377405, -0.06028196022990545, 0.5931357244735793]","[0.6551563500316689, 0.11170607033640426, 0.6588261131422085]","[0.6773790978121207, 0.2495877776843161, 0.6169083023817958]"
29,29,1639136554879618208,-0.12111806917846925,2.0581814155183404,-0.5957399247592035,-0.8278293079868166,0.4868335273099715,0.3978379408325208,1.9968292936579748,"[0.03578555423973462, 0.07605024571129872, 0.0727754513703419]","[0.0800850431072694, 0.06868604390654408, 0.32543730963412665]","[-0.19214442330005543, -0.039153898654012184, 0.5613794850813031]","[-0.22749553843263803, -0.148218012021152, 0.6020802135031362]","[-0.04483540426408517, -0.254229355527127, 0.6251857501086624]","[0.04123173709269751, -0.29555234756338966, 0.7016942512738826]","[0.1546072313584166, -0.4421683508343747, 0.6942090846241751]"
30,30,1639136554979582086,0.2240081364506308,0.1847778250120484,-1.4026721658633892,0.4800444384158738,-0.4805793614038562,-1.7177436320080646,-0.505508135385031,"[0.07304550178727802, -0.029106968951078355, 0.2066080916397764]","[-0.03213189813105351, -0.09955650821402187, 0.25113142521209625]","[0.27832928430416704, -0.05809213769856478, 0.3157433927964029]","[0.44297928021218735, -0.06784912899043949, 0.20838199334123222]","[0.3901955043309648, -0.10210282509886359, 0.015654779719370487]","[0.4755149203296237, -0.19815409105698567, -0.10307999354874758]","[0.41152978666241036, -0.31086182521934413, -0.23055210064674447]"
31,31,1639136555079560231,-1.4748432808038383,0.17363163950931115,0.7217967419203881,-0.485986357872823,2.8321225103487486,-1.6173786518229705,0.4355873339713514,"[0.05037486457846072, -0.0800344128217891, 0.17395601218824572]","[-0.05093690731578419, 0.09687394093417417, 0.42473734501614935]","[0.01583490853510413, -0.02856029974850456, 0.591552679498022]","[0.0882964207729692, -0.07730644821419148, 0.7133547092156401]","[0.07708340156633449, 0.03696090590196274, 0.9463694289939922]","[0.08240757141586892, 0.1296924288551187, 1.0469240995625746]","[0.12463529554509863, 0.28002714901047987, 1.1055668133351704]"
32,32,1639136555179503654,1.6296201220477855,-2.04013375081856,-2.3917796795515014,-1.324712483007409,0.2552829185861181,-1.533981516550821,2.0069065812354334,"[0.02088545622218066, -0.062465910693676664, 0.11147644714854879]","[-0.0016298065892190795, 0.05286631832683372, 0.3131798862386972]","[-0.034543910963355864, 0.053337626093688105, 0.6082715825829479]","[0.06452372865969316, -0.03320547277833057, 0.7736683766400988]","[0.06349864012435816, -0.09423369508472171, 0.9983753195523034]","[0.18504467122179674, -0.28817155150645324, 0.9905813585471358]","[0.1603557447988483, -0.32234383265425615, 0.9533767251861751]"
33,33,1639136555279507688,0.7473447803064119,-1.9080785386300576,-0.6675736505829617,0.2467514667157995,2.7640912868304137,1.0469343657580437,2.713361524248324,"[-0.011481528376644921, -0.0968331432136083, 0.13437119959150387]","[-0.004604169100150939, 0.004812015342092385, 0.3439536664791868]","[-0.019831554465465844, -0.20558583932279192, 0.2523551193706822]","[0.011062601814248759, -0.3426363279280233, 0.21496293463554011]","[0.07672481427390931, -0.3068473558077211, -0.08190463046438899]","[0.24607468853597142, -0.2023778640934057, -0.08698406641017944]","[0.3170411564699073, -0.34674045463828895, -0.15266008975321588]"
34,34,1639136555379544612,2.2024718015715936,-0.9356563007145352,-1.9085942654456245,-0.08490388341916932,1.1029148458976592,1.6053964915604553,1.3982958924942357,"[0.0750927403477559, 0.07011477543227658, 0.0836740155374885]","[0.02838862753781725, 0.0506911468223441, 0.3695509081692846]","[-0.20262990488329727, -0.18713465172565474, 0.1800230350607352]","[-0.32410828017309673, -0.2907816462618888, 0.18404916636772828]","[-0.5018763802475642, -0.37717680981946605, 0.19951165819006622]","[-0.597274313388688, -0.46141621971182994, 0.009717151562197907]","[-0.575983941708494, -0.3776473148711656, -0.06817508165360955]"
35,35,1639136555479598116,2.8954712244768612,1.8195749713498992,0.6075089398299998,-2.001380674952129,1.0047964974357084,0.5260662360056729,1.7005528770567768,"[0.023393876986852153, -0.042664823791743856, 0.14376859147108423]","[0.07379036801917178, 0.020934281941763434, 0.37588527610463107]","[0.15740821755752804, -0.03723928743805088, 0.3899156957366566]","[0.2069814186566736, -0.2078768995341681, 0.6251243187890331]","[0.34657357339567135, -0.3135248568032989, 0.7261888800602604]","[0.4566705300114443, -0.5538669528373154, 0.7773179750113558]","[0.34583713227559126, -0.34802359908119845, 0.9074336609430387]"
36,36,1639136555579517554,-1.5862656747906314,0.014820357047762744,-2.33052298011246,1.1122545211262542,2.31104815174908,-0.4535400287557319,-1.3127095474926365,"[0.09056817681180244, 0.07633388066256441, 0.1648428744928286]","[-0.02984907417355715, 0.039781742005441184, 0.4185635031285996]","[-0.11735044633735893, 0.10764735797604451, 0.2723950842812523]","[-0.3588914599885532, 0.12773025379518155, 0.19813327386926086]","[-0.3029267256557644, -0.04519128095297698, 0.09616914127809932]","[-0.19726397276755883, -0.2053581188056035, -0.07592686275821302]","[-0.15536359423414, -0.22374990360261626, 0.06667118335057776]"
37,37,1639136555679538199,-0.6679337731867627,-0.8025733066722005,2.319029978196362,1.5523519619872137,-1.976060473672167,1.6775987278445883,1.544989632946208,"[-0.0011526590883604276, -0.03958646259395153, 0.2414309360448047]","[0.051485012610194836, 0.04947623539672053, 0.26547795886913217]","[-0.004560850892080012, 0.03545144634260818, 0.6170636697142806]","[0.09175423216712242, -0.0372691134081941, 0.6987290961812864]","[0.14851618271508266, -0.13448765277928493, 0.7699274868406254]","[0.3020746673876066, -0.32001292757473443, 1.0023535801145185]","[0.31190001181891336, -0.2463068792148654, 0.99750482163937]"
38,38,1639136555779521944,2.1006742742777837,1.6518000001105109,2.5523090152468257,-1.5790890457992264,0.14433570843230825,1.618802655357396,-1.5398581507713798,"[0.09167704376673363, -0.04678076885620331, 0.19890243341364375]","[0.008159142816404898, 0.06592792224348251, 0.3339247908463196]","[-0.0976639195316502, 0.1770276309283911, 0.4408361463784614]","[-0.3043016414580165, 0.15381359463821132, 0.6420309262888142]","[-0.19275348577399457, 0.058430119890632126, 0.666604358409866]","[-0.2102415594870868, -0.281526949291012, 0.7616030988229859]","[-0.08874651075804701, -0.17416664717840716, 0.9084746783331117]"
39,39,1639136555879554075,-0.9516969063865964,1.5009135065267467,-0.9792365735977804,1.6593266361418182,-0.3552053913917517,-0.518546107132916,-2.591000817612865,"[-0.07175182064821833, -0.026289063898036008, 0.18829438014611644]","[-0.06405988153813434, -0.018431596245779766, 0.4013897692819378]","[-0.12771471322236166, 0.16475892787124274, 0.34093842707444855]","[-0.25281525612223654, 0.4195499296118498, 0.3955479382589981]","[-0.37382392460800046, 0.2677665444524923, 0.5611228819074192]","[-0.3932188099130628, 0.15839647039528265, 0.5839855726798576]","[-0.28508692491956544, 0.252368258958432, 0.690716281646996]"
40,40,1639136555979511398,1.6803294932140207,-0.5093359136009799,-0.5426956673501021,-1.1388053745717914,-0.6514194328782326,1.9784574618787816,0.8128114892976814,"[0.03944941583308289, -0.003968821304462833, 0.1624390394318707]","[-0.0665668504805305, 0.07845204846905425, 0.25903784030440047]","[0.12548135176417538, -0.17077341154539757, 0.32115440947387]","[0.1957424802537433, -0.2429786107104354, 0.3936626531534368]","[0.2758251256994425, -0.2243154774761041, 0.477887727557254]","[0.4900000277075929, -0.1801996219276069, 0.592751351028416]","[0.4327413940298715, 0.04897976189057053, 0.5604340721028144]"
41,41,1639136556079600032,2.1936735024614475,-0.39834149821296094,0.825257120401254,2.0171837242370985,-1.7947546988851235,-1.5238762981263363,-2.4819699318487234,"[0.029034677605992983, -0.033917947152892515, 0.07040806400807861]","[-0.043810208224601736, 0.05487669736885129, 0.35149482449934394]","[0.023956831789711926, -0.15094866725684633, 0.49763452596211155]","[-0.04243948231656594, -0.17901352789174146, 0.6003276618061588]","[0.058874160663067415, -0.1337547224726311, 0.7808592734382437]","[0.26571535869935314, 0.00942330867922904, 1.0251662695766346]","[0.14087550742195165, -0.013082883725329543, 0.9383941563888337]"
42,42,1639136556179581216,-1.3270103064593282,0.2810992014657612,-2.7392832064154047,0.17235714413465342,-2.069168178624603,0.8950537141925472,-1.037191345250229,"[0.027301758782521453, 0.0694795148939774, 0.24879454749961805]","[0.009491681315766762, -0.09328482677919055, 0.355403886394139]","[0.020285497276228786, -0.08608711580582382, 0.5228416177935106]","[0.15580904343627788, -0.07205744773364448, 0.6983332435132213]","[0.2043665964402003, -0.08292735757061469, 0.6226577073358962]","[0.39248136511165294, -0.12368648999705459, 0.5077935579489816]","[0.38170733512521743, -0.15531396678957948, 0.4055992769980122]"
43,43,1639136556279560309,-2.5024643990322417,-0.3920457407821798,1.7000437859219368,-1.1505853586903876,-0.3007791812905149,1.5847233148392363,1.4267641110790694,"[-0.05630139101457833, -0.05816730614732103, 0.09952774019523337]","[0.017497579063377768, -0.05514521436818742, 0.32224499090415426]","[-0.03346196298184012, -0.1055716282137171, 0.4446928388484368]","[0.06682097185920441, -0.08932602464757078, 0.6554896317715901]","[0.04818710935239581, -0.11937411196098212, 0.9371163849605166]","[0.005987901234910595, -0.36598726164476314, 1.0168163145709819]","[0.10355518198749863, -0.28109677804507016, 1.0573774287133135]"
44,44,1639136556379566736,-2.555789198761345,-1.3675793574525614,1.3698059339657331,-1.7032236255276716,-2.3937706001242973,1.1275172838110246,1.2360690501431109,"[0.014129981834812922, 0.015667594717132163, 0.1729512884154556]","[-0.0167600541627121, 0.0027342594584740566, 0.3444575605475455]","[0.12573460162101546, 0.036367118076999966, 0.5095399904209338]","[0.12850305269260778, 0.14622536739932543, 0.6159936171876478]","[0.27215292967608623, -0.11196709768642296, 0.6951252901719707]","[0.42533181949630944, -0.1870038248581715, 0.8224684394944841]","[0.47869055740710925, -0.24787731753059483, 0.7339434313646434]"
45,45,1639136556479552340,0.9916875346405124,0.8656664536212872,0.9726632135561974,-0.3526678672244625,-1.4581483331401033,0.9539962901853104,-2.8474522867708503,"[-0.01568878232484483, 0.09820428701191189, 0.17848260805071336]","[0.008725197731574279, -0.09099906378175958, 0.24275191652767203]","[0.2646858726532575, 0.19855759442273183, 0.3394275754898882]","[0.4089110563917894, 0.2167521300533177, 0.3814362402984788]","[0.35700130687124415, 0.03655995165378594, 0.39861538412038844]","[0.5892423932202424, -0.053804221854637235, 0.39254234347287115]","[0.43489355282609693, -0.21962837459190357, 0.6088102258753659]"
46,46,1639136556579485980,-0.9465934568566714,-1.1724261519869748,0.5100672175856804,-2.0120641946030697,1.6985586284831498,-1.2355205960840585,-0.35885998934068075,"[0.09630642244870113, -0.047073756413798046, 0.14922793087301947]","[0.002346248199700715, 0.01711756428370678, 0.32605613089453334]","[0.16034293199656602, 0.11160073270691306, 0.5260419266872369]","[0.21634635048331055, 0.16104477751581558, 0.6018328236737714]","[0.29652898177841225, 0.4901294657381748, 0.6617916714777874]","[0.2764235501304861, 0.5512511298277145, 0.8134425945257956]","[0.3125602681523485, 0.6774637416016304, 0.7778638214912008]"
47,47,1639136556679681245,2.0433479781411665,-0.64105302308163,-2.681199691682546,-1.3569014451996628,0.6024684423445508,0.2745186003990603,-0.2216766333570788,"[0.037082524305934686, -0.08343520332314817, 0.23229838306912304]","[-0.009538174984856467, 0.05215990698393827, 0.3502132021372054]","[-0.07458286496145064, 0.14647576248165095, 0.3989799395136989]","[-0.26515481435645827, 0.39880426725533985, 0.5355678115042926]","[-0.0710723201894781, 0.19303709514807083, 0.6660524831607186]","[0.11115451965797475, 0.07660528541827104, 0.7191819036723903]","[0.15567642750949168, 0.15357244099864265, 0.7379427696334943]"
48,48,1639136556779643711,1.4961296653730085,-1.782494444515965,1.263558379445739,-1.7930940179876456,-0.5109131651695735,-1.8868378557368508,0.7891346780863033,"[0.051916389244336364, -0.007895269345396907, 0.21360676847799992]","[-0.09330836081765992, -0.05078586377520725, 0.2671803242919607]","[0.056499873454490104, -0.07598569772462285, 0.5826158872586125]","[0.0777845470206509, -0.20482597567663421, 0.7025443620545442]","[0.2751164585022082, -0.3677828012585924, 0.6187458187882601]","[0.29218840441207766, -0.39101113949995947, 0.40276712063562603]","[0.5657409096409526, -0.4494781650515352, 0.5266611400846147]"
49,49,1639136556879536005,-0.10525707323416622,0.04748001798525081,-2.6255312472261045,0.18527809049393484,1.6952230536796418,-1.4151212543933902,-2.9429772853671814,"[-0.010881186416702784, -0.06927020517171896, 0.18298247062743672]","[0.08755069602017941, 0.05702028420823773, 0.3845045309019361]","[0.03319377803493412, -0.19242830548194045, 0.37135405758135653]","[-0.01121540396436205, -0.4502390872249715, 0.1809798755215054]","[-0.2561913470094572, -0.36715042447073415, 0.25102393151094043]","[-0.3549574331207256, -0.3500106344910025, 0.5322163050315237]","[-0.4316773489088454, -0.40083910460148514, 0.3547235765985235]"
50,50,1639136556979628356,1.0928277754922004,1.2774959840091515,-2.4904920687739978,-0.3225602330860107,-2.222128952721992,-1.5114215646654483,1.8520705402062367,"[0.0539098182545864, 0.09800811160381301, 0.18906743860413244]","[-0.058401762072263955, -0.07321523210594252, 0.27459463185207883]","[0.07229661710775878, 0.049346740229908495, 0.5968715114231706]","[0.024354314823994607, -0.05635166386751635, 0.6840343037637838]","[0.09604910425709105, 0.04120512104899729, 0.9216339698846654]","[0.018051202954238135, -0.0552086746533097, 1.2001001661856603]","[0.09502727646731993, 0.031826879375929346, 1.142288703552355]"
51,51,1639136557079528528,-0.11790675392000027,0.0896883245688791,-0.38894753462494025,1.9056160083456308,-1.2293962502824292,1.0142582026848492,-2.6495385451327333,"[0.08275602967191803, 0.027772159987828855, 0.22530723558204796]","[-0.054397396846806535, 0.01422338589851134, 0.2730283589197566]","[0.13017254267280728, 0.09191321378557674, 0.38443428101359883]","[0.17180873285865847, 0.27323895843882623, 0.41259589988924156]","[0.2514103872956844, 0.4379254830489356, 0.5443621650494037]","[0.4564835044875143, 0.6885357050539627, 0.521941854213181]","[0.4059239916949003, 0.5809800298993762, 0.6363652381138271]"
52,52,1639136557179548594,-0.050265379184737835,-0.15206595022214842,-1.6598883916834206,-1.878453623116933,1.7228006198583483,0.8880231488536414,-2.3712207573915847,"[0.09738119671142427, -0.05150134045438666, 0.15094620298900527]","[0.03485881585791305, 0.015098062237621453, 0.28923127754282274]","[-0.00996270925319626, -0.07055431702590174, 0.5898957670250895]","[-0.06320057852344341, 0.07218351975513802, 0.6864836747868375]","[-0.11416974185006334, 0.03293252684416345, 0.7376283592639375]","[-0.3550463387465342, 0.11665720544342041, 0.6100004434534321]","[-0.3853573454857038, 0.09630423288876028, 0.5931625425295165]"
53,53,1639136557279493635,2.048215148850255,-0.6016643227706344,-2.348563107350188,1.6752716555495977,2.6811916663365776,0.27668185716684857,-0.9601095165971616,"[-0.0070349946372203, -0.017515306843945904, 0.052745570535117386]","[0.06543719004779718, -0.046341983089863314, 0.4095489559719066]","[-0.07200237179346133, 0.019713704248471565, 0.5699959947665325]","[0.03191074179198518, -0.00826288066916464, 0.8111889736697986]","[-0.09581361462726035, -0.22366688416420905, 0.5842409434337156]","[0.01661463736293725, -0.37375007249641923, 0.5805455662544995]","[0.04102773813291993, -0.390968612266053, 0.5937303412845744]"
54,54,1639136557379498732,-2.3916803643199165,-0.947147480697488,2.410748923239216,-1.4456994249193913,-1.7223994661955564,-0.06675234094167083,2.643676115997541,"[-0.0615449915505087, 0.09759491454212128, 0.06823989110260274]","[0.07156304879217337, 0.07370793252228798, 0.3191144560559191]","[0.09862479512308345, -0.014044196496790479, 0.5316356114650291]","[0.04093393058838447, -0.1989875730054824, 0.7296488971851472]","[-0.05333495730795052, -0.13960882884339015, 0.7456650070739161]","[-0.15651334616192125, -0.008066900913241817, 0.8251771624439155]","[-0.29955156153372997, -0.09299968225064503, 0.8197938599263928]"
55,55,1639136557479619067,1.3686892094895886,1.9633987793877783,-0.5812107845059593,0.1685801528723947,1.9939244455081693,0.3589941997163746,-2.4468965433656105,"[0.06813514612084946, 0.075955650215609, 0.1734242341962668]","[-0.027669223968197588, -0.019910711127877526, 0.33700899138712404]","[0.0722791668267664, 0.046766151123680114, 0.4212756974355061]","[0.2726664240043837, 0.1299421458990117, 0.5940396248541481]","[0.4361009245430562, 0.12824232711646452, 0.4366833191990041]","[0.6773780960820097, 0.1778724987675614, 0.2976874496278203]","[0.6271385894190846, 0.20788573339595018, 0.33065909136727134]"
56,56,1639136557579632712,-0.09217127679307248,1.3680544418521907,1.4047894684052022,-0.7378858492542146,-1.129988444851479,1.3511286125555682,-0.4747853390617931,"[-0.0753789060178855, 0.01955571884128025, 0.08739959506337808]","[-0.09800382466194661, 0.029084962423836454, 0.2845829614763774]","[0.018545102435112926, 0.16671548262337865, 0.34304805193485055]","[0.12942360198551098, 0.35304969264860925, 0.19192613351262308]","[0.023786875386219666, 0.5196950892065053, 0.12397053955846701]","[0.03026041763032887, 0.693651782817376, 0.036920132177515094]","[0.10269298211912405, 0.8817314200381312, 0.13612757999412428]"
57,57,1639136557679525355,-0.7832079707940092,0.877999384500161,-2.0069781981371992,-1.5994115794396595,-1.1106368494036285,-1.875205213061769,-0.4640217435364109,"[-0.056084867963634134, 0.09147543649170155, 0.19550653903222964]","[0.05482479427303216, 0.03922903342146305, 0.2820529390958511]","[0.21520743184063706, -0.07516808984859931, 0.41493835451283595]","[0.3404065191561393, 0.034168585096323326, 0.3700450979014822]","[0.5729272099871308, 0.18672075160255674, 0.4036277125665486]","[0.7828327162710068, 0.21913631590787835, 0.4268066186133843]","[0.8186465763197514, 0.19827136248761656, 0.4009071517652199]"
58,58,1639136557779608699,-1.4783364527445084,-1.546492945112854,0.4454717322228441,0.8182999896185739,-2.4300767026485524,0.4184483404841917,0.08795593145509484,"[0.07177309343292128, 0.09872365616878265, 0.17189248309518657]","[-0.0940278365760694, -0.06724912143822119, 0.3080961000319632]","[0.18566622725520182, -0.128173735696482, 0.40887059431328265]","[0.23840110897598416, -0.17101879844345114, 0.49548868008526115]","[0.09144393477537247, -0.27053755385104605, 0.6395327952781312]","[-0.11899221105377468, -0.44696713327306836, 0.7264623115230084]","[-0.1716066392724503, -0.4969046998452253, 0.691225759876043]"
59,59,1639136557879484573,-1.3560145844569809,0.3929408567561219,2.12014267060476,-1.6541963687268333,2.3544666358842985,0.640741477777953,2.601639484823505,"[0.06675273410478327, -0.0027675025720048973, 0.0986309040850539]","[-0.055988859030581685, -0.058686614112468595, 0.3459983020490695]","[-0.04295103675624702, 0.2616032350653011, 0.3802371527967355]","[-0.10502347697208864, 0.30397118090349406, 0.40599441185114726]","[-0.08675936329632933, 0.5896246100327861, 0.29976624528093926]","[-0.2557252232381141, 0.6739705915461425, 0.14747596339855387]","[-0.16288242956995397, 0.6351270989075383, 0.10883156113739599]"
60,60,1639136557979536966,-1.1780436191409556,-1.4288699743436046,-1.2627743659986854,1.3630185336359582,0.933437747330292,1.1229454722866041,2.821135532850436,"[0.06391464399502582, -0.07021333906202441, 0.052460095988140415]","[-0.033524789866268334, -0.024128027903281547, 0.4204007273580372]","[-0.08107385705972323, -0.1475549637741554, 0.4815216195883331]","[-0.01957887838010474, -0.13384375053679873, 0.7369082586912055]","[0.2503917319096659, 0.04519562044669217, 0.7393157936533117]","[0.21541387797628062, 0.13605114050640393, 0.8179567085341163]","[0.30676142642985743, 0.11971364043558708, 0.7734068540222725]"
61,61,1639136558079526665,-1.093219961616586,0.6805537645750008,-2.6081800184992834,0.10038456388618933,-1.90255117541894,-0.8795196434835231,-1.3862617775246433,"[0.03521735953929055, -0.03470642425542877, 0.20845411000763578]","[0.05406221205995439, -0.06794747982991815, 0.41318009515293097]","[-0.17948276194207452, 0.2408876645822574, 0.3296173666651844]","[-0.21114130804251172, 0.32509938740975675, 0.3729973214973148]","[0.07646783714942461, 0.4934203193711474, 0.3035872234614444]","[0.03522953900119152, 0.6518196921798366, 0.31852654385634593]","[0.18799137023161108, 0.7394228459690559, 0.2692465553831431]"
62,62,1639136558179612915,-1.982153888284288,0.6304252247272499,2.7567755098347773,1.7054314097022265,0.3952664191022071,1.6083645570040352,-0.99381019677595,"[0.06223078893749358, -0.08628379667154641, 0.16513564148543905]","[0.029757385981518142, 0.04900310419273261, 0.3164157421380838]","[0.12589451807484733, -0.03216571459731468, 0.5014959994175867]","[0.05992092013658444, -0.18548034120290674, 0.7448919478188731]","[0.24945462460504653, -0.2849582363347245, 0.8218246924403507]","[0.2790984516744311, -0.5319031337754293, 0.8388008645797276]","[0.13423049843197965, -0.43627103202147494, 0.9305779297017833]"
63,63,1639136558279587039,0.683085349700796,2.0188268797228983,-2.6530509308228067,-1.807361061551821,0.6513281076313655,1.1266279222585052,0.5823602714128149,"[0.09783904050853437, 0.034512510418900154, 0.1800273631867006]","[-0.06211705738277928, -0.013538325597342119, 0.3708755142502475]","[0.036985619280517947, -0.08544287384320158, 0.5305763752274376]","[-0.1424789695913723, -0.28227841070029003, 0.6592296681251208]","[-0.28092503377416445, -0.37649161559320576, 0.48942294483285476]","[-0.27352375626471326, -0.4346150397254969, 0.4843275205187396]","[-0.3386883387532237, -0.47090316356194284, 0.42133497117211083]"
64,64,1639136558379574266,-1.1152680376801467,0.7204416960990963,2.300239190537279,0.22542161252211604,1.1833131125665175,0.346101726417273,-1.4145539394486786,"[-0.052759789988448685, 0.01446165210530366, 0.1960611337323154]","[-0.0008240388173726719, -0.023874941478359637, 0.40411003066686746]","[0.20122267954024806, 0.08232342382056357, 0.23939393959566946]","[0.2338089422298561, 0.16552469109732865, 0.08422812157239076]","[0.40106653738500064, 0.13162029353406823, 0.32210523673999447]","[0.37109912093633046, 0.11500385770356535, 0.5313948126769509]","[0.4919183751670798, 0.10873843165183825, 0.4617799991631901]"
65,65,1639136558479545630,-2.383518485161201,1.7990470723146004,2.8499119387745635,0.3132891655970509,1.2869200167129695,-1.6824351627273315,0.0061045916785866785,"[-0.011941220768624283, 0.013221671202986403, 0.13702648773973525]","[0.030895443323674932, 0.013682899215477648, 0.2831213941142906]","[0.15360671084552627, -0.1346717730587113, 0.5205792134315811]","[0.07761231107830649, -0.1798635818132895, 0.6279290393330459]","[0.2344109824660528, -0.36325716255505364, 0.811272329334983]","[0.24519694918611032, -0.5108018220397922, 0.8266834012525914]","[0.14751392739252073, -0.5176296492540112, 0.9777388860222938]"
66,66,1639136558579495213,2.694720263310248,-0.35664211676646596,2.257237529721914,0.4200723752398723,2.5601016627049646,1.4291914067762699,-1.182821488985926,"[0.0724445001136559, -0.07806809757638036, 0.18461572235669452]","[0.07066127323743399, -0.051353079006809105, 0.3612618628736544]","[-0.17751800257118663, -0.07877166010660962, 0.2617566836623711]","[-0.36653246854154564, -0.3488507030334557, 0.3153516806011295]","[-0.45198744432685983, -0.4022992229954188, 0.05113413248076443]","[-0.5553298021344643, -0.4983584793949254, 0.04154780330044907]","[-0.4346167801721668, -0.5969514235980397, 0.04633819881493934]"
67,67,1639136558679571905,2.5112852163723223,-1.2292022399495426,-1.1420881283016495,0.3588104156361567,0.1396358337835535,-0.3035762369420334,-1.756584197053528,"[0.0029395977170745334, 0.071602664931167, 0.22422706764684203]","[0.006350300330832593, -0.07225836418292346, 0.34618511981813926]","[0.09642720108324544, -0.12269715878777901, 0.5212209069536851]","[0.03984623037811111, -0.14769288640831893, 0.7242427454169506]","[0.1766798094253318, 0.008351585506383073, 0.8734605877214138]","[0.33251134909171437, 0.051178929609814544, 1.0749093564660883]","[0.2601990046169702, 0.16288996953610316, 1.0451296564027255]"
68,68,1639136558779457002,0.21447783337201493,0.4655461162567822,1.5078736366991419,1.359027453779687,1.2749595524105115,-1.4168856032928243,-0.5048434445027916,"[-0.08740563038777031, -0.0009702634621232436, 0.08351289623333062]","[0.022869038297868096, 0.011368033399419854, 0.25861382240264585]","[0.17599194042035823, -0.19678655441125797, 0.49611331546590487]","[0.21254335202823138, -0.31037320943412905, 0.5279856938338776]","[0.5038406146667087, -0.30483099025034016, 0.5939169041916066]","[0.6508921136786062, -0.6066173181477953, 0.4420642981503643]","[0.5682871976325574, -0.5491474904791694, 0.5094163542840228]"
69,69,1639136558879563430,2.175172691328546,1.1881991410973516,-0.8880833988976296,0.8264654391597319,1.7489606677422045,0.40464116951267615,1.944645409784696,"[0.048823862148989754, -0.026731396235719913, 0.120243305496884]","[-0.03912136734808922, -0.0065221784925081575, 0.3866772945405128]","[0.1326738339771004, 0.08243105301348462, 0.5234005131887304]","[0.13679228797297593, 0.06525210839891019, 0.7829966470294079]","[0.25332279671463215, -0.1395499296034033, 0.7853121810878141]","[0.3562158110721288, -0.34804272283974735, 0.8032551515720453]","[0.2877495506987313, -0.2650196460258701, 0.6355863848214507]"
70,70,1639136558979527651,-2.5917008796620573,0.33140396218803136,0.32129314849429,-0.18113673900457367,-2.1007037805794395,-1.2616187603004412,2.22294982171238,"[0.030036233838243855, -0.08963716428609539, 0.20400213141330326]","[0.04023978456273137, -0.05693773668732264, 0.4143174182184346]","[-0.04504243958878071, 0.12962014164629437, 0.42829165859339235]","[-0.3055593614730854, 0.24844735783969513, 0.549618838809149]","[-0.3680270781244382, 0.2816306273200481, 0.6002964952302227]","[-0.5241972636725563, 0.4022018342312754, 0.7062665504683006]","[-0.6015193560907517, 0.2820805471263265, 0.8737566905877963]"
71,71,1639136559079625884,-0.8480076993615202,-0.11262183242326418,0.747655280362959,1.7980766768414853,2.7316272605864405,2.0085328127477067,1.7603440001048294,"[-0.08604464482565456, -0.026839169789351025, 0.15149257217098502]","[0.07912099497922698, -0.0995539203347133, 0.43107744999166026]","[-0.13268747694825905, -0.13070885622662518, 0.49281083874064285]","[-0.15757785669902957, -0.13483127164188355, 0.6757126720432843]","[-0.19005110551256177, -0.1624079073929553, 0.8185374008632126]","[-0.22966211710019435, -0.24773297239709324, 1.0554036904066246]","[-0.2988503414456071, -0.3124238464674804, 1.1593205727629683]"
72,72,1639136559179546851,-0.2121915018004996,-1.1251549966761178,-1.7837054879336152,1.5030741707288002,0.6034760901848101,-0.8737764408485291,-0.08207246388699563,"[0.05966906885694678, 0.03822871055049695, 0.21886286435055663]","[-0.04750392406800775, -0.04365684984825281, 0.286314733945561]","[0.06725673569374524, -0.007355603576401911, 0.5105220171133189]","[-0.12897793190996992, 0.008461487427788215, 0.6680915878216563]","[-0.3043157683805625, -0.024129312595116928, 0.732562568181403]","[-0.35641877781682774, 0.06868966018159713, 0.591503153911093]","[-0.2592511041777158, 0.04115424861816226, 0.4887224626830862]"
73,73,1639136559279522042,2.0293214443869885,1.0878783255280555,-0.5189716582722603,-1.0463487562146894,-1.1457253603395583,0.7683461037554458,-0.8818812521857002,"[0.03010157936368394, -0.07674750952218229, 0.16129431573965317]","[-0.010455608541910083, -0.01838595790713016, 0.29004264389633994]","[-0.14672404375446582, -0.048535069463591235, 0.3696289152460491]","[-0.3813959756951562, 0.17567270236799654, 0.5205759128489367]","[-0.2356453678698192, 0.2842351173245259, 0.5635675853308679]","[-0.4073101825008908, 0.37641546052432096, 0.48875015566903834]","[-0.19843227408858471, 0.46715039311697215, 0.47254502653489633]"
74,74,1639136559379599320,-1.612963085015271,0.5245653530629846,1.8189595085682064,-0.1911677564369565,1.1407941203889815,1.7620713707197333,-0.2362230223267429,"[-0.04741456795398256, 0.047093339986161886, 0.0951775900844486]","[0.01876790737013019, -0.07944916872829755, 0.3383832118422005]","[-0.007872081180262572, 0.08803600214907592, 0.49966721813398995]","[-0.19685176875578075, 0.3392725726474657, 0.5653777621750526]","[-0.1006955237871533, 0.6021450796325107, 0.5094202785961712]","[-0.08140805373616239, 0.7160300355517148, 0.44791035995177286]","[-0.17666523781704624, 0.7166163068577883, 0.3648208996361217]"
75,75,1639136559479521113,-2.4950845966985407,1.700282080730902,0.07377047115275248,-1.0639556439101896,0.4317932459178877,-0.6579404616259183,0.8650094234013914,"[0.043426911401148495, -0.04225895688553594, 0.09706826683559558]","[-0.032406102368947025, 0.04529145506347883, 0.41750898481258664]","[-0.0027728386571694357, -0.03494708026032907, 0.5272573762695052]","[0.09154881186128624, -0.10094684156479046, 0.6461916757617658]","[0.10609395508600737, -0.24978822789937444, 0.9321142215973761]","[0.11709677583312553, -0.32530254952927623, 1.1083366016058254]","[0.01422514707045712, -0.37157078871041005, 0.9779630913658065]"
76,76,1639136559579509398,-1.7736478654837184,0.09429545439375486,1.3364749090604922,-1.8192920065284703,0.4930040566585552,-1.4108440292338038,1.6176295164659051,"[-0.022342833051778463, -0.0036969880336964974, 0.17489835219050875]","[-0.022950848833487848, -0.019970038503479018, 0.315010253309567]","[-0.17992968079644822, -0.2049409372021166, 0.32014347067833615]","[-0.27078628201666155, -0.18602731358945498, 0.34516064874698205]","[-0.38928531222592383, -0.33280011902289286, 0.025781860494895267]","[-0.43846658139057615, -0.3748962139265172, -0.00859191836839232]","[-0.43757054095569764, -0.3948511829152345, -0.02766917594345307]"
77,77,1639136559679503932,2.827883288322373,-1.8605016907623533,-2.29118072145362,-0.989906359932096,-1.3662334270328411,1.264012147277218,-0.18259849045191912,"[-0.005214361331059491, -0.08475600378117161, 0.1908509691185275]","[0.00711917906280639, -0.05227239684501698, 0.3467636693452865]","[0.008594609542365553, 0.03967750717203996, 0.5673177473482912]","[-0.033783982957154866, -0.025819528450611286, 0.7048530580718699]","[0.22584090812074925, -0.15955784264100936, 0.7505406202214658]","[0.31597391184125695, -0.16281470944959395, 0.5145944344454866]","[0.4053393334580193, -0.20486797526405529, 0.7664368297493623]"
78,78,1639136559779499117,-2.5708305310164064,-0.3194082839289334,2.743320378770504,1.450970736761175,-1.303652571424044,0.2841239860183329,0.8572560416301438,"[0.042301051800730294, 0.008744313741996265, 0.16811140761669474]","[0.05033444860162211, -0.0547321350930208, 0.3664936749887685]","[0.09457792032847175, -0.10599165289876367, 0.23279462515342958]","[0.3368230584933559, -0.13357675600528301, 0.2584503907073197]","[0.5072605842109342, -0.08537588424301003, 0.0039564439089428]","[0.586326455020902, 0.08864250993300371, 0.044093189792481724]","[0.5876467192561199, 0.12960097654457695, -0.0499264817347128]"
79,79,1639136559879607287,0.4674751361708118,-1.7810642256476727,-0.2270963995010313,-1.2141770802164882,-2.8410827843526825,1.7948725679280115,0.5735533296324458,"[0.021184379171607984, -0.018855773935572907, 0.1590697447996059]","[0.02303328343721873, -0.008627417060396592, 0.3462409141728303]","[0.13103672492856452, 0.12102021622227738, 0.6293652507145807]","[0.03951367569764122, 0.09588225199182146, 0.7701156058028207]","[0.0002918551892870658, -0.0121193085128736, 0.8930169467278312]","[-0.3740036026164728, -0.0067151672981123345, 0.8553547451328127]","[-0.2931580320069102, -0.10182653894359044, 1.0132512739691093]"
80,80,1639136559979580004,-0.6506922725981847,-1.1788266833053238,-0.5962781161324844,0.2664807497897872,-0.3892570807259403,-1.4059096757746483,1.7800809393961,"[-0.028711818359522447, 0.0009884676017095, 0.1125579722224967]","[0.09890698078016003, 0.05599755675755824, 0.27077288824118473]","[-0.2529795318506306, -0.15560637120327994, 0.3306666556687845]","[-0.35275525073249997, -0.0812781651659176, 0.294062038713861]","[-0.37319542025498126, -0.30996600541535724, 0.49966609278101914]","[-0.4891981030150074, -0.30142201419872056, 0.6008020216437168]","[-0.4820022897069062, -0.43015530914910155, 0.5498041589669802]"
81,81,1639136560079481194,2.649807357192324,-1.8992056268347288,0.19713090661190727,-0.4685577935549856,2.3289934043703657,-0.014442432211049015,-0.7659691016447154,"[0.03636049009587195, -0.042261513569083003, 0.1620040420834731]","[0.006085947211013701, 0.011938508299992365, 0.3696808968585736]","[-0.20594723006449142, 0.1235639510133474, 0.3833753962014945]","[-0.2622993946465994, 0.2883243218957575, 0.5579895547189465]","[-0.40745726309730357, 0.2836608570291322, 0.5693184793836888]","[-0.5830289896519912, 0.5504925913749115, 0.41625094408157476]","[-0.44842340857135077, 0.5989541311444072, 0.46521640900418443]"
82,82,1639136560179689152,-1.5537258366125055,0.8898463538725219,2.9088686015599605,1.253679334320298,-0.36640542331694137,1.8723647703606368,-2.5473620405948467,"[0.007395412639688028, -0.015678959337526867, 0.09444949800524055]","[-0.04160000219623559, -0.027526371246950412, 0.39864631822947133]","[0.13573798917157393, -0.15883464306765652, 0.2700049069642805]","[0.3120620137004189, -0.24865902782530433, 0.13010201572414765]","[0.5500154188645139, -0.3857562666122151, 0.2562512701047529]","[0.6789535841857302, -0.448672585403498, 0.25250622751595925]","[0.7476151922461496, -0.4066651853605182, 0.34954597891457556]"
83,83,1639136560279471875,0.5751320148828043,1.1843606515592051,-1.3321683805371969,-0.028246865826519137,-2.178314158241744,1.6339871658901957,2.194588861761647,"[-0.014604605276320324, -0.051141464331083686, 0.10833913681669216]","[-0.029440283976087323, -0.012543266885815358, 0.32296042661539004]","[0.06021503772073464, -0.1041538596468772, 0.38107168878713976]","[-0.011988955510379911, -0.2184659433429515, 0.6114286166467459]","[0.05813308393825402, -0.5265870871506162, 0.4208802053325128]","[0.04777486763907897, -0.5719731484300407, 0.3969973071617915]","[-0.035696543581832774, -0.5864182384557663, 0.5208106015208447]"
84,84,1639136560379649380,-1.3125861192040649,-1.7933341588567833,0.4843175029204621,0.04049487063971125,-1.0677112709875372,0.4307921840342584,0.5234436426018791,"[0.014295042575869632, -0.07226127225717557, 0.08909588159003547]","[0.04540309428842368, 0.041781309867326866, 0.37286395986316856]","[0.09830459888002334, 0.14599114509940775, 0.4416151751793794]","[0.35103633073536816, 0.27622580072556746, 0.5660774825648851]","[0.5268600427081823, 0.35183344439562586, 0.6481656729042069]","[0.6238862687781954, 0.5205457760567785, 0.6587914268101178]","[0.6005957871306176, 0.35359382908390863, 0.7658626959427451]"
85,85,1639136560479448251,2.8652117654660443,1.8304632502691789,-1.5135389401243111,1.4214137681798475,0.6728572497165626,-0.07203257244823646,-2.5551306122304025,"[-0.03682157791332649, 0.09605611446093637, 0.22590965500882038]","[0.04887007738562588, 0.04326181048316874, 0.27141642641098396]","[-0.02570383699887785, 0.14051171748945968, 0.3811920196175441]","[-0.08334703879741479, 0.42557307949642276, 0.2380088279492783]","[-0.15826856012932355, 0.6636688948026357, 0.23345062489849439]","[-0.33892812446918297, 0.7824659528268892, 0.20335115616527633]","[-0.23484061206084647, 0.8188855544356585, 0.183713151728608]"
86,86,1639136560579600170,-1.703842125309206,1.9535214092446425,1.5048177336041615,1.2347068876064289,1.9471501321267968,0.8249407724269711,-2.6893921810384365,"[0.06675660710229295, -0.0749592007685546, 0.1619149778113966]","[0.040361556878844844, -0.026242206170490136, 0.31457552491226454]","[-0.15229277443320935, 0.13168652578775, 0.32338393298603774]","[-0.37257118608387685, 0.09544584789950886, 0.29656119174861895]","[-0.42004775704991665, -0.010678393386354762, 0.18233355639294951]","[-0.6715845248045345, -0.19572189424183828, 0.21606696872309578]","[-0.6332807107022396, -0.3223231771534679, 0.2916607764789146]"
87,87,1639136560679522586,0.3895489712870677,-1.2434133606635882,-0.4578318664133243,0.7246952430824307,-1.250043819044714,1.6731665942694145,0.5723147172512175,"[-0.0722281396074934, 0.025862927158496193, 0.07661973820374174]","[-0.014983801237025874, -0.05132111880228424, 0.3032188209904944]","[-0.008105762098332095, -0.09926528409809422, 0.17928375311039857]","[-0.029040477296772272, -0.2947404174238254, 0.1258310107936328]","[-0.30900255020097966, -0.4208195797886658, 0.27400813561961185]","[-0.5207543668312062, -0.5490503278973295, 0.09016886144888525]","[-0.5524806714664228, -0.5434320885492849, 0.12688736978462717]"
88,88,1639136560779552555,1.8304114112999768,0.6665340907785327,-2.323631067945123,0.4833140924204944,0.6356457032731431,-0.4111796913878541,-1.1427452527371478,"[0.07024620584912351, -0.09477208091139494, 0.18072049877209498]","[0.08743953963718154, -0.081379246361172, 0.391998911149686]","[-0.20199706146387195, -0.08568851076225543, 0.43786135382188857]","[-0.40587820919412965, -0.1561295629374455, 0.48678558851435494]","[-0.5886314488245659, -0.2118505631762538, 0.37841322055990717]","[-0.7377988531980747, -0.13290169608364774, 0.2888822644034721]","[-0.7959421534076653, -0.2528742060482888, 0.29870470072105426]"
89,89,1639136560879533582,1.0823477679676619,-0.7701611203614753,-2.836708905902375,-0.16114847647416594,0.7214073509596717,1.1561141648082052,-1.1659678068457533,"[-0.035641044209738404, -0.059710502601140684, 0.13358140988493938]","[-0.03644873753886186, -0.06999914795265566, 0.2408723120183232]","[-0.04183756221791098, 0.11680004996767875, 0.5327825923385411]","[-0.04920582019156719, 0.2731942271755531, 0.5790608343676622]","[-0.19748666677248478, 0.3905154413306595, 0.7446455303061527]","[-0.3278907780049677, 0.5532223343437919, 0.96231878805352]","[-0.2909188583973526, 0.47104800726185575, 0.907312516634858]"
90,90,1639136560979704469,-2.7558733067099155,0.8020981030644823,-1.3871795952914174,2.0209702286078355,1.9222575615381632,1.6081194945415782,-1.6596808718740157,"[0.0802834602442854, 0.09193012357853207, 0.2110580342920222]","[0.06335063937602257, -0.07678132175851285, 0.4333128548587629]","[0.030712163266181744, -0.13179261802992961, 0.5284300636264669]","[-0.07979365814626437, -0.272320427409287, 0.5817324112156964]","[-0.18278448830785318, -0.3684692198657735, 0.7235273108564101]","[-0.330263938831739, -0.5922821797362122, 0.7376348519910373]","[-0.13672418759721455, -0.5566623389824811, 0.7641196859344609]"
91,91,1639136561079505426,-0.5828900474686844,1.7649948206140165,2.624986854467397,0.37167315833852177,2.0666693557511584,-1.0586423252228,0.16455860441471204,"[-0.09886951629986666, -0.0792394592410328, 0.12312182716388874]","[-0.02730837809314616, 0.05017707837507266, 0.24214271402152962]","[-0.13494547407377416, -0.030502244413897726, 0.45098120474027004]","[-0.19103900817882763, -0.1921518255071804, 0.6819529693670643]","[-0.18892288415374148, -0.18878110937879303, 0.4846069598406709]","[-0.06034462607153609, -0.35850538720874325, 0.6187659146001387]","[0.054446555276649794, -0.31367030301295623, 0.40934614444285594]"
92,92,1639136561179563861,-2.17515910015956,0.7836653079355158,0.0958147075192608,1.9648546693929787,2.0809314989181362,0.7343057107737412,-2.165377725972121,"[0.06741604066645657, -0.06202085601013388, 0.24790291110306256]","[0.04564506325546901, 0.08025539077723248, 0.33756783346550034]","[0.16691141880890456, -0.17452247415173672, 0.3928023595873802]","[0.40957522385213496, -0.2507122037304065, 0.29712573829677336]","[0.4332425151133904, -0.31268678534677546, 0.1047960461986997]","[0.6299886724036877, -0.3927301623739788, 0.09600438616748033]","[0.6221962295095179, -0.3660135463171081, 0.0366246393958906]"
93,93,1639136561279592903,2.0119084158982266,1.4760200756543034,1.420472984523832,0.7905112095206892,2.3333257887404093,-1.4321527874316184,2.6606975449073818,"[0.011561134962828026, 0.08469060112658404, 0.15311598685945288]","[-0.02131805840413603, 0.06647220176245497, 0.27215632471590107]","[-0.02789080629586245, -0.08281501660676191, 0.43086452971900346]","[-0.21254768972257862, -0.17252740636240535, 0.6322983676120946]","[-0.07514839585473938, -0.1433326349324893, 0.6321479965087523]","[0.0828832090864327, 0.04151353671992915, 0.7600053034919579]","[0.11112922418150811, 0.1876117870108874, 0.6949250630659474]"
94,94,1639136561379483186,0.6157216549372935,0.7897359155470034,1.4219690695328144,-0.8208207896048567,-2.355737197893927,-1.7955023037208542,-2.869740537754837,"[-0.03243017005457838, 0.05004948765417977, 0.14454095082372612]","[-0.06443933602567793, -0.04132104782770291, 0.287863360446728]","[-0.06468542506426471, 0.22346588906570522, 0.3658109991744961]","[-0.08189523091813201, 0.33311215692200724, 0.39354088326100456]","[-0.07174562493364647, 0.6195127879653604, 0.40749636912744647]","[-0.17737740671641666, 0.7131058947449169, 0.4638269125886952]","[0.009816455437117497, 0.8681550562493152, 0.4089690219275168]"
95,95,1639136561479668321,2.431612006889092,1.9265176108684567,2.872246362636925,-1.0119028214616823,-1.4001513013164453,-0.022700846115429663,0.8906582648060497,"[0.007540613049714102, 0.039579772702373235, 0.09008144728881515]","[-0.02190817568013967, 0.030442512496181184, 0.2729150872638418]","[0.14675357784553283, 0.16591852437883703, 0.5346122593679099]","[0.22199011458320225, 0.10574739515040109, 0.6549762512600563]","[0.2292605031389184, 0.29404201011884656, 0.6687311282656861]","[0.2337496724961916, 0.5244771327208785, 0.814789301394319]","[0.12828987350839477, 0.5690614068799811, 0.6973854447804068]"
96,96,1639136561579529269,2.5675732647745906,0.939358793297584,0.8769443455303878,1.8659980591247791,-2.580514813815588,1.9842358276926928,1.1897435608021223,"[-0.09932617544564297, -0.0034569420962194336, 0.16265493258460872]","[0.06204263653634451, -0.040374801643114175, 0.2542358182311516]","[-0.06742669365003588, 0.04542072568244203, 0.2324983010997795]","[-0.259435204136833, 0.3341632817351181, 0.2706296666569256]","[-0.38326927924723925, 0.2979792527842131, 0.33222016996350734]","[-0.523396011302524, 0.4635970838447274, 0.43455253751387984]","[-0.5810377179386936, 0.39385359059830494, 0.4955770668230874]"
97,97,1639136561679635500,-2.507250559197051,-0.9209924891889398,0.09279229031140313,-1.6691093584743593,0.8668571776133169,-0.4185105928206769,-2.118851091758189,"[0.0365189926145209, 0.06636265757839531, 0.059235762862944644]","[0.03155011193576191, -0.018511787907005143, 0.367346578172676]","[-0.1330392459741448, 0.18164685188373353, 0.41958610834502214]","[-0.31992310998494305, 0.14338974289623435, 0.5743529592963179]","[-0.136875992866072, 0.264098496437815, 0.736505596583728]","[0.040919262268076115, 0.16731870617257566, 0.779735039293714]","[0.1544378108276913, 0.2681240302444683, 0.7068848001173297]"
98,98,1639136561779640255,-1.3344026173273271,-0.4174898459228642,0.03896063710795738,-1.5831246526843252,1.57346398634929,0.3881900521796573,2.3459278934972896,"[-0.024437680845883224, -0.01938466825414526, 0.19046731188879218]","[0.033414091999043244, 0.07974698195315857, 0.2725103759447972]","[0.19673796107556113, 0.08853789772260676, 0.42358347023759396]","[0.32687034064569276, 0.15234579702033665, 0.5110531026676564]","[0.10371689217285299, 0.010624400147388913, 0.7981773137362872]","[-0.036298814479247946, -1.2786006746642181e-05, 0.7646144556737123]","[-0.07759295071708022, 0.053895045631873174, 1.0145523470288946]"
99,99,1639136561879563702,1.0544510705967909,-0.052446688713517535,-1.3161783205667,1.3047005712550286,1.7315192834152715,1.1457941113071626,-2.9859729921535285,"[-0.05799019099897662, 0.06911408730789513, 0.16528903742490342]","[0.041590356513365394, -0.01830844801082268, 0.33450262333775]","[0.03077882694424519, 0.10199129058779757, 0.5726225584725321]","[-0.07809357644119905, 0.1799884123004813, 0.7652833124505609]","[-0.006860943895042777, -0.0618846822434131, 0.7793233394756343]","[0.0578614779099658, -0.25453409517798037, 0.8026108386937453]","[0.049663748913594485, -0.3145147869730865, 0.9385848288995037]"
100,100,1639136561979559905,2.004516106815101,0.7404127951289965,-1.6582783226938511,1.0976873925345971,1.4882847268464758,1.1619396641339428,-2.7443601304876712,"[0.0664828236685171, 0.022714472171792087, 0.11304735645405009]","[0.036230012582432226, 0.029803353226775766, 0.3027803004477402]","[0.009566007925399033, 0.045969201765690665, 0.6416868658304429]","[0.004728927238466976, -0.0006155117280494463, 0.6901732048504117]","[-0.25593613462615694, -0.012508385817403891, 0.7831585278388601]","[-0.28049675707394806, 0.060512117883770034, 0.9132159588645841]","[-0.31499375080245867, 0.23212176055058, 0.8281689953937651]"
101,101,1639136562079651044,-2.710553112312424,1.3714244639952735,-0.09124325854831428,-0.08344513851166369,-0.4217346676545284,-1.7480552579849178,2.484564555990319,"[0.08799172512228909, 0.03278980884234968, 0.0657147328604988]","[0.019652992777519085, 0.015308722667462183, 0.29840068448018175]","[-0.1058554169954415, 0.07665596626067486, 0.4328554673939735]","[-0.04241892487448283, 0.2624121606196383, 0.5875608565504904]","[-0.27061219229134165, 0.17594499510760384, 0.7643561541334657]","[-0.4527481783760854, 0.24765208533068736, 0.7824994565350906]","[-0.5783869353968756, 0.31418207572644774, 0.6838860279810383]"
102,102,1639136562179601392,0.19712244213784305,1.6230548654753711,0.5472745936618466,0.9678550676026321,-0.9107540455072748,0.4223244782468787,-2.10004805020014,"[-0.09489908540648179, -0.08653664238129502, 0.18623759268763504]","[0.03482897627617115, -0.03544183279105262, 0.40831301075125404]","[-0.23606517276223724, -0.06618341251498508, 0.4192769996728014]","[-0.3980053943419418, -0.14885294062011065, 0.4349698364988253]","[-0.5936241160707177, -0.20666513258919805, 0.4408204658199757]","[-0.7839274998407825, -0.27162987741143924, 0.5173979015512277]","[-0.6607563307439067, -0.35965628018152196, 0.5619817294903885]"
103,103,1639136562279664553,0.6787446713009961,-1.990008771022095,0.1280999014760109,-1.6289040619495332,0.2438715021891276,1.7150529149136906,2.7157294889870003,"[-0.0657033320088362, 0.035726139710693904, 0.13137769406684482]","[0.0046467480096453765, 0.011211934807396235, 0.3516697199671682]","[0.22850296695773437, 0.06304669704666126, 0.40940382055764996]","[0.3729493629410747, 0.09101351502512225, 0.30690151588443554]","[0.5460891067440081, 0.1088278026142881, 0.40205929191798234]","[0.6384002345211288, -0.005752365962560846, 0.684486389397149]","[0.7231965088043479, -0.02748038089129213, 0.5689578939603478]"
104,104,1639136562379497951,0.7802887082461698,0.9955627900955636,1.0514676707978463,-0.0927320144668271,-1.0159519293512624,-0.9116368599472492,1.716667370940112,"[0.017339089994975923, 0.043042840896889055, 0.15932475820525796]","[0.03160974013069738, -0.010409314210833865, 0.34683943970907927]","[-0.1496003045223249, -0.21272254082039954, 0.1769660407860436]","[-0.21379000072016613, -0.16847877672595596, 0.15077726900251787]","[-0.39584160986657135, -0.2051728104340403, 0.453360455681245]","[-0.37884880799716364, -0.3740326871312339, 0.4897131266475131]","[-0.31792788725897736, -0.1737241563739659, 0.5072402108236971]"
105,105,1639136562479486954,-0.6207250607079584,-0.2909311650400952,0.8675543551529068,-1.3479432622982708,2.823240691215998,1.2749009192279268,0.3733929567084786,"[-0.018227569684994213, -0.0318352610808827, 0.19101421729725526]","[0.050415742559472246, 0.010072957944545012, 0.37215544983831217]","[0.11990116735992681, 0.17463915726327706, 0.49123329578236063]","[0.33637348893077046, 0.23313891908712692, 0.6502865037167419]","[0.3196719877113332, 0.401793033577175, 0.6827610824240111]","[0.4968901083101502, 0.4148835418045079, 0.8371771525861921]","[0.3695438425585181, 0.5393096642453635, 0.8027436715535726]"
106,106,1639136562579533989,2.7329528267080696,1.6301097248150411,-0.8095317399363569,1.6518406343576628,-1.4589657690436368,0.2653513203936999,1.4270750933258711,"[0.055343418870952114, 0.005406236544461063, 0.17993090983226118]","[0.03715835621246371, -0.025977489355718378, 0.4180526619160371]","[-0.01616520524210297, 0.06485221360540533, 0.46051375236441194]","[-0.1846430455070318, 0.15104572653381668, 0.7385193321270416]","[0.10636815292123566, 0.037289667443943686, 0.8970243592854782]","[0.2874911174259179, 0.1643240833288968, 0.7798154830655563]","[0.22028540389109702, 0.2543624243036316, 0.9135767728478552]"
107,107,1639136562679512138,0.5243190872284562,-1.1559837591426203,-0.3619132764314981,-1.5720532192816057,1.0987677711696962,2.01998302559334,2.766697675093655,"[0.05935906190366043, 0.05408259056028855, 0.0973817387210711]","[0.09341386186149614, -0.03149647428277031, 0.24478306151762236]","[-0.1332282484897599, 0.026328062267371354, 0.24650832970674058]","[-0.45110520406270227, 0.22933639476391782, 0.3225281828107724]","[-0.42345640014277697, 0.0006370594181513492, 0.4135471816611008]","[-0.4566760238150742, -0.13485372288686956, 0.5088863926999243]","[-0.5701564987472303, -0.20532649177034598, 0.6601018134384785]"
108,108,1639136562779588172,-1.294981152311287,-0.28094697253852496,1.6907307436697905,0.5804440173577623,1.186970748723454,-0.8926639375542063,-1.9310543289326216,"[0.04469940664763844, -0.020431290779664768, 0.19039779022108133]","[-0.0538173668174913, 0.023735205225169656, 0.38887432523118376]","[-0.2016555194529932, -0.1601713407884429, 0.45934963652826943]","[-0.2754232716137395, -0.23617588651721935, 0.46346726300405855]","[-0.29719722507160856, -0.15179984086717416, 0.685075280461593]","[-0.02940572322559571, -0.29648257823290824, 0.8376886224200656]","[-0.1966771403434672, -0.23208238122150454, 0.7930704070669035]"
109,109,1639136562879527153,-1.3721517541875736,0.295893903839171,2.2554928681467143,-1.9300134363330617,2.2549705272487555,0.4340397712514124,-0.4217833895384091,"[0.02148364001891613, -0.07950665793900286, 0.1374378477412865]","[-0.03121991269678144, -0.09217424014353921, 0.4317387892031624]","[0.023309365420827628, -0.027061524553604527, 0.5441801143128938]","[-0.015562924542561547, 0.19278626858983666, 0.7716009722209944]","[-0.17393038744393746, 0.06866211336747072, 0.9107777264830227]","[-0.23540860250354903, 0.19385009808428694, 1.0890726142448777]","[-0.338795068361733, 0.030527035823286044, 1.0318394147118506]"
110,110,1639136562979522629,-1.258108328358227,-0.6171934604716558,-2.2565653118846107,-1.9662971228195207,0.9574683297179098,-0.4738799977221393,-0.06411596133433006,"[-0.007736567945004304, -0.09077334481670074, 0.16086036672758863]","[-0.02815797909186309, 0.06769534863877763, 0.42331810036366535]","[0.06836987999743432, -0.08561613088415923, 0.5129252083374628]","[0.06935656370176371, -0.10814532668733533, 0.657880564382199]","[0.10070765608726678, 0.0513134316671157, 0.6880039258609731]","[0.2709545312016095, 0.24669559558035323, 0.6326337943102935]","[0.1829683858461303, 0.3410623048679487, 0.6510089805899243]"
111,111,1639136563079595249,-1.230185984005987,0.5757475406673183,-2.11199219023662,-0.3710306486368471,2.8951564677490262,1.65362062028144,1.1788345819895336,"[0.05572467692504901, -0.026250310186317762, 0.14947668559606767]","[-0.026313993787771585, 0.09011268817729136, 0.33642251941487245]","[-0.12399917457914823, 0.11009290424090147, 0.44827458947969157]","[0.004505740918528109, 0.1855977020223054, 0.568646610165811]","[-0.1555695983837488, 0.14523597561576446, 0.4953725822831438]","[-0.2740464937318655, 0.2787546368836601, 0.35773000909952657]","[-0.3871351871762062, 0.18419010569110386, 0.44336849064925477]"
112,112,1639136563179596021,2.6566626393553845,-1.2786185956897596,0.8452844007489264,0.8588566814811718,-2.06386132363377,1.1093905792146308,0.4642305259638753,"[0.09328191235577954, -0.053541055721632425, 0.11811457480132978]","[-0.05236069326057555, 0.018967758024434987, 0.24083663224000568]","[-0.046850273880806835, -0.02771547285314145, 0.45185673394790343]","[0.00023970797929089016, -0.12027272581537035, 0.5947948804631913]","[0.056672971518672524, -0.3596190618629027, 0.9436108886577536]","[-0.03120804394781631, -0.45057854028654837, 1.0593573945536217]","[0.13172419320282389, -0.3962531532131556, 0.9360711013630489]"
113,113,1639136563279669231,-2.706971092540685,0.8622862647057681,2.6152815671181817,-1.5248433465912687,1.7684365508419062,-0.5440747702919133,-1.3656716063891483,"[-0.035509943732748614, 0.06256694435394704, 0.08117686083393824]","[-0.025268138711411398, -0.056775379111197566, 0.3783145163356444]","[0.20072502886022775, -0.1547629384430115, 0.3220832566682042]","[0.42161160903309636, -0.10581529318868187, 0.463351016809691]","[0.5957475104193359, -0.15484070372687825, 0.3470194568831886]","[0.726772062687861, -0.10472394455150011, 0.3441420293898286]","[0.6914979934509206, -0.07837713006573388, 0.29066691631805786]"
114,114,1639136563379643786,1.658145921072109,0.797187691495187,-1.5872918489538517,0.6889403218173005,0.7911153056341047,0.7590168478067838,-0.6346069645770402,"[0.015666461463457116, -0.051929378393292924, 0.13561607654567248]","[-0.020761956785903195, -0.05710842135903275, 0.2534514928500757]","[-0.06659518070169053, -0.08584408549484235, 0.38815775960068405]","[-0.32286332482218344, -0.21392772727000586, 0.5837590647661779]","[-0.1676220771675512, -0.2704081286199576, 0.7224083063502926]","[0.11401267359173682, -0.16545984781596312, 0.8554263038001424]","[0.005291138811063516, -0.2565580985719958, 0.9218019558710683]"
115,115,1639136563479534105,-1.2213896285974328,0.11351692900806133,1.60392979710103,0.8409226704913881,2.5175570037928967,0.6196378384743255,-1.6555920365943446,"[0.023490153511460343, -0.04815824497520431, 0.1869518711335311]","[-0.0072159319541067165, 0.03709647343262736, 0.314996155870869]","[0.020311357736669332, 0.18493412034523052, 0.48987305752858107]","[0.03646244586273851, 0.3262612943198737, 0.651723771945556]","[-0.18590703351121385, 0.31255357093268904, 0.7151747698516295]","[-0.3054609482473872, 0.5650751992819115, 0.8543497932046759]","[-0.36714577741831034, 0.4638157969334492, 0.786519434659066]"
116,116,1639136563579605708,0.7227537774408619,-1.7133337171700498,0.951353041637138,-0.7674359114909572,-1.6108915012396832,-1.603141998664943,-0.8721470255966439,"[-0.022016577324817224, 0.04212636852354191, 0.15197432214110165]","[0.04420536562406213, -0.051697405651365824, 0.37882404087532523]","[0.06139044907037823, -0.025151336357880163, 0.4746493011380315]","[-0.00016816142257162874, -0.14237788418323338, 0.7913120150961462]","[-0.04483359736328446, -0.1211026137477472, 0.9172533595885258]","[-0.21861260225069618, -0.11979190836511455, 0.9671923288672675]","[-0.3264042196555389, -0.24712415095327045, 0.9797109130703056]"
117,117,1639136563679566506,-0.8897691661487439,-1.171595170757732,-0.22182381161774867,1.9442754056731952,1.3197182245918673,-1.7936630504289826,-0.057637703691402635,"[0.04412087459293276, 0.09337699526739615, 0.09544727192218318]","[0.004580722820966211, 0.0710167369554829, 0.3922528109022944]","[-0.24376406609060502, -0.059308983276911684, 0.3437908836438131]","[-0.21484995145135466, -0.20776573993138855, 0.2226842721538012]","[-0.5226331776498849, -0.37432715397470157, 0.37000195443323675]","[-0.6931148580529213, -0.4020419441606266, 0.35367097852343504]","[-0.6464147869707272, -0.3109408736051457, 0.3946278166642463]"
118,118,1639136563779479793,-0.6457595483521827,-0.9993076548924462,-0.5306218991856021,1.1383638073062028,-0.7051347852915875,1.8608285814446155,-1.684165177995936,"[0.012681809122671264, -0.017228850998151825, 0.1630221041162873]","[0.059654876863197565, -0.05332722431565327, 0.365584258680696]","[-0.15956709891999682, 0.18955159801202814, 0.45926990797735323]","[-0.27565390208518037, 0.3476485482288281, 0.49559084744704207]","[-0.1735942833488026, 0.22686889277450992, 0.3569781969080169]","[-0.19809101330822787, 0.3805160012349533, 0.02022733978516518]","[-0.15556118953637346, 0.23336237587474223, 0.022733226608664656]"
119,119,1639136563879881969,-0.8810996723394444,0.11671921351990068,0.19240552093370453,1.6876199502065,-0.6252373676517697,-0.7723096040912347,-2.512307629943436,"[-0.0906594908448108, -0.013623497115403555, 0.14433392425357797]","[0.06971397793242491, -0.0024163282043043847, 0.3553100143760438]","[-0.0767687311771575, 0.05249170515782308, 0.46479657445238165]","[-0.358955742864684, 0.13800860481645008, 0.5775828332731525]","[-0.4093367021694322, 0.4264398958003549, 0.465390058907063]","[-0.48297219178596995, 0.464685519201919, 0.41782078215804824]","[-0.3701538854669794, 0.4718661723722962, 0.3305682116078249]"
120,120,1639136563979646932,1.8433785052602096,0.4995251940783674,1.4291455152421535,-0.06379288976517294,0.2285219033399221,0.2762617413126547,2.440842299815277,"[-0.045988629887681653, 0.01676275193497042, 0.09958058930810088]","[0.043839632438977205, 0.018605053063306683, 0.37180666235211274]","[-0.0414256662070674, 0.020610840940456385, 0.5996840865238372]","[0.0743743890792687, -0.03713065849508569, 0.7886236000628492]","[-0.1457480462713329, 0.0594261771341587, 0.6780509386348196]","[-0.3033919583219093, 0.11851837850307294, 0.6358459834880016]","[-0.286929799677835, 0.20874188791992154, 0.704066640110627]"
121,121,1639136564079528268,0.2697296469866912,0.07006908153922707,0.1786249955428474,0.4918972445549907,-2.7751921048956985,1.8718875642778263,0.8195341914406553,"[0.09582141751956004, 0.005534514756397525, 0.050756554212051525]","[0.012802520983507787, -0.027558418092894034, 0.3907098813667177]","[-0.08626826761529707, 0.021831211214877078, 0.5645950749098017]","[-0.10893940575039002, 0.22782257953247936, 0.6420541766070826]","[-0.12472488575676152, 0.28281723701389677, 0.7827698958894312]","[-0.16533348591878236, 0.3359994179941439, 1.036842342630004]","[-0.10646204003707521, 0.32486776041470317, 1.1815201240901683]"
122,122,1639136564179534565,0.4904206951912316,0.1710211971727995,-1.7605169455529484,0.7247315794689939,-2.2840668713758285,-1.5119303637998152,1.902117050861793,"[0.023091475771917776, 0.045854455977137415, 0.21803030873080487]","[0.07768489907022755, -0.00036303735689808116, 0.41495458351758696]","[0.010239495399458419, -0.07315216557516842, 0.5215236616378431]","[0.03521988855603221, -0.014381095206602284, 0.7214453893173407]","[-0.1440546303049351, -0.11326358453687113, 0.9299323838113055]","[-0.20455279937155652, 0.0035167566851512684, 1.0697363391914263]","[-0.09480994264162465, -0.04756212169114707, 0.9942492963655218]"
123,123,1639136564279528031,-0.04966800502329116,0.5331206032390471,0.8137890741715283,0.5132102778065186,2.6498879679442875,1.6013215633787268,-2.2084150170486403,"[0.0383478869347924, -0.009603761425245246, 0.17109715696012295]","[-0.03811573576839951, -0.017515597078256562, 0.42265491130556626]","[0.08675185114449081, 0.08295746153126368, 0.5710230161191429]","[0.14753787273359872, 0.10034468636937044, 0.7455680944443285]","[0.10855006959792812, 0.16257545153148356, 0.934730368791988]","[0.08653250041316778, 0.2798413617499757, 1.0325062290241476]","[0.12745542963446732, 0.24084421271561549, 1.0011395881125253]"
124,124,1639136564379565862,0.6111168209223488,-1.7908021283945923,0.011222654584921003,-1.1458462967011291,-0.6465991214186513,1.2804309549668362,0.7041876182999798,"[-0.06960624188004927, 0.000539783693949854, 0.1194542735510683]","[-0.001797086301100554, -0.04069916737861387, 0.2555425013830161]","[0.16918925860872797, -0.03190498221495338, 0.5086044821002141]","[0.18288513603388903, 0.04098084958380463, 0.6569094689918616]","[0.16714142229487072, -0.1226242444443636, 0.785336351175465]","[0.3102809771795162, -0.17309469793639085, 1.0477651878272323]","[0.0821102608816404, -0.18353851695086942, 1.071505305697818]"
125,125,1639136564479535722,2.774426663210324,-0.13142595998004605,0.18650616445851398,1.1667323797741678,-0.9274718136433946,0.9771707964151184,-1.7524033939587025,"[-0.03195555420499689, 0.017024564378915048, 0.09842195554686975]","[-0.05543093915144433, 0.050683473146305585, 0.2999517154034851]","[-0.217813220518133, -0.05722183078615864, 0.2226153517503885]","[-0.40368498449870577, -0.2696530350211415, 0.1908639766059107]","[-0.35281792000608514, -0.2946166042670013, 0.34888976925979875]","[-0.5244799215509145, -0.4097664360840441, 0.6298806922174685]","[-0.40881951571355646, -0.29599630045682696, 0.5484637787787113]"
126,126,1639136564579515987,-2.631867564156255,-0.6491605868736476,1.43083453486584,1.4939379559310453,0.6630157621678534,1.8908757035533617,2.1220844166720947,"[-0.0358702374933987, -0.02083552531134293, 0.15667588294608734]","[0.06146019832226782, -0.05190765724283827, 0.24576164640041845]","[0.11325876601568521, 0.014513302673952578, 0.5534143799825844]","[0.11143071699313323, 0.04125301891132674, 0.7496118810969858]","[0.17206425077485987, -0.07489309959577307, 0.8742342418766814]","[0.4543241797453956, 0.02981792236080598, 0.85546660892976]","[0.4808467979502574, -0.1254011156528068, 0.9133961594922987]"
127,127,1639136564679591034,2.69369449371754,-1.949497438818884,0.2535763622446283,-0.057053130706205664,0.7809332184625649,0.005839203087158129,2.7759475238308613,"[-0.07880586656273998, -0.008242674273890596, 0.21675008312396682]","[0.04816940472159593, 0.09103918740604358, 0.42218071513107513]","[0.09506209603469364, -0.03237114922171069, 0.5231371275253489]","[0.2833685961751282, 0.08965720328518353, 0.5885433781326094]","[0.11286667419793457, 0.2938594716453048, 0.6028347236830699]","[-0.03197602846522771, 0.4251199118672048, 0.7313075553269779]","[0.10901373817656049, 0.5918653243879352, 0.6025757612459359]"
128,128,1639136564779682159,-1.9367287481567528,-1.4198315582062624,-1.7237939335748356,1.940176144079936,-0.4831204602009902,1.0827617309252702,-1.0301206245895842,"[-0.06583031549480997, 0.00880457511823998, 0.14254165123719884]","[0.0073736345226170195, -0.030843325859277973, 0.270293164794254]","[0.24384194006577448, -0.006777797826181514, 0.2921842848733239]","[0.3553283032026596, -0.08274526073286181, 0.2324263018093226]","[0.5770692714610639, -0.31079631146465414, 0.18307116008920749]","[0.7414951121473163, -0.3034492899573297, 0.06421638845439054]","[0.8097577876782754, -0.3535481740747729, 0.09414995425298082]"
129,129,1639136564879504400,0.4429408794169909,-0.5962733849562327,-1.6106065871186748,-1.3627291573429123,-2.74347520861774,-0.32575393572887945,1.7298262549382453,"[0.027099321433577114, 0.014451992215666537, 0.07692535989996631]","[0.01921511955662584, -0.053916988606097505, 0.31326529539954423]","[-0.006593731813547235, 0.1420740076094771, 0.3631540725998641]","[0.14057148277401368, 0.292895985470917, 0.43761422146344564]","[0.25741048862481786, 0.2844540299899827, 0.3469767807252221]","[0.5056277590528669, 0.1411688290953891, 0.33515756176715444]","[0.5758260945601666, 0.062486853077657875, 0.4647897189668509]"
130,130,1639136564979539165,1.3056393538783009,0.2784858168293143,1.3295235544879929,-0.3220327990123475,-2.0352958140760795,-0.17903878344423596,-1.1411407030850371,"[-0.0997614954230948, -0.004191916223142451, 0.10059390298107537]","[0.001409406504120938, 0.03151650869859692, 0.4150613765859515]","[-0.06942513774213116, -0.12288441924594107, 0.584058048122985]","[-0.22552585398831648, -0.0660012066635815, 0.7158919640297906]","[-0.1725605823591997, -0.3873372770179687, 0.6471937964121403]","[-0.15949905334280257, -0.4436185448151784, 0.732524054688738]","[-0.11867558953655058, -0.5748275334007851, 0.7011822207719216]"
131,131,1639136565079541235,-2.1302167879440166,-0.4101108165083571,1.8663210830660364,1.0624961697869315,-2.319424851871969,-0.6375219223307829,1.6395153896347527,"[-0.06839699398941497, -0.03302894056967752, 0.18313179160329995]","[-0.028124406496982876, 0.04774321822759328, 0.26728699854322496]","[0.06755876410414477, 0.08199767514136552, 0.4736291146454673]","[-0.03087288287852133, 0.18459228783580917, 0.664907246232455]","[-0.11245770592805918, 0.13979867984637562, 0.9187403257584462]","[-0.0012042281508400296, 0.2208520934479531, 1.0983922781625535]","[-0.05609605806029238, 0.24825104144374666, 1.0953272733622053]"
132,132,1639136565179639334,1.6442116513705265,-0.1888251426310852,-2.3144298848047797,0.07339794481355888,-1.0605050499923083,1.7804286241945708,-1.0427343200667891,"[0.0024046081481578375, 0.06749116753727713, 0.16715223015734512]","[0.09955804365865606, 0.00355308274364546, 0.3248048917038481]","[0.10368671676267216, 0.12904805293808735, 0.49924930711925625]","[0.08661294065043652, 0.06724976609066048, 0.7824062544967576]","[-0.04933077793333694, 0.2952206653194971, 0.7498235996809499]","[-0.18697434746794617, 0.4118089709419898, 0.8422460515404805]","[-0.18413950875889773, 0.44670060129217476, 0.8858055711499766]"
133,133,1639136565279535239,-0.9585369991249424,-0.3090308299203983,-2.9061632984194365,-0.9470521462251392,-1.2089392781478123,0.8680709012980872,-0.7869522846634385,"[0.024454064519647684, 0.02048415232046748, 0.24235340363697094]","[0.08652220794509297, 0.02991773120785553, 0.3199071493870016]","[0.025234450600693653, 0.013287257688665365, 0.49127431724967263]","[-0.038451987989733996, -0.029889562178153625, 0.8016469508794676]","[0.09227477131938308, -0.15866355627920087, 0.9706171753938176]","[-0.099624596060684, -0.07835016513300794, 1.105668518056044]","[-0.01608509322191637, -0.3056136598792164, 1.110278398724926]"
134,134,1639136565379587814,0.5178473359437552,-1.3774829342158723,0.15743144740184922,-0.8846739090698008,-2.4040495227576866,0.6371691367103951,1.398153076665848,"[-0.042754201627673356, 0.03095078537437241, 0.1438339696662588]","[0.03918347110369243, -0.04678737826459976, 0.34045464066465303]","[-0.07207437903097122, 0.04524645080019769, 0.56065692054199]","[-0.07609152259415103, 0.016909673837265507, 0.7629848125212817]","[-0.2433251909987455, 0.18629040365304467, 0.7846251533644288]","[-0.37210508924178176, 0.2768796626699952, 0.8862904461384582]","[-0.3871616451302704, 0.4008796873273169, 0.892276657499832]"
135,135,1639136565479635702,-2.094463419823846,-1.1277453546075176,2.5380796493239743,0.16700154983144788,-0.0992233647773202,-0.5581845217041987,2.395363852034895,"[0.050023790492759894, 0.016344396591539512, 0.1823536732572015]","[-0.01949597383373341, -0.015497182403902535, 0.32030760105619216]","[-0.1931787712688328, -0.02478014056837824, 0.28257356994235305]","[-0.36888166793655575, -0.20995172297357267, 0.35820006317800995]","[-0.3627618006601317, -0.2601817686565721, 0.5830844441411226]","[-0.5039724390924234, -0.17638073480085056, 0.700422572387979]","[-0.6482509687402045, -0.22558281827240606, 0.7434170759179507]"
136,136,1639136565579692627,2.4904316100756843,-1.3403755226193868,0.4061531652847834,-0.8430016599239323,-2.0650573165129984,0.4712151845284378,0.6001198694382097,"[-0.022489096781526552, 0.0017451144979837342, 0.16720326321760767]","[0.03807827963302915, -0.03453476696658526, 0.3096273447133825]","[0.04049213392552648, 0.1407825022984013, 0.36829913153272453]","[0.22042969055164963, 0.27445919145686615, 0.5691845082938909]","[0.22397463071910872, 0.46990342392822076, 0.5490084549434899]","[0.34475731719041, 0.5413479280013395, 0.6875845691745199]","[0.2510202553233822, 0.6799313726864108, 0.7886590544632504]"
137,137,1639136565679594740,0.5120968700753292,1.8162831885010664,-1.7930910161274531,-0.11272066871595032,-0.15773896661000994,-1.2329309848863583,-2.1657544387629946,"[-0.052111312844327407, 0.08544683288020993, 0.07046955089180654]","[-0.035013753244574015, -0.07744475272775614, 0.32041705514717267]","[0.19315889007300258, -0.07135359909967307, 0.35731885555667026]","[0.26161830593798, -0.27203351944376986, 0.35135523413366276]","[0.4499535779013528, -0.3409779281330397, 0.5182229478748348]","[0.4990888141645194, -0.5364631993474096, 0.6434654468156443]","[0.4620448784726272, -0.4176421850582983, 0.8766745796382]"
138,138,1639136565779580747,0.9882879108846256,0.8718360945580849,1.7615037873968402,1.3418369820187972,-0.34259904537900354,1.616041018750972,0.03625414757777223,"[-0.08925646093574231, -0.01930363655318658, 0.2136039357192543]","[-0.0023165218808983653, 0.0415939431122682, 0.31062568380820443]","[0.194635509768276, 0.08731853004056665, 0.3380272548347662]","[0.27909050214131, 0.23700109566063715, 0.26286895798574095]","[0.511761102961371, 0.24942441316755667, 0.17340333977428257]","[0.6842518526541922, 0.42239570903111745, 0.1725562017295532]","[0.6687427949411605, 0.40732919002478646, 0.15380835834799303]"
139,139,1639136565879506759,1.2939581376612197,0.5628607244915438,2.456864030986607,-1.9455249649743969,1.3690345786247282,0.8297478081841927,-2.6758614783053742,"[-0.05712333876017636, -0.02727158717784352, 0.18025589633010855]","[-0.022535374239013247, 0.03420141686014572, 0.35243656130002204]","[0.08621692416919646, 0.127964738368826, 0.5048327948694868]","[0.10578366091571967, 0.2967140091957238, 0.6775274725714944]","[0.3030812189748736, 0.2292769655230823, 0.6265811849528147]","[0.5265738470103609, 0.22492524153398213, 0.5413717356896514]","[0.6108489819339253, 0.1404970014288458, 0.550603632572518]"
140,140,1639136565979580996,-2.759366013937858,-0.4207013380665625,0.7249448727401657,0.9699486208758552,0.6011796100729541,0.0075024778207106735,0.5216842681727054,"[-0.05833077776407131, -0.07698353650762668, 0.24389154107094546]","[0.031315347560879336, 0.09049661051235341, 0.4111377236619338]","[-0.0037490614752342943, 0.12002882920842785, 0.5774892697317904]","[0.07975186742454199, 0.24264506436626498, 0.6817202279430339]","[-0.1734971644101611, -0.014330013356306043, 0.7173615766017178]","[-0.19188151937739922, -0.08231186964493661, 0.5635754690823583]","[-0.22510062050575616, -0.12496850017689647, 0.6596662798291444]"
141,141,1639136566079520013,-0.2849286818960257,-1.9352233062850541,-0.7420545573858699,-1.9256679944345318,-1.1762925155855564,1.4451939332549095,1.209210180537926,"[0.0709505639690532, 0.05637004027869304, 0.07513268029039731]","[0.0991229080945594, 0.06047384381571981, 0.27500898728221046]","[0.1118526220684487, -0.018424546052669508, 0.6160410867759603]","[0.24431519403297208, 0.1255349864359765, 0.644237665065476]","[0.29104379152778337, 0.25758528002411885, 0.7376866683007971]","[0.32906953533700545, 0.35485069582294027, 0.7730072287631112]","[0.36180847697577, 0.38688527875306405, 0.8596834854878501]"
142,142,1639136566179532566,-0.2109727069838913,-1.5407357691738417,-1.5857432973097518,1.8112784058336597,-1.207912761136221,0.6906206122313572,-0.8965612308923725,"[0.09859688197337292, 0.04558713662433769, 0.10212874481334439]","[0.025950655573928623, 0.05202566097529489, 0.2564351028880789]","[-0.15933605469853318, -0.0063237202739155965, 0.3136990302719969]","[-0.34538001919136524, 0.07931757633355076, 0.15780603665103796]","[-0.42338173197463436, -0.12506040028311283, 0.3938701894141643]","[-0.3727438775984424, -0.22864622076523863, 0.4468739793994098]","[-0.4534400472709027, -0.14506127959879106, 0.41907445068618254]"
143,143,1639136566279780853,2.332555964476648,-1.5895636908023771,2.6038783329394053,-1.4051703106252051,-0.7218683129688865,0.5294559296725563,1.045221942931128,"[0.047984132571837014, 0.08174506335404844, 0.1430059010213803]","[-0.06933443099675145, 0.0419548546429675, 0.3145528142003327]","[-0.24954076156615507, 0.0071028219766928885, 0.3519506081493412]","[-0.38197179788557817, -0.01058881510298565, 0.41294836323675893]","[-0.35218730831632894, 0.25610491882047554, 0.27815659842009877]","[-0.12542047374044113, 0.3425246903200401, 0.32894536786526574]","[-0.23425943639550525, 0.5594090172117883, 0.2341558326180725]"
144,144,1639136566379539913,2.489712239385204,0.11150925935895416,-1.835276308042366,1.5960942336450137,-2.0338131178000403,-0.9187293562231584,-1.3210109662595564,"[0.03390127686286884, 0.0223057675629343, 0.23703058731035748]","[-0.004567717697153317, -0.04142992704737397, 0.29417275541011484]","[0.15247975378217268, -0.23295688242637314, 0.2957426475089362]","[0.35181086915831955, -0.3178303572388807, 0.382163195114948]","[0.22726427254629625, -0.35575441405130814, 0.20515418810017888]","[0.15972401996595842, -0.45481409853346455, -0.013164025564053612]","[0.19413643701380323, -0.5678969276667708, -0.07962363470144326]"
145,145,1639136566479641430,0.08664408354988806,1.2511323013728672,-0.6133640671604983,-2.0235250885739364,0.12250117697975725,-1.0806779272013751,0.4442556769939357,"[-0.08950265841292106, -0.07700260282680442, 0.21184932109226357]","[-0.09411495251714973, 0.02616273869359831, 0.38295104607195934]","[0.060088099846634296, -0.036164791166667126, 0.4856560034597013]","[-0.12075778020916383, 0.03382560178856772, 0.7278483715390601]","[-0.29803941710326615, -0.06880308979178389, 0.6649800808138027]","[-0.3328139241104999, -0.12083581685994231, 0.6926593956415977]","[-0.4373536475648226, -0.17168910407539595, 0.7549296557887646]"
146,146,1639136566579484733,0.3524084657604329,0.5469934014320263,-2.0482251618228005,1.3843314179958033,1.7482665980575691,0.019310682739108742,2.7078044309392326,"[-0.03394458026537023, -0.0012459288794897045, 0.17609927071073855]","[-0.02826957957072437, 0.004730286924848202, 0.3428331791431759]","[0.19354924114081345, 0.028329050863731664, 0.4132534508639459]","[0.40498747287846343, 0.05462146477122126, 0.4203003231825114]","[0.3428085859070006, -0.017295041257634175, 0.28287785039058444]","[0.34983983194260415, -0.25339904797854684, 0.10323297661203229]","[0.3506707723892502, -0.15795537241294963, 0.18114882675800126]"
147,147,1639136566679478664,-1.1060131496203334,-1.5155984565275975,-1.7691124748402232,-0.11930054822168867,-1.1847240610436045,1.2278551717708837,-1.958894897165912,"[-0.08577226123354148, -0.02661762366339925, 0.09328185527218358]","[-0.06611848799394103, 0.0172155586657813, 0.394778982820984]","[0.010326190371933663, 0.0500222390113179, 0.4925966224040327]","[0.10620637158455318, 0.011028999208632845, 0.6762194846197923]","[0.20408727190082768, 0.22468523666131374, 0.6745211862127988]","[0.29073487934447495, 0.4382139929327797, 0.6203381252298962]","[0.1826530330186968, 0.5192820008967769, 0.6612683133897215]"
148,148,1639136566779684965,-2.3362346390720226,1.386872166275627,-1.6674915504998389,-1.2731726091590057,-1.737916209030899,-1.3623932042491247,-2.000726262352607,"[0.059805019099024664, 0.0275371062564115, 0.12264618324232163]","[-0.011674145145982622, -0.06830550598086708, 0.3040303130729769]","[-0.12310789751139868, 0.17416116923137037, 0.44053946726135396]","[-0.24103505046028134, 0.3776334392491989, 0.33273371294367926]","[-0.34732885205073355, 0.519513804770916, 0.40815335081464393]","[-0.3803827978063983, 0.6771759622627652, 0.3621807041213104]","[-0.48132165907786706, 0.8068011945239331, 0.3922528984101683]"
149,149,1639136566879576476,-0.20684342971935754,-0.22492373444775413,-0.3036805366854951,1.8888177540245668,-0.6968316255257894,-0.4787330919127155,-2.3859366300603364,"[0.04473048863012005, -0.06580229984604968, 0.16735818959699023]","[-0.021694163132834968, -0.04813914101471635, 0.3397907817567228]","[-0.10728970900049938, -0.19763444845057693, 0.45502346816679573]","[-0.1996058164394254, -0.28104655563382036, 0.48462753648418655]","[-0.4623723101902025, -0.17964011366346078, 0.40591451837254355]","[-0.6160085991859507, -0.1244054693790716, 0.40319943826453375]","[-0.6685055660742056, -0.15672200420955348, 0.4831404857956151]"
150,150,1639136566979524000,1.6838476263238484,-0.5015739002650124,1.074023294869677,-1.7955734483306718,-2.7231517585575435,-1.2107865518859535,-1.3080350729835506,"[-0.02270919622899999, 0.06624763698638533, 0.13708225091094717]","[0.025919816521275882, -0.045219155354854906, 0.37820171863370244]","[-0.1310976127984656, -0.04279103962711406, 0.5589438186078066]","[-0.016519565062454986, 0.09584082836533883, 0.8214889686260011]","[-0.24146598350852985, 0.026164834033703108, 0.6978276165585887]","[-0.41500820992786736, 0.1531280105302691, 0.5790578366831762]","[-0.32240082862457664, 0.27581137600812444, 0.3882322532133555]"
151,151,1639136567079578828,-1.236822842904691,1.5200283887393182,1.8677166517924408,0.9971891108504436,2.1589716164191066,-0.9490403530878152,1.1949898482559056,"[0.04005889850508339, -0.08976017382813482, 0.0728030688102547]","[-0.018388641563706537, -0.04249032343246173, 0.3397144085208309]","[-0.015561523507281828, -0.004619379828354309, 0.48579156053161693]","[0.030145470358298877, -0.2605886232051261, 0.5935136436950869]","[-0.18260849881393068, -0.16119413590611056, 0.7928363131368702]","[-0.27568380364690476, 0.011987761048121229, 0.614450083554431]","[-0.4049861321385399, -0.08123269090605043, 0.6948462887021354]"
152,152,1639136567179531542,-2.596331809555522,0.5034764661804152,-2.5087818111014726,-0.4718925390247746,1.5296548166423656,1.1771702943137463,0.3367192960733112,"[0.08865432154580331, -0.015268275705700272, 0.20876781103557243]","[-0.012304074321359972, 0.03330209500797001, 0.35270577934425545]","[0.04858614447477878, -0.17956997372019362, 0.3275776702592402]","[0.09004143006871718, -0.4248938936002534, 0.4561798094339083]","[-0.08644594845601614, -0.5746123882162867, 0.3619625755309013]","[-0.0683936613843303, -0.7923013470176218, 0.3147567527543739]","[-0.06565781275763724, -0.7884064395166669, 0.21403734819728581]"
153,153,1639136567279527566,-0.08601334602628175,-1.3231367993384897,-2.8633656708551682,1.5646877236600318,0.35475369646244514,1.7070654672440946,0.7730301159015505,"[0.0071829641089035225, -0.017798025355226173, 0.23825738641047106]","[-0.09353616936738797, -0.02436640567770492, 0.32736178084662826]","[-0.09895789197466888, -0.04133281000504292, 0.4761253960381152]","[-0.17248624613135774, -0.08212546034641297, 0.6518705202158865]","[-0.1878275222982329, -0.07441599896108103, 0.8180843123548469]","[-0.22093053865004175, -0.022754474668706233, 1.0642076595976948]","[-0.3876805959480519, 0.006433687565927964, 1.0843661949376893]"
154,154,1639136567379621755,-0.28542365019313204,-2.054602455137972,1.7413152314025315,0.5474331034946824,-1.4854452744998372,1.9618705384281685,-2.7007217016836886,"[-0.032150810305371924, 0.04409833246689493, 0.20059203700500183]","[-0.024066521345304112, -0.008874389364253967, 0.426831604238152]","[-0.1645580293854575, 0.005792024047234775, 0.4433037815763119]","[-0.3843167296484725, 0.09552220848994367, 0.5226898064843243]","[-0.29988542233406273, 0.03579391200421192, 0.6423351861039089]","[-0.327454520927271, 0.26108035338862334, 0.7763166397690173]","[-0.2869062719281556, 0.15036928428961505, 0.7414190840442128]"
155,155,1639136567479639671,0.13115617304871785,0.472931502653974,0.7366448803038521,1.0549711915082174,1.7913651663101322,-1.1860310644292005,-1.6246045502966584,"[-0.06561755579684657, -0.0817490004320382, 0.18453862852212183]","[0.02315249897038442, 0.043799398236340076, 0.328575768186354]","[-0.2621808788079815, 0.15084990920104735, 0.19964596437875742]","[-0.29767452568443276, 0.07609262112255254, 0.07561464178000882]","[-0.548790769348659, -0.020857348011678704, 0.0075029794047390685]","[-0.6482607942146797, -0.017192713278560548, 0.0623258631572765]","[-0.794084817787662, 0.10083286554848933, 0.13367738149762234]"
156,156,1639136567579468903,1.5926479831077738,-1.5934662855792163,1.3272167758594366,0.5240271595660317,-2.2256065374240124,1.6337230198527235,1.6676609604663983,"[-0.055858063900137415, -0.06674698893159169, 0.20831499687729502]","[0.09886247657312491, -0.013225316866051502, 0.43937702317690225]","[0.04300336903714052, 0.08630450152250806, 0.5374444451151491]","[0.19749153038513306, -0.020855410374814115, 0.6741332633993193]","[0.06510022431494385, -0.14465179282586962, 0.8023429576016854]","[0.06413983478636127, -0.23182688114866662, 0.9623232807635662]","[0.2157789546626048, -0.3007579458803301, 1.094738758675271]"
157,157,1639136567679482817,0.4612230405260713,-1.8527058306060311,-0.8876273032810298,-1.5146267674669731,1.8051783654162168,-0.25070956821397483,2.4876427246877912,"[-0.057201817298296403, 0.05313228364028784, 0.08682590483792939]","[-0.055183615944472214, -0.02477066629376716, 0.3225443122605404]","[0.08665852977480411, -0.13203641674467456, 0.23824081446365963]","[-0.06928302618402722, -0.3492615004077083, 0.30977657900145317]","[0.09244251097080403, -0.6540193734617449, 0.29126198501625944]","[0.2726884352953955, -0.7460565274213818, 0.19084885856206454]","[0.17971314379585612, -0.7688017110598305, 0.39883323442478796]"
158,158,1639136567779602236,1.737716213478366,-0.5294871007383251,-1.5184454807517078,-0.6875127253556155,-0.8190702791934991,1.0923209547776085,-1.1335626073408287,"[0.03833616856290772, 0.09154775625727797, 0.12558117045207448]","[0.0930079006264943, -0.06251624449660956, 0.3248734048083098]","[-0.2646753344337906, -0.10107734776521521, 0.3009220984677896]","[-0.28401158024850437, -0.23807841357693732, 0.27311719786469]","[-0.27860250678746995, -0.29680451221070975, 0.3247083208464987]","[-0.19221000203931768, -0.48198298869798506, 0.5552458551039583]","[-0.3630311075310587, -0.4891482729760397, 0.4419136953949352]"
